P3
# Runner v0.7.29 remade modular armor sprite; #ff00ff is transparent
40 20
255
255 0 255 255 0 255 255 0 255 255 0 255 255 0 255 255 0 255 255 0 255 255 0 255 255 0 255 255 0 255 255 0 255 255 0 255 255 0 255 255 0 255 255 0 255 255 0 255 255 0 255 255 0 255 255 0 255 255 0 255 255 0 255 255 0 255 255 0 255 255 0 255 255 0 255 255 0 255 255 0 255 255 0 255 255 0 255 255 0 255 255 0 255 255 0 255 255 0 255 255 0 255 255 0 255 255 0 255 255 0 255 255 0 255 255 0 255 255 0 255
255 0 255 255 0 255 255 0 255 255 0 255 255 0 255 255 0 255 255 0 255 255 0 255 255 0 255 255 0 255 255 0 255 255 0 255 255 0 255 255 0 255 255 0 255 255 0 255 255 0 255 255 0 255 255 0 255 255 0 255 255 0 255 255 0 255 255 0 255 255 0 255 255 0 255 255 0 255 255 0 255 255 0 255 255 0 255 255 0 255 255 0 255 255 0 255 255 0 255 255 0 255 255 0 255 255 0 255 255 0 255 255 0 255 255 0 255 255 0 255
255 0 255 255 0 255 255 0 255 255 0 255 255 0 255 255 0 255 255 0 255 255 0 255 255 0 255 255 0 255 255 0 255 255 0 255 255 0 255 255 0 255 255 0 255 255 0 255 255 0 255 255 0 255 255 0 255 255 0 255 255 0 255 255 0 255 255 0 255 255 0 255 255 0 255 255 0 255 255 0 255 255 0 255 255 0 255 255 0 255 255 0 255 255 0 255 255 0 255 255 0 255 255 0 255 255 0 255 255 0 255 255 0 255 255 0 255 255 0 255
255 0 255 255 0 255 255 0 255 255 0 255 255 0 255 255 0 255 255 0 255 255 0 255 255 0 255 255 0 255 255 0 255 255 0 255 255 0 255 255 0 255 255 0 255 255 0 255 255 0 255 255 0 255 255 0 255 255 0 255 255 0 255 255 0 255 255 0 255 255 0 255 255 0 255 255 0 255 255 0 255 255 0 255 255 0 255 255 0 255 255 0 255 255 0 255 255 0 255 255 0 255 255 0 255 255 0 255 255 0 255 255 0 255 255 0 255 255 0 255
255 0 255 255 0 255 255 0 255 255 0 255 255 0 255 255 0 255 255 0 255 255 0 255 255 0 255 34 43 54 42 56 69 56 72 89 61 77 92 71 81 92 59 62 70 53 53 61 39 44 48 10 27 37 10 20 25 0 15 15 0 15 15 5 22 27 6 12 19 37 47 65 40 50 59 16 10 7 20 20 17 44 57 71 43 54 67 17 25 29 7 15 23 255 0 255 255 0 255 255 0 255 255 0 255 255 0 255 255 0 255 255 0 255 255 0 255 255 0 255
255 0 255 255 0 255 255 0 255 255 0 255 255 0 255 255 0 255 0 6 13 64 70 79 78 85 95 122 128 141 126 127 136 125 128 137 127 127 137 82 102 122 46 103 138 70 116 143 77 95 111 73 83 92 53 70 85 46 67 83 43 62 77 51 66 79 71 82 98 87 93 112 26 36 48 18 63 92 35 49 62 72 77 89 86 91 106 37 43 51 14 33 48 9 16 23 255 0 255 255 0 255 255 0 255 255 0 255 255 0 255 255 0 255 255 0 255 255 0 255
255 0 255 255 0 255 255 0 255 255 0 255 255 0 255 255 0 255 82 80 87 122 116 124 143 135 132 101 94 91 140 135 130 183 165 151 106 98 99 2 91 145 75 211 249 76 222 255 17 150 211 67 98 129 118 115 120 106 108 120 101 102 115 104 99 103 160 147 141 118 108 104 9 30 53 52 192 234 41 91 121 98 83 84 130 125 133 68 69 74 16 34 55 16 30 41 9 17 24 255 0 255 255 0 255 255 0 255 255 0 255 255 0 255 255 0 255 255 0 255
255 0 255 255 0 255 255 0 255 255 0 255 255 0 255 44 41 39 138 127 122 150 139 133 178 164 155 140 132 126 65 73 83 83 88 93 141 130 123 183 181 178 137 162 179 120 148 164 116 127 137 119 114 112 135 123 118 135 123 118 133 121 117 118 107 102 203 185 169 153 140 127 21 36 57 72 179 219 47 81 105 107 90 88 138 128 124 60 57 58 26 41 62 20 34 49 14 25 37 5 10 16 255 0 255 255 0 255 255 0 255 255 0 255 255 0 255 255 0 255
255 0 255 255 0 255 255 0 255 255 0 255 255 0 255 116 108 106 185 168 154 194 180 167 210 192 175 217 201 184 194 181 166 187 175 162 180 171 160 178 166 154 174 155 140 160 140 127 149 132 121 160 145 133 169 155 144 171 156 146 173 157 145 184 167 154 177 167 158 180 170 159 51 53 57 40 60 81 85 79 83 165 148 139 187 170 159 87 78 76 25 39 62 22 31 44 20 29 44 10 12 20 255 0 255 255 0 255 255 0 255 255 0 255 255 0 255 255 0 255
255 0 255 255 0 255 255 0 255 255 0 255 255 0 255 135 128 126 199 183 170 212 198 183 226 211 193 225 212 195 228 215 197 223 207 187 222 206 188 209 194 180 192 177 163 203 188 173 218 201 185 217 196 177 219 199 181 214 193 175 210 188 168 217 199 181 213 199 183 229 212 194 170 157 147 44 36 33 196 180 166 221 200 181 151 137 129 70 74 86 69 88 117 45 61 82 24 37 55 13 24 40 255 0 255 255 0 255 255 0 255 255 0 255 255 0 255 255 0 255
255 0 255 255 0 255 255 0 255 255 0 255 255 0 255 136 130 126 241 226 209 226 214 199 247 238 225 243 235 222 242 235 223 232 221 206 217 202 186 218 202 188 214 195 178 191 173 158 154 141 133 146 138 134 115 108 104 112 111 114 101 104 112 85 86 92 95 93 98 167 152 139 149 135 124 40 40 43 102 98 95 113 108 107 55 68 96 49 62 89 23 31 41 35 46 58 46 65 92 18 27 41 255 0 255 255 0 255 255 0 255 255 0 255 255 0 255 255 0 255
255 0 255 255 0 255 255 0 255 255 0 255 255 0 255 99 96 96 255 250 242 227 217 202 245 235 222 238 224 207 226 212 196 223 207 191 219 198 179 210 189 170 197 177 161 93 89 89 55 67 87 68 88 116 45 60 85 45 60 81 50 70 97 42 53 76 35 42 63 55 58 70 71 77 89 23 28 35 37 47 62 70 83 105 41 51 70 13 19 28 11 15 24 15 21 33 36 47 66 17 22 33 255 0 255 255 0 255 255 0 255 255 0 255 255 0 255 255 0 255
255 0 255 255 0 255 255 0 255 255 0 255 255 0 255 23 23 27 194 183 172 235 218 199 187 172 159 172 162 150 165 152 140 173 159 146 153 143 135 106 103 104 74 81 94 54 67 85 67 86 113 55 71 98 51 69 97 30 41 57 31 38 53 32 40 59 23 28 41 25 28 38 51 58 74 21 25 31 35 45 60 66 82 110 68 84 112 36 48 67 46 64 93 29 39 58 19 22 35 5 5 11 255 0 255 255 0 255 255 0 255 255 0 255 255 0 255 255 0 255
255 0 255 255 0 255 255 0 255 255 0 255 255 0 255 255 0 255 98 92 91 200 186 174 160 147 138 163 153 142 139 129 119 55 67 88 56 72 97 52 71 101 51 73 105 41 58 83 28 39 55 27 37 53 24 32 50 19 27 40 5 0 5 255 0 255 255 0 255 255 0 255 255 0 255 255 0 255 255 0 255 4 8 17 30 43 59 18 24 34 28 34 51 4 4 8 255 0 255 255 0 255 255 0 255 255 0 255 255 0 255 255 0 255 255 0 255 255 0 255
255 0 255 255 0 255 255 0 255 255 0 255 255 0 255 255 0 255 255 0 255 109 103 97 169 157 148 107 102 101 61 67 79 51 66 94 45 58 84 37 47 70 23 38 55 20 31 47 13 19 30 0 6 0 255 0 255 255 0 255 255 0 255 255 0 255 255 0 255 255 0 255 255 0 255 255 0 255 255 0 255 255 0 255 255 0 255 255 0 255 255 0 255 255 0 255 255 0 255 255 0 255 255 0 255 255 0 255 255 0 255 255 0 255 255 0 255 255 0 255
255 0 255 255 0 255 255 0 255 255 0 255 255 0 255 255 0 255 255 0 255 255 0 255 43 41 50 68 67 79 60 56 63 32 29 36 19 23 32 14 14 25 255 0 255 255 0 255 255 0 255 255 0 255 255 0 255 255 0 255 255 0 255 255 0 255 255 0 255 255 0 255 255 0 255 255 0 255 255 0 255 255 0 255 255 0 255 255 0 255 255 0 255 255 0 255 255 0 255 255 0 255 255 0 255 255 0 255 255 0 255 255 0 255 255 0 255 255 0 255
255 0 255 255 0 255 255 0 255 255 0 255 255 0 255 255 0 255 255 0 255 255 0 255 255 0 255 255 0 255 255 0 255 255 0 255 255 0 255 255 0 255 255 0 255 255 0 255 255 0 255 255 0 255 255 0 255 255 0 255 255 0 255 255 0 255 255 0 255 255 0 255 255 0 255 255 0 255 255 0 255 255 0 255 255 0 255 255 0 255 255 0 255 255 0 255 255 0 255 255 0 255 255 0 255 255 0 255 255 0 255 255 0 255 255 0 255 255 0 255
255 0 255 255 0 255 255 0 255 255 0 255 255 0 255 255 0 255 255 0 255 255 0 255 255 0 255 255 0 255 255 0 255 255 0 255 255 0 255 255 0 255 255 0 255 255 0 255 255 0 255 255 0 255 255 0 255 255 0 255 255 0 255 255 0 255 255 0 255 255 0 255 255 0 255 255 0 255 255 0 255 255 0 255 255 0 255 255 0 255 255 0 255 255 0 255 255 0 255 255 0 255 255 0 255 255 0 255 255 0 255 255 0 255 255 0 255 255 0 255
255 0 255 255 0 255 255 0 255 255 0 255 255 0 255 255 0 255 255 0 255 255 0 255 255 0 255 255 0 255 255 0 255 255 0 255 255 0 255 255 0 255 255 0 255 255 0 255 255 0 255 255 0 255 255 0 255 255 0 255 255 0 255 255 0 255 255 0 255 255 0 255 255 0 255 255 0 255 255 0 255 255 0 255 255 0 255 255 0 255 255 0 255 255 0 255 255 0 255 255 0 255 255 0 255 255 0 255 255 0 255 255 0 255 255 0 255 255 0 255
255 0 255 255 0 255 255 0 255 255 0 255 255 0 255 255 0 255 255 0 255 255 0 255 255 0 255 255 0 255 255 0 255 255 0 255 255 0 255 255 0 255 255 0 255 255 0 255 255 0 255 255 0 255 255 0 255 255 0 255 255 0 255 255 0 255 255 0 255 255 0 255 255 0 255 255 0 255 255 0 255 255 0 255 255 0 255 255 0 255 255 0 255 255 0 255 255 0 255 255 0 255 255 0 255 255 0 255 255 0 255 255 0 255 255 0 255 255 0 255
