P3
# Runner v0.7.29 remade modular armor sprite; #ff00ff is transparent
32 32
255
255 0 255 255 0 255 255 0 255 255 0 255 255 0 255 255 0 255 255 0 255 255 0 255 255 0 255 255 0 255 255 0 255 255 0 255 255 0 255 255 0 255 255 0 255 255 0 255 255 0 255 255 0 255 255 0 255 255 0 255 255 0 255 255 0 255 255 0 255 255 0 255 255 0 255 255 0 255 255 0 255 255 0 255 255 0 255 255 0 255 255 0 255 255 0 255
255 0 255 255 0 255 255 0 255 255 0 255 255 0 255 255 0 255 255 0 255 255 0 255 255 0 255 255 0 255 255 0 255 255 0 255 255 0 255 255 0 255 255 0 255 255 0 255 255 0 255 255 0 255 255 0 255 255 0 255 255 0 255 255 0 255 255 0 255 255 0 255 255 0 255 255 0 255 255 0 255 255 0 255 255 0 255 255 0 255 255 0 255 255 0 255
255 0 255 255 0 255 255 0 255 255 0 255 255 0 255 255 0 255 255 0 255 255 0 255 255 0 255 255 0 255 255 0 255 255 0 255 255 0 255 255 0 255 255 0 255 255 0 255 255 0 255 255 0 255 255 0 255 255 0 255 255 0 255 255 0 255 255 0 255 255 0 255 255 0 255 255 0 255 255 0 255 255 0 255 255 0 255 255 0 255 255 0 255 255 0 255
255 0 255 255 0 255 255 0 255 255 0 255 255 0 255 255 0 255 255 0 255 255 0 255 255 0 255 255 0 255 255 0 255 255 0 255 255 0 255 255 0 255 255 0 255 255 0 255 255 0 255 255 0 255 255 0 255 255 0 255 255 0 255 255 0 255 255 0 255 255 0 255 255 0 255 255 0 255 255 0 255 255 0 255 255 0 255 255 0 255 255 0 255 255 0 255
255 0 255 255 0 255 255 0 255 255 0 255 255 0 255 255 0 255 157 153 125 189 186 157 199 195 169 204 197 172 202 195 168 212 207 184 213 205 182 201 193 168 202 197 173 192 190 163 181 175 143 157 150 142 255 0 255 255 0 255 255 0 255 255 0 255 255 0 255 255 0 255 255 0 255 255 0 255 255 0 255 255 0 255 255 0 255 255 0 255 255 0 255 255 0 255
255 0 255 255 0 255 255 0 255 255 0 255 255 0 255 197 189 155 242 233 190 241 232 192 251 241 204 254 245 207 255 248 212 255 250 215 255 251 217 255 255 227 255 255 225 255 250 213 250 240 204 220 213 184 203 198 168 187 182 156 255 0 255 255 0 255 255 0 255 255 0 255 255 0 255 255 0 255 255 0 255 255 0 255 255 0 255 255 0 255 255 0 255 255 0 255
255 0 255 255 0 255 255 0 255 255 0 255 255 0 255 133 126 98 212 204 163 231 221 179 225 216 177 224 216 176 221 212 174 222 213 173 228 220 182 230 221 184 233 223 185 244 236 206 234 227 199 239 232 204 255 255 223 255 246 214 228 221 193 205 195 173 255 0 255 255 0 255 255 0 255 255 0 255 255 0 255 255 0 255 255 0 255 255 0 255 255 0 255 255 0 255
255 0 255 255 0 255 255 0 255 255 0 255 255 0 255 15 23 23 75 80 59 183 176 139 225 215 174 221 213 171 229 220 180 226 220 182 228 220 180 230 221 182 228 218 180 215 205 164 201 193 156 235 226 192 239 231 199 252 245 220 255 249 222 255 253 220 224 217 189 170 162 151 255 0 255 255 0 255 255 0 255 255 0 255 255 0 255 255 0 255 255 0 255 255 0 255
255 0 255 255 0 255 255 0 255 255 0 255 255 0 255 44 59 70 57 77 88 57 66 60 119 113 81 170 165 125 160 156 118 168 164 126 176 170 132 193 187 150 213 205 165 201 194 158 220 211 174 226 217 179 226 217 179 232 223 188 242 234 205 253 248 230 255 255 229 237 230 201 166 161 144 255 0 255 255 0 255 255 0 255 255 0 255 255 0 255 255 0 255 255 0 255
255 0 255 255 0 255 255 0 255 255 0 255 24 37 41 42 61 70 57 77 90 59 79 92 41 53 55 47 58 54 51 67 67 58 72 72 60 70 66 56 59 47 85 85 60 195 189 150 208 197 156 222 212 173 228 219 183 230 222 185 227 218 179 237 229 195 250 242 217 255 248 220 236 231 201 160 156 147 255 0 255 255 0 255 255 0 255 255 0 255 255 0 255 255 0 255
255 0 255 255 0 255 255 0 255 255 0 255 255 0 255 23 31 35 50 67 78 61 83 97 74 96 114 55 72 85 65 85 101 59 79 94 60 82 100 76 97 117 60 75 83 164 160 121 136 169 162 205 197 157 219 211 170 223 215 175 230 222 184 228 220 182 234 225 187 251 245 221 255 250 220 219 212 185 115 108 108 255 0 255 255 0 255 255 0 255 255 0 255 255 0 255
255 0 255 255 0 255 255 0 255 255 0 255 255 0 255 35 60 68 29 44 47 47 64 77 52 71 85 39 54 62 64 80 91 74 89 99 80 97 106 72 91 107 59 80 99 108 105 75 191 204 180 216 209 172 218 209 168 213 204 165 218 210 171 224 215 177 226 217 178 237 228 194 252 244 218 255 253 222 194 188 170 255 0 255 255 0 255 255 0 255 255 0 255 255 0 255
255 0 255 255 0 255 255 0 255 255 0 255 255 0 255 28 59 70 36 63 68 40 53 55 47 64 76 66 84 101 57 77 92 63 87 103 123 140 155 93 108 119 34 46 55 48 55 51 108 102 75 164 157 121 209 198 158 228 219 179 218 209 169 214 205 164 218 210 171 218 207 166 234 224 190 249 243 215 236 229 196 148 148 129 255 0 255 255 0 255 255 0 255 255 0 255
255 0 255 255 0 255 255 0 255 255 0 255 40 50 56 45 55 59 55 70 78 39 54 60 56 74 90 49 82 101 68 136 162 94 162 186 58 100 123 80 98 118 75 93 105 57 76 87 51 74 85 36 40 33 75 78 60 136 131 101 199 190 150 224 215 175 227 217 177 218 208 167 225 216 180 237 228 194 236 226 184 170 167 138 255 0 255 255 0 255 255 0 255 255 0 255
255 0 255 255 0 255 255 0 255 255 0 255 34 52 57 54 74 84 39 51 58 32 45 48 47 66 79 71 138 166 67 109 134 91 114 133 105 165 190 57 93 113 80 99 117 42 56 67 58 75 84 164 158 126 139 136 107 45 50 42 59 67 57 111 107 83 174 167 135 220 211 172 228 217 177 234 224 188 234 225 184 175 174 141 255 0 255 255 0 255 255 0 255 255 0 255
255 0 255 255 0 255 255 0 255 255 0 255 26 45 47 40 59 65 40 55 62 37 51 53 49 68 82 85 152 176 61 92 108 50 65 79 82 147 171 60 101 123 45 62 72 36 49 59 50 67 76 155 148 112 224 212 170 180 171 145 24 46 66 36 121 156 56 122 143 81 104 103 157 158 133 223 215 185 248 239 199 176 172 138 255 0 255 255 0 255 255 0 255 255 0 255
255 0 255 255 0 255 255 0 255 255 0 255 12 24 24 30 41 45 34 46 48 23 33 33 52 68 80 81 123 147 92 164 188 80 161 184 52 117 140 43 58 73 39 58 64 43 57 66 45 60 68 168 160 123 211 201 161 217 206 167 175 169 151 93 122 137 66 137 176 68 151 187 45 88 103 71 77 60 165 161 130 160 157 127 255 0 255 255 0 255 255 0 255 255 0 255
255 0 255 255 0 255 255 0 255 255 0 255 255 0 255 255 0 255 23 35 37 26 38 37 31 47 48 48 62 76 67 95 112 68 107 122 57 78 97 36 50 57 18 29 29 40 56 65 43 61 69 122 118 86 203 195 156 224 214 174 215 205 160 215 197 155 176 166 148 112 136 146 45 83 106 13 36 46 21 30 30 81 76 61 255 0 255 255 0 255 255 0 255 255 0 255
255 0 255 255 0 255 255 0 255 255 0 255 255 0 255 255 0 255 26 41 46 41 60 65 30 44 44 25 34 35 36 49 52 32 43 45 30 44 47 36 51 56 58 72 81 40 51 58 31 44 50 34 47 48 94 95 76 185 175 136 202 194 156 204 196 156 230 220 177 232 216 175 188 178 153 105 108 104 255 0 255 255 0 255 255 0 255 255 0 255 255 0 255 255 0 255
255 0 255 255 0 255 255 0 255 255 0 255 255 0 255 255 0 255 19 32 39 30 49 52 43 64 71 29 40 40 33 45 46 35 47 47 29 40 43 53 71 82 64 82 93 60 76 86 25 32 31 38 51 57 49 67 79 58 68 65 138 134 104 218 209 170 211 202 163 220 211 170 246 236 193 212 204 169 255 0 255 255 0 255 255 0 255 255 0 255 255 0 255 255 0 255
255 0 255 255 0 255 255 0 255 255 0 255 255 0 255 255 0 255 255 0 255 10 20 20 29 47 53 33 47 53 33 44 50 40 54 63 30 44 45 45 63 70 54 72 83 56 77 90 42 52 57 77 92 101 40 50 52 48 64 74 46 54 57 171 162 126 222 214 173 223 214 176 232 222 182 171 169 129 255 0 255 255 0 255 255 0 255 255 0 255 255 0 255 255 0 255
255 0 255 255 0 255 255 0 255 255 0 255 255 0 255 255 0 255 255 0 255 255 0 255 255 0 255 255 0 255 255 0 255 7 7 14 21 31 31 36 53 59 48 67 79 62 83 100 68 81 88 40 50 54 63 81 90 54 64 69 46 61 72 114 112 88 218 209 166 222 214 174 235 227 186 164 162 128 255 0 255 255 0 255 255 0 255 255 0 255 255 0 255 255 0 255
255 0 255 255 0 255 255 0 255 255 0 255 255 0 255 255 0 255 255 0 255 255 0 255 255 0 255 255 0 255 255 0 255 255 0 255 255 0 255 22 33 40 41 61 69 60 82 98 82 103 118 72 84 92 46 57 60 34 45 47 31 43 54 76 82 73 207 198 156 223 215 174 225 216 172 142 138 109 255 0 255 255 0 255 255 0 255 255 0 255 255 0 255 255 0 255
255 0 255 255 0 255 255 0 255 255 0 255 255 0 255 255 0 255 255 0 255 255 0 255 255 0 255 255 0 255 255 0 255 255 0 255 255 0 255 255 0 255 20 38 38 37 54 62 42 60 72 64 86 102 84 102 115 59 70 75 39 49 57 50 62 64 171 165 128 229 221 180 209 200 162 104 100 81 255 0 255 255 0 255 255 0 255 255 0 255 255 0 255 255 0 255
255 0 255 255 0 255 255 0 255 255 0 255 255 0 255 255 0 255 255 0 255 255 0 255 255 0 255 255 0 255 255 0 255 255 0 255 255 0 255 255 0 255 255 0 255 255 0 255 24 38 44 30 49 53 49 71 86 73 93 110 71 85 96 35 48 55 105 104 81 210 201 160 201 192 154 255 0 255 255 0 255 255 0 255 255 0 255 255 0 255 255 0 255 255 0 255
255 0 255 255 0 255 255 0 255 255 0 255 255 0 255 255 0 255 255 0 255 255 0 255 255 0 255 255 0 255 255 0 255 255 0 255 255 0 255 255 0 255 255 0 255 255 0 255 255 0 255 255 0 255 25 38 45 25 41 45 48 65 77 62 79 96 66 81 94 86 93 88 93 94 80 255 0 255 255 0 255 255 0 255 255 0 255 255 0 255 255 0 255 255 0 255
255 0 255 255 0 255 255 0 255 255 0 255 255 0 255 255 0 255 255 0 255 255 0 255 255 0 255 255 0 255 255 0 255 255 0 255 255 0 255 255 0 255 255 0 255 255 0 255 255 0 255 255 0 255 255 0 255 255 0 255 22 35 41 40 60 74 54 74 90 69 94 113 47 72 86 255 0 255 255 0 255 255 0 255 255 0 255 255 0 255 255 0 255 255 0 255
255 0 255 255 0 255 255 0 255 255 0 255 255 0 255 255 0 255 255 0 255 255 0 255 255 0 255 255 0 255 255 0 255 255 0 255 255 0 255 255 0 255 255 0 255 255 0 255 255 0 255 255 0 255 255 0 255 255 0 255 255 0 255 7 15 15 26 37 44 27 46 48 32 52 57 255 0 255 255 0 255 255 0 255 255 0 255 255 0 255 255 0 255 255 0 255
255 0 255 255 0 255 255 0 255 255 0 255 255 0 255 255 0 255 255 0 255 255 0 255 255 0 255 255 0 255 255 0 255 255 0 255 255 0 255 255 0 255 255 0 255 255 0 255 255 0 255 255 0 255 255 0 255 255 0 255 255 0 255 255 0 255 255 0 255 255 0 255 255 0 255 255 0 255 255 0 255 255 0 255 255 0 255 255 0 255 255 0 255 255 0 255
255 0 255 255 0 255 255 0 255 255 0 255 255 0 255 255 0 255 255 0 255 255 0 255 255 0 255 255 0 255 255 0 255 255 0 255 255 0 255 255 0 255 255 0 255 255 0 255 255 0 255 255 0 255 255 0 255 255 0 255 255 0 255 255 0 255 255 0 255 255 0 255 255 0 255 255 0 255 255 0 255 255 0 255 255 0 255 255 0 255 255 0 255 255 0 255
255 0 255 255 0 255 255 0 255 255 0 255 255 0 255 255 0 255 255 0 255 255 0 255 255 0 255 255 0 255 255 0 255 255 0 255 255 0 255 255 0 255 255 0 255 255 0 255 255 0 255 255 0 255 255 0 255 255 0 255 255 0 255 255 0 255 255 0 255 255 0 255 255 0 255 255 0 255 255 0 255 255 0 255 255 0 255 255 0 255 255 0 255 255 0 255
255 0 255 255 0 255 255 0 255 255 0 255 255 0 255 255 0 255 255 0 255 255 0 255 255 0 255 255 0 255 255 0 255 255 0 255 255 0 255 255 0 255 255 0 255 255 0 255 255 0 255 255 0 255 255 0 255 255 0 255 255 0 255 255 0 255 255 0 255 255 0 255 255 0 255 255 0 255 255 0 255 255 0 255 255 0 255 255 0 255 255 0 255 255 0 255
