P3
# Runner v0.7.29 remade modular armor sprite; #ff00ff is transparent
38 20
255
255 0 255 255 0 255 255 0 255 255 0 255 255 0 255 255 0 255 255 0 255 255 0 255 255 0 255 255 0 255 255 0 255 255 0 255 255 0 255 255 0 255 255 0 255 255 0 255 255 0 255 255 0 255 255 0 255 255 0 255 255 0 255 255 0 255 255 0 255 255 0 255 255 0 255 255 0 255 255 0 255 255 0 255 255 0 255 255 0 255 255 0 255 255 0 255 255 0 255 255 0 255 255 0 255 255 0 255 255 0 255 255 0 255
255 0 255 255 0 255 255 0 255 255 0 255 255 0 255 255 0 255 255 0 255 255 0 255 255 0 255 255 0 255 255 0 255 255 0 255 255 0 255 255 0 255 255 0 255 255 0 255 255 0 255 255 0 255 255 0 255 255 0 255 255 0 255 255 0 255 255 0 255 255 0 255 255 0 255 255 0 255 255 0 255 255 0 255 255 0 255 255 0 255 255 0 255 255 0 255 255 0 255 255 0 255 255 0 255 255 0 255 255 0 255 255 0 255
255 0 255 255 0 255 255 0 255 255 0 255 255 0 255 255 0 255 255 0 255 255 0 255 255 0 255 255 0 255 255 0 255 255 0 255 255 0 255 255 0 255 255 0 255 255 0 255 255 0 255 255 0 255 255 0 255 255 0 255 255 0 255 255 0 255 255 0 255 255 0 255 255 0 255 255 0 255 255 0 255 255 0 255 255 0 255 255 0 255 255 0 255 255 0 255 255 0 255 255 0 255 255 0 255 255 0 255 255 0 255 255 0 255
255 0 255 255 0 255 255 0 255 255 0 255 255 0 255 255 0 255 255 0 255 255 0 255 255 0 255 255 0 255 255 0 255 255 0 255 255 0 255 255 0 255 255 0 255 255 0 255 255 0 255 255 0 255 255 0 255 255 0 255 255 0 255 255 0 255 255 0 255 255 0 255 255 0 255 255 0 255 255 0 255 255 0 255 255 0 255 255 0 255 255 0 255 255 0 255 255 0 255 255 0 255 255 0 255 255 0 255 255 0 255 255 0 255
255 0 255 255 0 255 255 0 255 255 0 255 255 0 255 255 0 255 255 0 255 255 0 255 21 21 15 59 66 72 76 75 75 75 82 90 65 75 90 65 76 92 44 60 79 23 46 71 38 38 55 51 33 24 255 0 255 255 0 255 255 0 255 255 0 255 255 0 255 255 0 255 0 13 20 15 26 26 255 0 255 44 57 67 52 66 80 59 64 77 22 22 25 255 0 255 255 0 255 255 0 255 255 0 255 255 0 255 255 0 255 255 0 255
255 0 255 255 0 255 255 0 255 255 0 255 255 0 255 255 0 255 255 0 255 51 56 62 78 93 108 62 73 89 39 49 59 77 77 83 105 103 113 33 51 76 14 106 170 62 194 236 48 160 208 28 83 122 47 58 69 46 55 62 45 50 54 52 57 65 30 43 52 51 57 67 73 84 102 34 39 44 25 31 37 102 105 112 110 105 110 105 102 110 41 38 42 255 0 255 255 0 255 255 0 255 255 0 255 255 0 255 255 0 255 255 0 255
255 0 255 255 0 255 255 0 255 255 0 255 255 0 255 255 0 255 255 0 255 78 78 85 121 122 135 85 83 88 77 80 86 139 126 122 130 119 120 94 90 95 75 106 133 82 162 193 63 176 217 15 87 140 22 51 77 17 69 104 19 56 88 62 70 84 68 78 92 95 89 93 134 120 123 37 39 43 40 44 49 151 133 126 159 142 134 151 135 130 74 67 67 255 0 255 255 0 255 255 0 255 255 0 255 255 0 255 255 0 255 255 0 255
255 0 255 255 0 255 255 0 255 255 0 255 255 0 255 255 0 255 52 48 48 146 133 127 172 155 146 182 166 156 170 154 143 163 148 139 169 153 145 174 157 149 157 141 133 111 101 107 79 75 93 88 80 91 102 97 107 98 98 109 95 97 108 108 104 112 99 94 102 128 115 112 193 171 159 93 86 82 27 32 35 196 182 169 185 170 160 177 157 147 81 73 69 255 0 255 255 0 255 255 0 255 255 0 255 255 0 255 255 0 255 255 0 255
255 0 255 255 0 255 255 0 255 255 0 255 255 0 255 255 0 255 116 108 105 204 185 172 207 189 176 210 191 177 214 195 178 220 201 185 213 194 180 200 181 169 194 175 163 181 166 154 171 153 145 166 148 143 158 142 139 159 144 140 155 140 135 128 116 115 143 131 124 200 184 171 182 167 157 105 91 88 27 19 24 97 94 91 204 183 171 177 157 146 89 81 78 255 0 255 255 0 255 255 0 255 255 0 255 255 0 255 255 0 255 255 0 255
255 0 255 255 0 255 255 0 255 255 0 255 255 0 255 255 0 255 166 157 150 232 214 198 225 211 196 235 221 207 227 211 196 191 174 159 188 172 159 182 168 156 173 159 150 173 157 146 178 159 146 173 157 146 173 157 146 177 159 145 156 140 131 164 149 139 221 202 183 220 210 196 84 78 79 77 152 176 65 145 169 34 31 37 81 76 74 108 99 97 51 42 45 255 0 255 255 0 255 255 0 255 255 0 255 255 0 255 255 0 255 255 0 255
255 0 255 255 0 255 255 0 255 255 0 255 255 0 255 255 0 255 186 179 174 255 255 245 251 243 232 229 219 208 145 135 129 146 137 130 205 189 175 210 191 178 205 185 173 186 166 150 189 170 155 184 165 151 175 158 145 165 150 139 160 146 138 136 125 119 154 141 130 183 165 151 46 43 47 52 143 183 74 158 192 46 41 43 29 34 43 35 39 50 8 8 14 255 0 255 255 0 255 255 0 255 255 0 255 255 0 255 255 0 255 255 0 255
255 0 255 255 0 255 255 0 255 255 0 255 255 0 255 255 0 255 151 145 138 222 211 195 196 183 169 192 176 163 224 210 194 239 223 208 231 213 197 175 159 146 88 83 82 85 86 95 66 69 77 64 70 84 56 65 83 39 47 62 44 53 74 39 47 65 28 34 48 126 119 114 104 92 84 21 15 23 42 31 35 43 44 51 49 52 62 37 39 49 18 20 26 255 0 255 255 0 255 255 0 255 255 0 255 255 0 255 255 0 255 255 0 255
255 0 255 255 0 255 255 0 255 255 0 255 255 0 255 255 0 255 73 66 66 166 152 141 66 61 59 175 163 151 178 165 151 174 160 147 131 122 117 50 53 64 49 59 78 52 65 93 48 63 88 43 58 80 50 62 85 48 62 87 49 62 88 41 51 72 48 54 72 56 64 81 29 31 36 100 94 93 122 111 102 54 57 69 73 81 97 54 63 78 34 40 50 255 0 255 255 0 255 255 0 255 255 0 255 255 0 255 255 0 255 255 0 255
255 0 255 255 0 255 255 0 255 255 0 255 255 0 255 255 0 255 255 0 255 149 137 129 93 87 88 62 65 73 88 92 104 58 65 77 44 50 65 78 92 120 71 85 112 58 70 98 57 70 96 45 58 80 33 41 56 34 47 68 28 35 53 24 30 46 22 27 42 35 41 57 13 15 21 170 152 141 104 97 100 69 78 97 72 81 99 57 68 84 27 30 37 255 0 255 255 0 255 255 0 255 255 0 255 255 0 255 255 0 255 255 0 255
255 0 255 255 0 255 255 0 255 255 0 255 255 0 255 255 0 255 255 0 255 56 52 48 91 85 82 53 55 63 72 77 91 65 71 85 46 51 63 50 64 89 40 54 78 37 49 70 30 38 56 30 35 50 14 19 26 8 12 20 7 7 7 255 0 255 255 0 255 6 6 13 32 32 32 70 58 56 34 36 44 44 52 71 42 50 68 46 53 68 16 16 22 255 0 255 255 0 255 255 0 255 255 0 255 255 0 255 255 0 255 255 0 255
255 0 255 255 0 255 255 0 255 255 0 255 255 0 255 255 0 255 255 0 255 255 0 255 4 4 4 42 43 52 44 45 59 40 41 52 36 37 45 21 26 35 28 36 50 19 22 32 255 0 255 255 0 255 255 0 255 255 0 255 255 0 255 255 0 255 255 0 255 255 0 255 255 0 255 255 0 255 255 0 255 22 22 35 28 30 43 25 27 38 12 12 18 255 0 255 255 0 255 255 0 255 255 0 255 255 0 255 255 0 255 255 0 255
255 0 255 255 0 255 255 0 255 255 0 255 255 0 255 255 0 255 255 0 255 255 0 255 255 0 255 255 0 255 255 0 255 255 0 255 255 0 255 255 0 255 255 0 255 255 0 255 255 0 255 255 0 255 255 0 255 255 0 255 255 0 255 255 0 255 255 0 255 255 0 255 255 0 255 255 0 255 255 0 255 255 0 255 255 0 255 255 0 255 255 0 255 255 0 255 255 0 255 255 0 255 255 0 255 255 0 255 255 0 255 255 0 255
255 0 255 255 0 255 255 0 255 255 0 255 255 0 255 255 0 255 255 0 255 255 0 255 255 0 255 255 0 255 255 0 255 255 0 255 255 0 255 255 0 255 255 0 255 255 0 255 255 0 255 255 0 255 255 0 255 255 0 255 255 0 255 255 0 255 255 0 255 255 0 255 255 0 255 255 0 255 255 0 255 255 0 255 255 0 255 255 0 255 255 0 255 255 0 255 255 0 255 255 0 255 255 0 255 255 0 255 255 0 255 255 0 255
255 0 255 255 0 255 255 0 255 255 0 255 255 0 255 255 0 255 255 0 255 255 0 255 255 0 255 255 0 255 255 0 255 255 0 255 255 0 255 255 0 255 255 0 255 255 0 255 255 0 255 255 0 255 255 0 255 255 0 255 255 0 255 255 0 255 255 0 255 255 0 255 255 0 255 255 0 255 255 0 255 255 0 255 255 0 255 255 0 255 255 0 255 255 0 255 255 0 255 255 0 255 255 0 255 255 0 255 255 0 255 255 0 255
255 0 255 255 0 255 255 0 255 255 0 255 255 0 255 255 0 255 255 0 255 255 0 255 255 0 255 255 0 255 255 0 255 255 0 255 255 0 255 255 0 255 255 0 255 255 0 255 255 0 255 255 0 255 255 0 255 255 0 255 255 0 255 255 0 255 255 0 255 255 0 255 255 0 255 255 0 255 255 0 255 255 0 255 255 0 255 255 0 255 255 0 255 255 0 255 255 0 255 255 0 255 255 0 255 255 0 255 255 0 255 255 0 255
