P3
# Runner v0.7.29 remade modular armor sprite; #ff00ff is transparent
36 20
255
255 0 255 255 0 255 255 0 255 255 0 255 255 0 255 255 0 255 255 0 255 255 0 255 255 0 255 255 0 255 255 0 255 255 0 255 255 0 255 255 0 255 255 0 255 255 0 255 255 0 255 255 0 255 255 0 255 255 0 255 255 0 255 255 0 255 255 0 255 255 0 255 255 0 255 255 0 255 255 0 255 255 0 255 255 0 255 255 0 255 255 0 255 255 0 255 255 0 255 255 0 255 255 0 255 255 0 255
255 0 255 255 0 255 255 0 255 255 0 255 255 0 255 255 0 255 255 0 255 255 0 255 255 0 255 255 0 255 255 0 255 255 0 255 255 0 255 255 0 255 255 0 255 255 0 255 255 0 255 255 0 255 255 0 255 255 0 255 255 0 255 255 0 255 255 0 255 255 0 255 255 0 255 255 0 255 255 0 255 255 0 255 255 0 255 255 0 255 255 0 255 255 0 255 255 0 255 255 0 255 255 0 255 255 0 255
255 0 255 255 0 255 255 0 255 255 0 255 255 0 255 255 0 255 255 0 255 255 0 255 255 0 255 255 0 255 255 0 255 255 0 255 255 0 255 255 0 255 255 0 255 255 0 255 255 0 255 255 0 255 255 0 255 255 0 255 255 0 255 255 0 255 255 0 255 255 0 255 255 0 255 255 0 255 255 0 255 255 0 255 255 0 255 255 0 255 255 0 255 255 0 255 255 0 255 255 0 255 255 0 255 255 0 255
255 0 255 255 0 255 255 0 255 255 0 255 255 0 255 255 0 255 255 0 255 255 0 255 255 0 255 255 0 255 255 0 255 255 0 255 255 0 255 255 0 255 255 0 255 255 0 255 255 0 255 255 0 255 255 0 255 255 0 255 255 0 255 255 0 255 255 0 255 255 0 255 255 0 255 255 0 255 255 0 255 255 0 255 255 0 255 255 0 255 255 0 255 255 0 255 255 0 255 255 0 255 255 0 255 255 0 255
255 0 255 255 0 255 255 0 255 255 0 255 255 0 255 255 0 255 255 0 255 33 33 38 46 48 56 53 56 58 63 70 77 72 88 110 72 91 115 46 58 71 45 51 60 44 52 61 43 56 70 25 25 34 255 0 255 255 0 255 255 0 255 255 0 255 21 16 21 255 0 255 255 0 255 255 0 255 255 0 255 255 0 255 255 0 255 255 0 255 255 0 255 255 0 255 255 0 255 255 0 255 255 0 255 255 0 255
255 0 255 255 0 255 255 0 255 255 0 255 255 0 255 255 0 255 28 28 41 52 59 76 37 46 60 14 27 42 83 81 86 126 117 127 121 115 125 78 77 83 68 73 85 88 89 98 94 96 113 32 36 47 15 31 47 13 23 35 40 43 55 45 47 58 41 47 57 36 40 47 42 46 55 60 71 88 63 69 81 46 57 68 0 6 18 255 0 255 255 0 255 255 0 255 255 0 255 255 0 255 255 0 255 255 0 255
255 0 255 255 0 255 255 0 255 255 0 255 255 0 255 255 0 255 56 55 62 85 81 91 56 56 61 98 96 100 153 137 133 169 151 144 163 144 137 163 148 143 151 136 134 129 118 116 102 90 89 21 24 31 33 40 58 22 31 43 72 65 71 68 66 76 80 80 88 48 52 65 78 75 77 104 97 105 41 47 60 61 68 77 62 65 75 18 21 28 255 0 255 255 0 255 255 0 255 255 0 255 255 0 255 255 0 255
255 0 255 255 0 255 255 0 255 255 0 255 255 0 255 255 0 255 125 115 111 171 156 144 189 172 159 221 200 184 207 189 175 201 183 172 196 178 166 187 170 159 169 153 147 175 158 152 90 83 84 21 32 48 36 45 62 13 20 30 116 100 94 108 100 101 102 97 98 40 38 45 106 98 95 150 134 130 80 77 80 65 62 66 88 84 93 22 25 33 255 0 255 255 0 255 255 0 255 255 0 255 255 0 255 255 0 255
255 0 255 255 0 255 255 0 255 255 0 255 255 0 255 255 0 255 176 166 157 234 217 200 228 215 201 228 214 200 237 222 206 230 211 195 224 205 190 207 188 174 203 182 169 143 128 120 28 34 48 40 54 78 40 55 79 13 23 38 62 59 56 178 165 155 123 112 109 86 75 75 122 113 107 207 190 177 170 150 141 154 139 134 105 96 98 28 29 37 255 0 255 255 0 255 255 0 255 255 0 255 255 0 255 255 0 255
255 0 255 255 0 255 255 0 255 255 0 255 255 0 255 255 0 255 184 177 169 251 245 234 234 224 212 224 208 196 144 131 123 136 127 121 113 104 103 100 96 98 92 89 93 48 53 67 45 60 88 53 67 93 52 67 92 27 33 45 16 25 37 40 42 47 92 82 77 78 72 73 17 21 27 141 133 125 156 140 131 156 140 131 152 138 129 36 37 42 0 0 0 255 0 255 255 0 255 255 0 255 255 0 255 255 0 255
255 0 255 255 0 255 255 0 255 255 0 255 255 0 255 255 0 255 145 137 133 196 180 164 158 145 131 110 101 99 36 47 68 55 69 97 53 67 96 45 59 82 47 60 85 66 81 109 67 83 114 60 76 103 47 58 79 31 38 49 52 61 77 31 40 56 42 41 44 52 53 60 103 99 101 151 140 132 155 141 132 140 125 117 118 106 100 37 38 43 255 0 255 255 0 255 255 0 255 255 0 255 255 0 255 255 0 255
255 0 255 255 0 255 255 0 255 255 0 255 255 0 255 255 0 255 40 37 42 77 83 95 55 60 73 33 39 53 100 113 141 113 124 150 108 119 146 99 112 140 94 107 136 83 98 128 68 79 108 71 82 104 64 77 102 34 42 56 48 55 70 54 60 75 82 78 81 136 129 125 255 244 230 222 203 188 190 171 159 176 156 147 140 124 120 29 30 36 255 0 255 255 0 255 255 0 255 255 0 255 255 0 255 255 0 255
255 0 255 255 0 255 255 0 255 255 0 255 255 0 255 255 0 255 23 23 23 89 98 112 95 102 118 45 47 55 73 81 100 91 102 126 83 93 117 76 88 112 67 79 104 55 67 89 64 73 94 65 79 107 60 74 104 30 37 51 19 24 33 44 45 53 63 62 68 183 168 156 219 201 185 191 174 162 155 138 129 153 137 132 112 102 103 13 16 22 255 0 255 255 0 255 255 0 255 255 0 255 255 0 255 255 0 255
255 0 255 255 0 255 255 0 255 255 0 255 255 0 255 255 0 255 255 0 255 47 50 61 80 86 105 55 59 73 32 36 46 66 77 97 69 83 104 65 79 104 64 78 104 55 68 94 43 53 74 46 58 80 41 52 73 30 39 53 15 19 26 17 20 28 58 57 61 153 141 136 150 136 130 124 111 108 119 108 106 79 72 74 24 30 39 14 21 29 255 0 255 255 0 255 255 0 255 255 0 255 255 0 255 255 0 255
255 0 255 255 0 255 255 0 255 255 0 255 255 0 255 255 0 255 255 0 255 255 0 255 42 43 56 58 62 77 38 43 53 36 44 59 49 63 88 50 64 88 44 58 81 39 54 77 31 42 60 30 37 53 30 39 57 25 34 49 11 15 22 255 0 255 255 0 255 51 49 57 77 73 78 80 73 76 65 64 68 8 11 17 255 0 255 255 0 255 255 0 255 255 0 255 255 0 255 255 0 255 255 0 255 255 0 255
255 0 255 255 0 255 255 0 255 255 0 255 255 0 255 255 0 255 255 0 255 255 0 255 13 6 13 28 30 40 30 32 42 26 29 37 23 29 42 28 38 53 29 39 57 25 35 50 21 30 42 11 11 23 7 7 7 255 0 255 255 0 255 255 0 255 255 0 255 255 0 255 255 0 255 255 0 255 255 0 255 255 0 255 255 0 255 255 0 255 255 0 255 255 0 255 255 0 255 255 0 255 255 0 255 255 0 255
255 0 255 255 0 255 255 0 255 255 0 255 255 0 255 255 0 255 255 0 255 255 0 255 255 0 255 255 0 255 255 0 255 255 0 255 255 0 255 255 0 255 255 0 255 255 0 255 255 0 255 255 0 255 255 0 255 255 0 255 255 0 255 255 0 255 255 0 255 255 0 255 255 0 255 255 0 255 255 0 255 255 0 255 255 0 255 255 0 255 255 0 255 255 0 255 255 0 255 255 0 255 255 0 255 255 0 255
255 0 255 255 0 255 255 0 255 255 0 255 255 0 255 255 0 255 255 0 255 255 0 255 255 0 255 255 0 255 255 0 255 255 0 255 255 0 255 255 0 255 255 0 255 255 0 255 255 0 255 255 0 255 255 0 255 255 0 255 255 0 255 255 0 255 255 0 255 255 0 255 255 0 255 255 0 255 255 0 255 255 0 255 255 0 255 255 0 255 255 0 255 255 0 255 255 0 255 255 0 255 255 0 255 255 0 255
255 0 255 255 0 255 255 0 255 255 0 255 255 0 255 255 0 255 255 0 255 255 0 255 255 0 255 255 0 255 255 0 255 255 0 255 255 0 255 255 0 255 255 0 255 255 0 255 255 0 255 255 0 255 255 0 255 255 0 255 255 0 255 255 0 255 255 0 255 255 0 255 255 0 255 255 0 255 255 0 255 255 0 255 255 0 255 255 0 255 255 0 255 255 0 255 255 0 255 255 0 255 255 0 255 255 0 255
255 0 255 255 0 255 255 0 255 255 0 255 255 0 255 255 0 255 255 0 255 255 0 255 255 0 255 255 0 255 255 0 255 255 0 255 255 0 255 255 0 255 255 0 255 255 0 255 255 0 255 255 0 255 255 0 255 255 0 255 255 0 255 255 0 255 255 0 255 255 0 255 255 0 255 255 0 255 255 0 255 255 0 255 255 0 255 255 0 255 255 0 255 255 0 255 255 0 255 255 0 255 255 0 255 255 0 255
