P3
# Runner v0.7.29 remade modular armor sprite; #ff00ff is transparent
36 20
255
255 0 255 255 0 255 255 0 255 255 0 255 255 0 255 255 0 255 255 0 255 255 0 255 255 0 255 255 0 255 255 0 255 255 0 255 255 0 255 255 0 255 255 0 255 255 0 255 255 0 255 255 0 255 255 0 255 255 0 255 255 0 255 255 0 255 255 0 255 255 0 255 255 0 255 255 0 255 255 0 255 255 0 255 255 0 255 255 0 255 255 0 255 255 0 255 255 0 255 255 0 255 255 0 255 255 0 255
255 0 255 255 0 255 255 0 255 255 0 255 255 0 255 255 0 255 255 0 255 255 0 255 255 0 255 255 0 255 255 0 255 255 0 255 255 0 255 255 0 255 255 0 255 255 0 255 255 0 255 255 0 255 255 0 255 255 0 255 255 0 255 255 0 255 255 0 255 255 0 255 255 0 255 255 0 255 255 0 255 255 0 255 255 0 255 255 0 255 255 0 255 255 0 255 255 0 255 255 0 255 255 0 255 255 0 255
255 0 255 255 0 255 255 0 255 255 0 255 255 0 255 255 0 255 255 0 255 255 0 255 255 0 255 255 0 255 255 0 255 255 0 255 255 0 255 255 0 255 255 0 255 255 0 255 255 0 255 255 0 255 255 0 255 255 0 255 255 0 255 255 0 255 255 0 255 255 0 255 255 0 255 255 0 255 255 0 255 255 0 255 255 0 255 255 0 255 255 0 255 255 0 255 255 0 255 255 0 255 255 0 255 255 0 255
255 0 255 255 0 255 255 0 255 255 0 255 255 0 255 255 0 255 255 0 255 255 0 255 255 0 255 255 0 255 255 0 255 255 0 255 255 0 255 255 0 255 255 0 255 255 0 255 255 0 255 255 0 255 255 0 255 255 0 255 255 0 255 255 0 255 255 0 255 255 0 255 255 0 255 255 0 255 255 0 255 255 0 255 255 0 255 255 0 255 255 0 255 255 0 255 255 0 255 255 0 255 255 0 255 255 0 255
255 0 255 255 0 255 255 0 255 255 0 255 255 0 255 255 0 255 255 0 255 255 0 255 255 0 255 255 0 255 255 0 255 38 48 59 38 58 72 32 37 44 13 0 3 255 0 255 255 0 255 255 0 255 255 0 255 255 0 255 255 0 255 255 0 255 23 32 40 25 34 46 23 36 52 31 40 53 23 37 47 255 0 255 255 0 255 255 0 255 255 0 255 255 0 255 255 0 255 255 0 255 255 0 255 255 0 255
255 0 255 255 0 255 255 0 255 255 0 255 255 0 255 255 0 255 255 0 255 255 0 255 255 0 255 51 67 77 71 98 117 92 104 118 93 99 113 32 60 89 49 147 189 33 76 102 38 48 62 48 75 100 48 74 98 37 53 71 39 55 75 43 51 61 47 53 61 34 44 60 38 51 69 24 34 49 31 42 54 39 51 63 51 64 83 29 36 44 255 0 255 255 0 255 255 0 255 255 0 255 255 0 255 255 0 255
255 0 255 255 0 255 255 0 255 255 0 255 255 0 255 255 0 255 255 0 255 255 0 255 61 94 111 133 164 177 169 164 161 162 151 147 151 143 141 124 126 132 91 130 151 62 84 106 51 57 72 79 94 120 78 93 120 77 88 110 79 88 105 47 50 55 122 114 106 121 119 121 81 80 82 59 59 64 44 44 51 70 72 83 76 81 95 33 36 41 255 0 255 255 0 255 255 0 255 255 0 255 255 0 255 255 0 255
255 0 255 255 0 255 255 0 255 255 0 255 255 0 255 255 0 255 255 0 255 83 81 85 182 178 175 221 200 182 215 195 178 209 192 177 189 173 161 163 151 143 104 87 82 107 95 96 113 112 122 129 128 138 125 122 133 119 114 122 121 118 126 44 46 50 43 43 45 127 121 117 117 107 98 67 62 62 107 98 97 120 111 115 97 89 92 21 25 27 255 0 255 255 0 255 255 0 255 255 0 255 255 0 255 255 0 255
255 0 255 255 0 255 255 0 255 255 0 255 255 0 255 255 0 255 92 88 90 172 162 156 231 210 191 230 220 207 236 225 211 218 203 186 200 183 170 118 109 107 62 62 63 145 137 134 167 158 158 156 142 137 111 103 103 89 89 97 59 66 79 36 46 63 27 31 40 22 23 29 21 23 28 56 55 58 168 153 144 176 159 149 131 118 114 16 19 25 255 0 255 255 0 255 255 0 255 255 0 255 255 0 255 255 0 255
255 0 255 255 0 255 255 0 255 255 0 255 255 0 255 255 0 255 165 155 145 192 178 167 195 186 177 255 254 244 241 227 211 165 154 144 130 122 115 49 52 60 104 108 116 200 182 165 93 89 88 51 61 80 45 61 89 50 71 104 59 80 115 50 67 97 70 72 79 81 82 88 72 74 80 179 164 153 169 154 144 202 183 169 127 115 109 17 23 31 255 0 255 255 0 255 255 0 255 255 0 255 255 0 255 255 0 255
255 0 255 255 0 255 255 0 255 255 0 255 255 0 255 255 0 255 168 156 146 209 197 185 201 195 186 188 177 166 196 183 168 174 162 149 189 174 161 64 59 59 182 171 160 202 186 170 40 47 64 90 111 146 101 120 155 78 97 132 77 96 129 50 61 83 57 58 65 62 63 67 84 83 85 201 192 184 209 196 184 232 216 201 132 120 113 11 15 21 255 0 255 255 0 255 255 0 255 255 0 255 255 0 255 255 0 255
255 0 255 255 0 255 255 0 255 255 0 255 255 0 255 255 0 255 142 134 130 238 225 209 241 232 221 215 207 198 211 198 185 175 159 146 141 129 118 138 124 115 131 115 104 96 90 90 85 92 108 100 109 127 74 88 113 66 80 107 56 68 89 51 64 86 28 34 48 23 24 31 45 43 47 170 155 143 198 180 164 224 202 184 133 120 111 4 5 11 255 0 255 255 0 255 255 0 255 255 0 255 255 0 255 255 0 255
255 0 255 255 0 255 255 0 255 255 0 255 255 0 255 255 0 255 109 102 98 222 208 192 214 200 186 205 197 187 78 70 71 79 73 75 52 51 53 87 83 81 115 106 96 47 54 66 82 104 136 66 83 110 52 65 84 53 69 96 38 53 77 30 41 59 18 25 37 4 8 12 26 22 29 85 76 76 113 102 99 136 121 118 88 79 80 14 14 18 255 0 255 255 0 255 255 0 255 255 0 255 255 0 255 255 0 255
255 0 255 255 0 255 255 0 255 255 0 255 255 0 255 255 0 255 85 81 73 122 115 110 185 177 166 94 85 81 30 27 33 60 61 66 66 66 72 55 53 57 86 81 76 51 51 54 31 47 73 38 51 74 25 34 50 22 33 50 17 27 40 8 12 20 255 0 255 255 0 255 255 0 255 255 0 255 14 14 24 38 35 44 35 32 38 255 0 255 255 0 255 255 0 255 255 0 255 255 0 255 255 0 255 255 0 255
255 0 255 255 0 255 255 0 255 255 0 255 255 0 255 255 0 255 255 0 255 27 27 29 123 113 105 113 104 96 19 18 22 31 35 40 65 66 71 67 64 68 68 63 63 36 37 40 11 17 29 17 20 31 6 6 6 255 0 255 255 0 255 255 0 255 255 0 255 255 0 255 255 0 255 255 0 255 255 0 255 255 0 255 255 0 255 255 0 255 255 0 255 255 0 255 255 0 255 255 0 255 255 0 255 255 0 255
255 0 255 255 0 255 255 0 255 255 0 255 255 0 255 255 0 255 255 0 255 255 0 255 255 0 255 91 84 80 43 40 42 31 30 35 33 32 35 39 34 38 37 33 35 13 13 19 255 0 255 255 0 255 255 0 255 255 0 255 255 0 255 255 0 255 255 0 255 255 0 255 255 0 255 255 0 255 255 0 255 255 0 255 255 0 255 255 0 255 255 0 255 255 0 255 255 0 255 255 0 255 255 0 255 255 0 255
255 0 255 255 0 255 255 0 255 255 0 255 255 0 255 255 0 255 255 0 255 255 0 255 255 0 255 255 0 255 255 0 255 255 0 255 255 0 255 255 0 255 255 0 255 255 0 255 255 0 255 255 0 255 255 0 255 255 0 255 255 0 255 255 0 255 255 0 255 255 0 255 255 0 255 255 0 255 255 0 255 255 0 255 255 0 255 255 0 255 255 0 255 255 0 255 255 0 255 255 0 255 255 0 255 255 0 255
255 0 255 255 0 255 255 0 255 255 0 255 255 0 255 255 0 255 255 0 255 255 0 255 255 0 255 255 0 255 255 0 255 255 0 255 255 0 255 255 0 255 255 0 255 255 0 255 255 0 255 255 0 255 255 0 255 255 0 255 255 0 255 255 0 255 255 0 255 255 0 255 255 0 255 255 0 255 255 0 255 255 0 255 255 0 255 255 0 255 255 0 255 255 0 255 255 0 255 255 0 255 255 0 255 255 0 255
255 0 255 255 0 255 255 0 255 255 0 255 255 0 255 255 0 255 255 0 255 255 0 255 255 0 255 255 0 255 255 0 255 255 0 255 255 0 255 255 0 255 255 0 255 255 0 255 255 0 255 255 0 255 255 0 255 255 0 255 255 0 255 255 0 255 255 0 255 255 0 255 255 0 255 255 0 255 255 0 255 255 0 255 255 0 255 255 0 255 255 0 255 255 0 255 255 0 255 255 0 255 255 0 255 255 0 255
255 0 255 255 0 255 255 0 255 255 0 255 255 0 255 255 0 255 255 0 255 255 0 255 255 0 255 255 0 255 255 0 255 255 0 255 255 0 255 255 0 255 255 0 255 255 0 255 255 0 255 255 0 255 255 0 255 255 0 255 255 0 255 255 0 255 255 0 255 255 0 255 255 0 255 255 0 255 255 0 255 255 0 255 255 0 255 255 0 255 255 0 255 255 0 255 255 0 255 255 0 255 255 0 255 255 0 255
