P3
# Original EpochRunner icon
32 20
255
12 18 26 12 18 26 12 18 26 12 18 26 12 18 26 12 18 26 12 18 26 12 18 26 12 18 26 12 18 26 12 18 26 12 18 26 12 18 26 12 18 26 12 18 26 12 18 26 12 18 26 12 18 26 12 18 26 12 18 26 12 18 26 12 18 26 12 18 26 12 18 26 12 18 26 12 18 26 12 18 26 12 18 26 12 18 26 12 18 26 12 18 26
12 18 26 12 18 26 12 18 26 12 18 26 12 18 26 12 18 26 12 18 26 12 18 26 12 18 26 12 18 26 12 18 26 12 18 26 12 18 26 12 18 26 12 18 26 12 18 26 12 18 26 12 18 26 12 18 26 12 18 26 12 18 26 12 18 26 12 18 26 12 18 26 12 18 26 12 18 26 12 18 26 12 18 26 12 18 26 12 18 26 12 18 26
12 18 26 12 18 26 12 18 26 12 18 26 12 18 26 12 18 26 12 18 26 12 18 26 12 18 26 12 18 26 12 18 26 12 18 26 12 18 26 12 18 26 12 18 26 12 18 26 12 18 26 12 18 26 12 18 26 226 60 65 12 18 26 226 60 65 12 18 26 12 18 26 12 18 26 12 18 26 12 18 26 12 18 26 12 18 26 12 18 26
12 18 26 12 18 26 12 18 26 12 18 26 12 18 26 12 18 26 12 18 26 12 18 26 12 18 26 12 18 26 12 18 26 12 18 26 12 18 26 12 18 26 12 18 26 12 18 26 12 18 26 12 18 26 226 60 65 226 60 65 226 60 65 226 60 65 226 60 65 12 18 26 12 18 26 12 18 26 12 18 26 12 18 26 12 18 26 12 18 26 12 18 26
12 18 26 12 18 26 12 18 26 12 18 26 12 18 26 12 18 26 12 18 26 12 18 26 12 18 26 12 18 26 12 18 26 12 18 26 12 18 26 12 18 26 224 158 51 12 18 26 12 18 26 12 18 26 12 18 26 249 213 97 226 60 65 249 213 97 226 60 65 249 213 97 12 18 26 12 18 26 12 18 26 12 18 26 12 18 26 12 18 26 12 18 26 12 18 26
12 18 26 12 18 26 12 18 26 12 18 26 12 18 26 12 18 26 12 18 26 12 18 26 12 18 26 12 18 26 12 18 26 224 158 51 224 158 51 224 158 51 224 158 51 224 158 51 224 158 51 224 158 51 249 213 97 249 213 97 249 213 97 249 213 97 18 23 30 249 213 97 249 213 97 12 18 26 12 18 26 12 18 26 12 18 26 12 18 26 12 18 26 12 18 26
12 18 26 12 18 26 12 18 26 12 18 26 12 18 26 12 18 26 12 18 26 12 18 26 12 18 26 12 18 26 224 158 51 224 158 51 224 158 51 224 158 51 224 158 51 224 158 51 224 158 51 224 158 51 249 213 97 249 213 97 249 213 97 18 23 30 18 23 30 18 23 30 249 213 97 12 18 26 12 18 26 12 18 26 12 18 26 12 18 26 12 18 26 12 18 26
12 18 26 12 18 26 12 18 26 12 18 26 12 18 26 12 18 26 12 18 26 12 18 26 12 18 26 224 158 51 224 158 51 224 158 51 224 158 51 224 158 51 224 158 51 224 158 51 224 158 51 249 213 97 249 213 97 249 213 97 249 213 97 249 213 97 18 23 30 249 213 97 249 213 97 229 103 33 229 103 33 229 103 33 229 103 33 12 18 26 12 18 26 12 18 26
12 18 26 12 18 26 12 18 26 12 18 26 12 18 26 12 18 26 12 18 26 12 18 26 12 18 26 224 158 51 224 158 51 224 158 51 224 158 51 224 158 51 224 158 51 224 158 51 224 158 51 224 158 51 249 213 97 249 213 97 249 213 97 249 213 97 249 213 97 249 213 97 249 213 97 229 103 33 229 103 33 229 103 33 12 18 26 12 18 26 12 18 26 12 18 26
12 18 26 12 18 26 12 18 26 12 18 26 12 18 26 12 18 26 12 18 26 12 18 26 12 18 26 224 158 51 224 158 51 224 158 51 224 158 51 224 158 51 224 158 51 224 158 51 224 158 51 224 158 51 249 213 97 249 213 97 249 213 97 249 213 97 249 213 97 249 213 97 249 213 97 229 103 33 229 103 33 12 18 26 12 18 26 12 18 26 12 18 26 12 18 26
12 18 26 12 18 26 12 18 26 12 18 26 12 18 26 12 18 26 12 18 26 12 18 26 224 158 51 224 158 51 224 158 51 224 158 51 224 158 51 224 158 51 224 158 51 224 158 51 224 158 51 224 158 51 224 158 51 249 213 97 249 213 97 249 213 97 249 213 97 249 213 97 12 18 26 12 18 26 12 18 26 12 18 26 12 18 26 12 18 26 12 18 26 12 18 26
12 18 26 12 18 26 12 18 26 12 18 26 12 18 26 12 18 26 12 18 26 12 18 26 12 18 26 224 158 51 224 158 51 224 158 51 224 158 51 224 158 51 224 158 51 224 158 51 224 158 51 224 158 51 224 158 51 224 158 51 12 18 26 249 213 97 12 18 26 12 18 26 12 18 26 12 18 26 12 18 26 12 18 26 12 18 26 12 18 26 12 18 26 12 18 26
12 18 26 12 18 26 12 18 26 12 18 26 12 18 26 12 18 26 12 18 26 12 18 26 12 18 26 224 158 51 224 158 51 224 158 51 224 158 51 224 158 51 224 158 51 224 158 51 224 158 51 224 158 51 224 158 51 224 158 51 12 18 26 12 18 26 12 18 26 12 18 26 12 18 26 12 18 26 12 18 26 12 18 26 12 18 26 12 18 26 12 18 26 12 18 26
12 18 26 12 18 26 12 18 26 12 18 26 12 18 26 12 18 26 12 18 26 12 18 26 12 18 26 224 158 51 224 158 51 224 158 51 224 158 51 224 158 51 224 158 51 224 158 51 224 158 51 224 158 51 224 158 51 224 158 51 12 18 26 12 18 26 12 18 26 12 18 26 12 18 26 12 18 26 12 18 26 12 18 26 12 18 26 12 18 26 12 18 26 12 18 26
12 18 26 12 18 26 12 18 26 12 18 26 12 18 26 12 18 26 12 18 26 12 18 26 12 18 26 229 103 33 224 158 51 224 158 51 224 158 51 224 158 51 224 158 51 224 158 51 224 158 51 224 158 51 224 158 51 229 103 33 12 18 26 12 18 26 12 18 26 12 18 26 12 18 26 12 18 26 12 18 26 12 18 26 12 18 26 12 18 26 12 18 26 12 18 26
12 18 26 12 18 26 12 18 26 12 18 26 12 18 26 12 18 26 12 18 26 12 18 26 229 103 33 229 103 33 229 103 33 224 158 51 224 158 51 224 158 51 224 158 51 224 158 51 224 158 51 224 158 51 229 103 33 229 103 33 12 18 26 12 18 26 12 18 26 12 18 26 12 18 26 12 18 26 12 18 26 12 18 26 12 18 26 12 18 26 12 18 26 12 18 26
12 18 26 12 18 26 12 18 26 12 18 26 12 18 26 12 18 26 12 18 26 229 103 33 229 103 33 229 103 33 229 103 33 12 18 26 12 18 26 12 18 26 224 158 51 12 18 26 12 18 26 229 103 33 229 103 33 229 103 33 12 18 26 12 18 26 12 18 26 12 18 26 12 18 26 12 18 26 12 18 26 12 18 26 12 18 26 12 18 26 12 18 26 12 18 26
12 18 26 12 18 26 12 18 26 12 18 26 12 18 26 229 103 33 229 103 33 229 103 33 229 103 33 229 103 33 12 18 26 12 18 26 12 18 26 12 18 26 12 18 26 12 18 26 12 18 26 229 103 33 229 103 33 229 103 33 229 103 33 229 103 33 229 103 33 12 18 26 12 18 26 12 18 26 12 18 26 12 18 26 12 18 26 12 18 26 12 18 26 12 18 26
12 18 26 12 18 26 12 18 26 12 18 26 229 103 33 229 103 33 229 103 33 229 103 33 229 103 33 12 18 26 12 18 26 12 18 26 12 18 26 12 18 26 12 18 26 12 18 26 12 18 26 12 18 26 229 103 33 229 103 33 229 103 33 229 103 33 229 103 33 229 103 33 12 18 26 12 18 26 12 18 26 12 18 26 12 18 26 12 18 26 12 18 26 12 18 26
12 18 26 12 18 26 12 18 26 12 18 26 12 18 26 229 103 33 229 103 33 12 18 26 12 18 26 12 18 26 12 18 26 12 18 26 12 18 26 12 18 26 12 18 26 12 18 26 12 18 26 12 18 26 12 18 26 229 103 33 229 103 33 229 103 33 12 18 26 12 18 26 12 18 26 12 18 26 12 18 26 12 18 26 12 18 26 12 18 26 12 18 26
