P3
128 85
255
0 0 0 0 0 0 0 0 0 0 0 0 0 0 0 0 0 0 0 0 0 0 0 0 0 0 0 0 0 0 0 0 0 0 0 0 0 0 0 0 0 0 0 0 0 0 0 0 0 0 0 0 0 0 0 0 0 0 0 0 0 0 0 0 0 0 0 0 0 0 0 0 0 0 0 0 0 0 0 0 0 0 0 0 0 0 0 0 0 0 0 0 0 0 0 0 0 0 0 0 0 0 0 0 0 0 0 0 0 0 0 0 0 0 0 0 0 0 0 0 0 0 0 0 0 0 0 0 0 0 0 0 0 0 0 0 0 0 0 0 0 0 0 0 0 0 0 0 0 0 0 0 0 0 0 0 0 0 0 0 0 0 0 0 0 0 0 0 0 0 0 0 0 0 0 0 0 0 0 0 0 0 0 0 0 0 0 0 0 0 0 0 0 0 0 0 0 0 0 0 0 0 0 0 0 0 0 0 0 0 0 0 0 0 0 0 0 0 0 0 0 0 0 0 0 0 0 0 0 0 0 0 0 0 0 0 0 0 0 0 0 0 0 0 0 0 0 0 0 0 0 0 0 0 0 0 0 0 0 0 0 0 0 0 0 0 0 0 0 0 0 0 0 0 0 0 0 0 0 0 0 0 0 0 0 0 0 0 0 0 0 0 0 0 0 0 0 0 0 0 0 0 0 0 0 0 0 0 0 0 0 0 0 0 0 0 0 0 0 0 0 0 0 0 0 0 0 0 0 0 0 0 0 0 0 0 0 0 0 0 0 0 0 0 0 0 0 0 0 0 0 0 0 0 0 0 0 0 0 0 0 0 0 0 0 0 0 0 0 0 0 0 0 0 0 0 0 0 0 0 0 0 0 0
0 0 0 0 0 0 0 0 0 0 0 0 0 0 0 0 0 0 0 0 0 0 0 0 0 0 0 0 0 0 0 0 0 0 0 0 0 0 0 0 0 0 0 0 0 0 0 0 0 0 0 0 0 0 0 0 0 0 0 0 0 0 0 0 0 0 0 0 0 0 0 0 0 0 0 0 0 0 0 0 0 0 0 0 0 0 0 0 0 0 0 0 0 0 0 0 0 0 0 0 0 0 0 0 0 0 0 0 0 0 0 0 0 0 0 0 0 0 0 0 0 0 0 0 0 0 0 0 0 0 0 0 0 0 0 0 0 0 0 0 0 0 0 0 0 0 0 0 0 0 0 0 0 0 0 0 0 0 0 0 0 0 0 0 0 0 0 0 0 0 0 0 0 0 0 0 0 0 0 0 0 0 0 0 0 0 0 0 0 0 0 0 0 0 0 0 0 0 0 0 0 0 0 0 0 0 0 0 0 0 0 0 0 0 0 0 0 0 0 0 0 0 0 0 0 0 0 0 0 0 0 0 0 0 0 0 0 0 0 0 0 0 0 0 0 0 0 0 0 0 0 0 0 0 0 0 0 0 0 0 0 0 0 0 0 0 0 0 0 0 0 0 0 0 0 0 0 0 0 0 0 0 0 0 0 0 0 0 0 0 0 0 0 0 0 0 0 0 0 0 0 0 0 0 0 0 0 0 0 0 0 0 0 0 0 0 0 0 0 0 0 0 0 0 0 0 0 0 0 0 0 0 0 0 0 0 0 0 0 0 0 0 0 0 0 0 0 0 0 0 0 0 0 0 0 0 0 0 0 0 0 0 0 0 0 0 0 0 0 0 0 0 0 0 0 0 0 0 0 0 0 0 0 0
0 0 0 0 0 0 0 0 0 0 0 0 0 0 0 0 0 0 0 0 0 0 0 0 0 0 0 0 0 0 0 0 0 0 0 0 0 0 0 0 0 0 0 0 0 0 0 0 0 0 0 0 0 0 0 0 0 0 0 0 0 0 0 0 0 0 0 0 0 0 0 0 0 0 0 0 0 0 0 0 0 0 0 0 0 0 0 0 0 0 0 0 0 0 0 0 0 0 0 0 0 0 0 0 0 0 0 0 0 0 0 0 0 0 0 0 0 0 0 0 0 0 0 0 0 0 0 0 0 0 0 0 0 0 0 0 0 0 0 0 0 0 0 0 0 0 0 0 0 0 0 0 0 0 0 0 0 0 0 0 0 0 0 0 0 0 0 0 0 0 0 0 0 0 0 0 0 0 0 0 0 0 0 0 0 0 0 0 0 0 0 0 0 0 0 0 0 0 0 0 0 0 0 0 0 0 0 0 0 0 0 0 0 0 0 0 0 0 0 0 0 0 0 0 0 0 0 0 0 0 0 0 0 0 0 0 0 0 0 0 0 0 0 0 0 0 0 0 0 0 0 0 0 0 0 0 0 0 0 0 0 0 0 0 0 0 0 0 0 0 0 0 0 0 0 0 0 0 0 0 0 0 0 0 0 0 0 0 0 0 0 0 0 0 0 0 0 0 0 0 0 0 0 0 0 0 0 0 0 0 0 0 0 0 0 0 0 0 0 0 0 0 0 0 0 0 0 0 0 0 0 0 0 0 0 0 0 0 0 0 0 0 0 0 0 0 0 0 0 0 0 0 0 0 0 0 0 0 0 0 0 0 0 0 0 0 0 0 0 0 0 0 0 0 0 0 0 0 0 0 0 0 0 0
0 0 0 0 0 0 0 0 0 0 0 0 0 0 0 0 0 0 0 0 0 0 0 0 0 0 0 0 0 0 0 0 0 0 0 0 0 0 0 151 176 194 0 0 0 0 0 0 0 0 0 0 0 0 0 0 0 0 0 0 0 0 0 0 0 0 0 0 0 0 0 0 0 0 0 0 0 0 0 0 0 0 0 0 0 0 0 0 0 0 0 0 0 0 0 0 0 0 0 0 0 0 0 0 0 0 0 0 0 0 0 0 0 0 0 0 0 0 0 0 151 176 194 0 0 0 0 0 0 0 0 0 0 0 0 0 0 0 0 0 0 0 0 0 0 0 0 0 0 0 0 0 0 0 0 0 0 0 0 0 0 0 0 0 0 0 0 0 0 0 0 0 0 0 0 0 0 0 0 0 0 0 0 0 0 0 0 0 0 0 0 0 0 0 0 0 0 0 0 0 0 151 176 194 0 0 0 0 0 0 0 0 0 0 0 0 0 0 0 0 0 0 0 0 0 0 0 0 0 0 0 0 0 0 0 0 0 0 0 0 0 0 0 0 0 0 0 0 0 0 0 0 0 0 0 0 0 0 0 0 0 0 0 0 0 0 0 0 0 0 0 0 0 0 0 0 0 0 0 0 0 0 151 176 194 0 0 0 0 0 0 0 0 0 0 0 0 0 0 0 0 0 0 0 0 0 0 0 0 0 0 0 0 0 0 0 0 0 0 0 0 0 0 0 0 0 0 0 0 0 0 0 0 0 0 0 0 0 0 0 0 0 0 0 0 0 0 0 0 0 0 0 0 0 0 0 0 0 0 0 0 0 0 0 0 0 0 0 0 0 0 0 0 0 0 0 0 0 0 0 0 0 0 0
0 0 0 0 0 0 0 0 0 0 0 0 0 0 0 0 0 0 0 0 0 0 0 0 0 0 0 0 0 0 151 176 194 151 176 194 151 176 194 151 176 194 151 176 194 151 176 194 151 176 194 0 0 0 0 0 0 0 0 0 0 0 0 0 0 0 0 0 0 0 0 0 0 0 0 0 0 0 0 0 0 0 0 0 0 0 0 0 0 0 0 0 0 0 0 0 0 0 0 0 0 0 0 0 0 0 0 0 0 0 0 151 176 194 151 176 194 151 176 194 151 176 194 151 176 194 151 176 194 151 176 194 0 0 0 0 0 0 0 0 0 0 0 0 0 0 0 0 0 0 0 0 0 0 0 0 0 0 0 0 0 0 0 0 0 0 0 0 0 0 0 0 0 0 0 0 0 0 0 0 0 0 0 0 0 0 0 0 0 0 0 0 151 176 194 151 176 194 151 176 194 151 176 194 151 176 194 151 176 194 151 176 194 0 0 0 0 0 0 0 0 0 0 0 0 0 0 0 0 0 0 0 0 0 0 0 0 0 0 0 0 0 0 0 0 0 0 0 0 0 0 0 0 0 0 0 0 0 0 0 0 0 0 0 0 0 0 0 0 0 0 0 0 151 176 194 151 176 194 151 176 194 151 176 194 151 176 194 151 176 194 151 176 194 0 0 0 0 0 0 0 0 0 0 0 0 0 0 0 0 0 0 0 0 0 0 0 0 0 0 0 0 0 0 0 0 0 0 0 0 0 0 0 0 0 0 0 0 0 0 0 0 0 0 0 0 0 0 0 0 0 0 0 0 0 0 0 0 0 0 0 0 0 0 0 0 0 0 0 0 0 0 0 0 0 0 0 0 0 0 0 0 0 0
0 0 0 0 0 0 0 0 0 0 0 0 0 0 0 0 0 0 0 0 0 0 0 0 0 0 0 151 176 194 151 176 194 151 176 194 151 176 194 151 176 194 151 176 194 151 176 194 151 176 194 151 176 194 0 0 0 0 0 0 0 0 0 0 0 0 0 0 0 0 0 0 0 0 0 0 0 0 0 0 0 0 0 0 0 0 0 0 0 0 0 0 0 0 0 0 0 0 0 0 0 0 0 0 0 0 0 0 151 176 194 151 176 194 151 176 194 151 176 194 151 176 194 151 176 194 151 176 194 151 176 194 151 176 194 0 0 0 0 0 0 0 0 0 0 0 0 0 0 0 0 0 0 0 0 0 0 0 0 0 0 0 0 0 0 0 0 0 0 0 0 0 0 0 0 0 0 0 0 0 0 0 0 0 0 0 0 0 0 151 176 194 151 176 194 151 176 194 151 176 194 151 176 194 151 176 194 151 176 194 151 176 194 151 176 194 0 0 0 0 0 0 0 0 0 0 0 0 0 0 0 0 0 0 0 0 0 0 0 0 0 0 0 0 0 0 0 0 0 0 0 0 0 0 0 0 0 0 0 0 0 0 0 0 0 0 0 0 0 0 151 176 194 151 176 194 151 176 194 151 176 194 151 176 194 151 176 194 151 176 194 151 176 194 151 176 194 0 0 0 0 0 0 0 0 0 0 0 0 0 0 0 0 0 0 0 0 0 0 0 0 0 0 0 0 0 0 0 0 0 0 0 0 0 0 0 0 0 0 0 0 0 0 0 0 0 0 0 0 0 0 0 0 0 0 0 0 0 0 0 0 0 0 0 0 0 0 0 0 0 0 0 0 0 0 0 0 0 0 0 0 0 0 0
0 0 0 0 0 0 0 0 0 0 0 0 0 0 0 0 0 0 0 0 0 0 0 0 151 176 194 151 176 194 151 176 194 151 176 194 151 176 194 151 176 194 151 176 194 151 176 194 151 176 194 151 176 194 151 176 194 0 0 0 0 0 0 0 0 0 0 0 0 0 0 0 0 0 0 0 0 0 0 0 0 0 0 0 0 0 0 0 0 0 0 0 0 0 0 0 0 0 0 0 0 0 0 0 0 151 176 194 151 176 194 151 176 194 151 176 194 151 176 194 151 176 194 151 176 194 151 176 194 151 176 194 151 176 194 151 176 194 0 0 0 0 0 0 0 0 0 0 0 0 0 0 0 0 0 0 0 0 0 0 0 0 0 0 0 0 0 0 0 0 0 0 0 0 0 0 0 0 0 0 0 0 0 0 0 0 151 176 194 151 176 194 151 176 194 151 176 194 151 176 194 151 176 194 151 176 194 151 176 194 151 176 194 151 176 194 151 176 194 0 0 0 0 0 0 0 0 0 0 0 0 0 0 0 0 0 0 0 0 0 0 0 0 0 0 0 0 0 0 0 0 0 0 0 0 0 0 0 0 0 0 0 0 0 0 0 0 151 176 194 151 176 194 151 176 194 151 176 194 151 176 194 151 176 194 151 176 194 151 176 194 151 176 194 151 176 194 151 176 194 0 0 0 0 0 0 0 0 0 0 0 0 0 0 0 0 0 0 0 0 0 0 0 0 0 0 0 0 0 0 0 0 0 0 0 0 0 0 0 0 0 0 0 0 0 0 0 0 0 0 0 0 0 0 0 0 0 0 0 0 0 0 0 0 0 0 0 0 0 0 0 0 0 0 0 0 0 0 0 0 0 0 0 0
0 0 0 0 0 0 0 0 0 0 0 0 0 0 0 0 0 0 0 0 0 151 176 194 151 176 194 151 176 194 151 176 194 151 176 194 151 176 194 151 176 194 151 176 194 151 176 194 151 176 194 151 176 194 151 176 194 151 176 194 0 0 0 0 0 0 0 0 0 0 0 0 0 0 0 0 0 0 0 0 0 0 0 0 0 0 0 0 0 0 0 0 0 0 0 0 0 0 0 0 0 0 151 176 194 151 176 194 151 176 194 151 176 194 151 176 194 151 176 194 151 176 194 151 176 194 151 176 194 151 176 194 151 176 194 151 176 194 151 176 194 0 0 0 0 0 0 0 0 0 0 0 0 0 0 0 0 0 0 0 0 0 0 0 0 0 0 0 0 0 0 0 0 0 0 0 0 0 0 0 0 0 0 151 176 194 151 176 194 151 176 194 151 176 194 151 176 194 151 176 194 151 176 194 151 176 194 151 176 194 151 176 194 151 176 194 151 176 194 151 176 194 0 0 0 0 0 0 0 0 0 0 0 0 0 0 0 0 0 0 0 0 0 0 0 0 0 0 0 0 0 0 0 0 0 0 0 0 0 0 0 0 0 0 151 176 194 151 176 194 151 176 194 151 176 194 151 176 194 151 176 194 151 176 194 151 176 194 151 176 194 151 176 194 151 176 194 151 176 194 151 176 194 0 0 0 0 0 0 0 0 0 0 0 0 0 0 0 0 0 0 0 0 0 0 0 0 0 0 0 0 0 0 0 0 0 0 0 0 0 0 0 0 0 0 0 0 0 0 0 0 0 0 0 0 0 0 0 0 0 0 0 0 0 0 0 0 0 0 0 0 0 0 0 0 0 0 0 0 0 0 0 0 0
0 0 0 0 0 0 0 0 0 0 0 0 0 0 0 0 0 0 0 0 0 151 176 194 151 176 194 151 176 194 151 176 194 151 176 194 151 176 194 151 176 194 151 176 194 151 176 194 151 176 194 151 176 194 151 176 194 151 176 194 0 0 0 0 0 0 0 0 0 0 0 0 0 0 0 0 0 0 0 0 0 0 0 0 0 0 0 0 0 0 0 0 0 0 0 0 0 0 0 0 0 0 151 176 194 151 176 194 151 176 194 151 176 194 151 176 194 151 176 194 151 176 194 151 176 194 151 176 194 151 176 194 151 176 194 151 176 194 151 176 194 0 0 0 0 0 0 0 0 0 0 0 0 0 0 0 0 0 0 0 0 0 0 0 0 0 0 0 0 0 0 0 0 0 0 0 0 0 0 0 0 0 0 151 176 194 151 176 194 151 176 194 151 176 194 151 176 194 151 176 194 151 176 194 151 176 194 151 176 194 151 176 194 151 176 194 151 176 194 151 176 194 0 0 0 0 0 0 0 0 0 0 0 0 0 0 0 0 0 0 0 0 0 0 0 0 0 0 0 0 0 0 0 0 0 0 0 0 0 0 0 0 0 0 151 176 194 151 176 194 151 176 194 151 176 194 151 176 194 151 176 194 151 176 194 151 176 194 151 176 194 151 176 194 151 176 194 151 176 194 151 176 194 0 0 0 0 0 0 0 0 0 0 0 0 0 0 0 0 0 0 0 0 0 0 0 0 0 0 0 0 0 0 0 0 0 0 0 0 0 0 0 0 0 0 0 0 0 0 0 0 0 0 0 0 0 0 0 0 0 0 0 0 0 0 0 0 0 0 0 0 0 0 0 0 0 0 0 0 0 0 0 0 0
0 0 0 0 0 0 0 0 0 0 0 0 0 0 0 0 0 0 0 0 0 25 37 50 25 37 50 25 37 50 25 37 50 25 37 50 25 37 50 25 37 50 25 37 50 25 37 50 25 37 50 25 37 50 25 37 50 151 176 194 0 0 0 0 0 0 0 0 0 0 0 0 0 0 0 0 0 0 0 0 0 0 0 0 0 0 0 0 0 0 0 0 0 0 0 0 0 0 0 0 0 0 25 37 50 25 37 50 25 37 50 25 37 50 25 37 50 25 37 50 25 37 50 25 37 50 25 37 50 25 37 50 25 37 50 25 37 50 151 176 194 0 0 0 0 0 0 0 0 0 0 0 0 0 0 0 0 0 0 0 0 0 0 0 0 0 0 0 0 0 0 0 0 0 0 0 0 0 0 0 0 0 0 25 37 50 25 37 50 25 37 50 25 37 50 25 37 50 25 37 50 25 37 50 25 37 50 25 37 50 25 37 50 25 37 50 25 37 50 151 176 194 0 0 0 0 0 0 0 0 0 0 0 0 0 0 0 0 0 0 0 0 0 0 0 0 0 0 0 0 0 0 0 0 0 0 0 0 0 0 0 0 0 0 25 37 50 25 37 50 25 37 50 25 37 50 25 37 50 25 37 50 25 37 50 25 37 50 25 37 50 25 37 50 25 37 50 25 37 50 151 176 194 0 0 0 0 0 0 0 0 0 0 0 0 0 0 0 0 0 0 0 0 0 0 0 0 0 0 0 0 0 0 0 0 0 0 0 0 0 0 0 0 0 0 0 0 0 0 0 0 0 0 0 0 0 0 0 0 0 0 0 0 0 0 0 0 0 0 0 0 0 0 0 0 0 0 0 0 0 0 0 0 0
0 0 0 0 0 0 0 0 0 0 0 0 0 0 0 0 0 0 151 176 194 25 37 50 25 37 50 0 174 235 0 174 235 0 174 235 0 174 235 0 174 235 0 174 235 0 174 235 0 174 235 0 174 235 25 37 50 151 176 194 151 176 194 0 0 0 0 0 0 0 0 0 0 0 0 0 0 0 0 0 0 0 0 0 0 0 0 0 0 0 0 0 0 0 0 0 0 0 0 151 176 194 25 37 50 25 37 50 0 174 235 0 174 235 0 174 235 0 174 235 0 174 235 0 174 235 0 174 235 0 174 235 0 174 235 25 37 50 151 176 194 151 176 194 0 0 0 0 0 0 0 0 0 0 0 0 0 0 0 0 0 0 0 0 0 0 0 0 0 0 0 0 0 0 0 0 0 0 0 0 151 176 194 25 37 50 25 37 50 0 174 235 0 174 235 0 174 235 0 174 235 0 174 235 0 174 235 0 174 235 0 174 235 0 174 235 25 37 50 151 176 194 151 176 194 0 0 0 0 0 0 0 0 0 0 0 0 0 0 0 0 0 0 0 0 0 0 0 0 0 0 0 0 0 0 0 0 0 0 0 0 151 176 194 25 37 50 25 37 50 0 174 235 0 174 235 0 174 235 0 174 235 0 174 235 0 174 235 0 174 235 0 174 235 0 174 235 25 37 50 151 176 194 151 176 194 0 0 0 0 0 0 0 0 0 0 0 0 0 0 0 0 0 0 0 0 0 0 0 0 0 0 0 0 0 0 0 0 0 0 0 0 0 0 0 0 0 0 0 0 0 0 0 0 0 0 0 0 0 0 0 0 0 0 0 0 0 0 0 0 0 0 0 0 0 0 0 0 0 0 0 0 0 0
0 0 0 0 0 0 0 0 0 0 0 0 0 0 0 0 0 0 0 0 0 25 37 50 25 37 50 0 174 235 0 174 235 0 174 235 0 174 235 0 174 235 0 174 235 0 174 235 0 174 235 0 174 235 25 37 50 151 176 194 0 0 0 0 0 0 0 0 0 0 0 0 0 0 0 0 0 0 0 0 0 0 0 0 0 0 0 0 0 0 0 0 0 0 0 0 0 0 0 0 0 0 25 37 50 25 37 50 0 174 235 0 174 235 0 174 235 0 174 235 0 174 235 0 174 235 0 174 235 0 174 235 0 174 235 25 37 50 151 176 194 0 0 0 0 0 0 0 0 0 0 0 0 0 0 0 0 0 0 0 0 0 0 0 0 0 0 0 0 0 0 0 0 0 0 0 0 0 0 0 0 0 0 25 37 50 25 37 50 0 174 235 0 174 235 0 174 235 0 174 235 0 174 235 0 174 235 0 174 235 0 174 235 0 174 235 25 37 50 151 176 194 0 0 0 0 0 0 0 0 0 0 0 0 0 0 0 0 0 0 0 0 0 0 0 0 0 0 0 0 0 0 0 0 0 0 0 0 0 0 0 0 0 0 25 37 50 25 37 50 0 174 235 0 174 235 0 174 235 0 174 235 0 174 235 0 174 235 0 174 235 0 174 235 0 174 235 25 37 50 151 176 194 0 0 0 0 0 0 0 0 0 0 0 0 0 0 0 0 0 0 0 0 0 0 0 0 0 0 0 0 0 0 0 0 0 0 0 0 0 0 0 0 0 0 0 0 0 0 0 0 0 0 0 0 0 0 0 0 0 0 0 0 0 0 0 0 0 0 0 0 0 0 0 0 0 0 0 0 0 0 0 0 0
0 0 0 0 0 0 0 0 0 0 0 0 0 0 0 0 0 0 0 0 0 25 37 50 25 37 50 25 37 50 25 37 50 25 37 50 25 37 50 25 37 50 25 37 50 25 37 50 25 37 50 25 37 50 25 37 50 151 176 194 0 0 0 0 0 0 0 0 0 0 0 0 0 0 0 0 0 0 0 0 0 0 0 0 0 0 0 0 0 0 0 0 0 0 0 0 0 0 0 0 0 0 25 37 50 25 37 50 25 37 50 25 37 50 25 37 50 25 37 50 25 37 50 25 37 50 25 37 50 25 37 50 25 37 50 25 37 50 151 176 194 0 0 0 0 0 0 0 0 0 0 0 0 0 0 0 0 0 0 0 0 0 0 0 0 0 0 0 0 0 0 0 0 0 0 0 0 0 0 0 0 0 0 25 37 50 25 37 50 25 37 50 25 37 50 25 37 50 25 37 50 25 37 50 25 37 50 25 37 50 25 37 50 25 37 50 25 37 50 151 176 194 0 0 0 0 0 0 0 0 0 0 0 0 0 0 0 0 0 0 0 0 0 0 0 0 0 0 0 0 0 0 0 0 0 0 0 0 0 0 0 0 0 0 25 37 50 25 37 50 25 37 50 25 37 50 25 37 50 25 37 50 25 37 50 25 37 50 25 37 50 25 37 50 25 37 50 25 37 50 151 176 194 0 0 0 0 0 0 0 0 0 0 0 0 0 0 0 0 0 0 0 0 0 0 0 0 0 0 0 0 0 0 0 0 0 0 0 0 0 0 0 0 0 0 0 0 0 0 0 0 0 0 0 0 0 0 0 0 0 0 0 0 0 0 0 0 0 0 0 0 0 0 0 0 0 0 0 0 0 0 0 0 0
0 0 0 0 0 0 0 0 0 0 0 0 0 0 0 0 0 0 0 0 0 151 176 194 151 176 194 151 176 194 151 176 194 151 176 194 151 176 194 151 176 194 151 176 194 151 176 194 151 176 194 151 176 194 151 176 194 151 176 194 0 0 0 0 0 0 0 0 0 0 0 0 0 0 0 0 0 0 0 0 0 0 0 0 0 0 0 0 0 0 0 0 0 0 0 0 0 0 0 0 0 0 151 176 194 151 176 194 151 176 194 151 176 194 151 176 194 151 176 194 151 176 194 151 176 194 151 176 194 151 176 194 151 176 194 151 176 194 151 176 194 0 0 0 0 0 0 0 0 0 0 0 0 0 0 0 0 0 0 0 0 0 0 0 0 0 0 0 0 0 0 0 0 0 0 0 0 0 0 0 0 0 0 151 176 194 151 176 194 151 176 194 151 176 194 151 176 194 151 176 194 151 176 194 151 176 194 151 176 194 151 176 194 151 176 194 151 176 194 151 176 194 0 0 0 0 0 0 0 0 0 0 0 0 0 0 0 0 0 0 0 0 0 0 0 0 0 0 0 0 0 0 0 0 0 0 0 0 0 0 0 0 0 0 151 176 194 151 176 194 151 176 194 151 176 194 151 176 194 151 176 194 151 176 194 151 176 194 151 176 194 151 176 194 151 176 194 151 176 194 151 176 194 0 0 0 0 0 0 0 0 0 0 0 0 0 0 0 0 0 0 0 0 0 0 0 0 0 0 0 0 0 0 0 0 0 0 0 0 0 0 0 0 0 0 0 0 0 0 0 0 0 0 0 0 0 0 0 0 0 0 0 0 0 0 0 0 0 0 0 0 0 0 0 0 0 0 0 0 0 0 0 0 0
0 0 0 0 0 0 0 0 0 0 0 0 0 0 0 0 0 0 0 0 0 0 0 0 151 176 194 151 176 194 151 176 194 151 176 194 151 176 194 151 176 194 151 176 194 151 176 194 151 176 194 151 176 194 151 176 194 0 0 0 0 0 0 0 0 0 0 0 0 0 0 0 0 0 0 0 0 0 0 0 0 0 0 0 0 0 0 0 0 0 0 0 0 0 0 0 0 0 0 0 0 0 0 0 0 151 176 194 151 176 194 151 176 194 151 176 194 151 176 194 151 176 194 151 176 194 151 176 194 151 176 194 151 176 194 151 176 194 0 0 0 0 0 0 0 0 0 0 0 0 0 0 0 0 0 0 0 0 0 0 0 0 0 0 0 0 0 0 0 0 0 0 0 0 0 0 0 0 0 0 0 0 0 0 0 0 151 176 194 151 176 194 151 176 194 151 176 194 151 176 194 151 176 194 151 176 194 151 176 194 151 176 194 151 176 194 151 176 194 0 0 0 0 0 0 0 0 0 0 0 0 0 0 0 0 0 0 0 0 0 0 0 0 0 0 0 0 0 0 0 0 0 0 0 0 0 0 0 0 0 0 0 0 0 0 0 0 151 176 194 151 176 194 151 176 194 151 176 194 151 176 194 151 176 194 151 176 194 151 176 194 151 176 194 151 176 194 151 176 194 0 0 0 0 0 0 0 0 0 0 0 0 0 0 0 0 0 0 0 0 0 0 0 0 0 0 0 0 0 0 0 0 0 0 0 0 0 0 0 0 0 0 0 0 0 0 0 0 0 0 0 0 0 0 0 0 0 0 0 0 0 0 0 0 0 0 0 0 0 0 0 0 0 0 0 0 0 0 0 0 0 0 0 0
0 0 0 0 0 0 0 0 0 0 0 0 0 0 0 0 0 0 0 0 0 0 0 0 0 0 0 151 176 194 151 176 194 151 176 194 151 176 194 151 176 194 151 176 194 151 176 194 151 176 194 151 176 194 0 0 0 0 0 0 0 0 0 0 0 0 0 0 0 0 0 0 0 0 0 0 0 0 0 0 0 0 0 0 0 0 0 0 0 0 0 0 0 0 0 0 0 0 0 0 0 0 0 0 0 0 0 0 151 176 194 151 176 194 151 176 194 151 176 194 151 176 194 151 176 194 151 176 194 151 176 194 151 176 194 0 0 0 0 0 0 0 0 0 0 0 0 0 0 0 0 0 0 0 0 0 0 0 0 0 0 0 0 0 0 0 0 0 0 0 0 0 0 0 0 0 0 0 0 0 0 0 0 0 0 0 0 0 0 151 176 194 151 176 194 151 176 194 151 176 194 151 176 194 151 176 194 151 176 194 151 176 194 151 176 194 0 0 0 0 0 0 0 0 0 0 0 0 0 0 0 0 0 0 0 0 0 0 0 0 0 0 0 0 0 0 0 0 0 0 0 0 0 0 0 0 0 0 0 0 0 0 0 0 0 0 0 0 0 0 151 176 194 151 176 194 151 176 194 151 176 194 151 176 194 151 176 194 151 176 194 151 176 194 151 176 194 0 0 0 0 0 0 0 0 0 0 0 0 0 0 0 0 0 0 0 0 0 0 0 0 0 0 0 0 0 0 0 0 0 0 0 0 0 0 0 0 0 0 0 0 0 0 0 0 0 0 0 0 0 0 0 0 0 0 0 0 0 0 0 0 0 0 0 0 0 0 0 0 0 0 0 0 0 0 0 0 0 0 0 0 0 0 0
0 0 0 0 0 0 0 0 0 0 0 0 0 0 0 0 0 0 0 0 0 0 0 0 0 0 0 0 0 0 151 176 194 151 176 194 151 176 194 151 176 194 151 176 194 151 176 194 151 176 194 0 0 0 0 0 0 0 0 0 0 0 0 0 0 0 0 0 0 0 0 0 0 0 0 0 0 0 0 0 0 0 0 0 0 0 0 0 0 0 0 0 0 0 0 0 0 0 0 0 0 0 0 0 0 0 0 0 0 0 0 151 176 194 151 176 194 151 176 194 151 176 194 151 176 194 151 176 194 151 176 194 0 0 0 0 0 0 0 0 0 0 0 0 0 0 0 0 0 0 0 0 0 0 0 0 0 0 0 0 0 0 0 0 0 0 0 0 0 0 0 0 0 0 0 0 0 0 0 0 0 0 0 0 0 0 0 0 0 0 0 0 151 176 194 151 176 194 151 176 194 151 176 194 151 176 194 151 176 194 151 176 194 0 0 0 0 0 0 0 0 0 0 0 0 0 0 0 0 0 0 0 0 0 0 0 0 0 0 0 0 0 0 0 0 0 0 0 0 0 0 0 0 0 0 0 0 0 0 0 0 0 0 0 0 0 0 0 0 0 0 0 0 151 176 194 151 176 194 151 176 194 151 176 194 151 176 194 151 176 194 151 176 194 0 0 0 0 0 0 0 0 0 0 0 0 0 0 0 0 0 0 0 0 0 0 0 0 0 0 0 0 0 0 0 0 0 0 0 0 0 0 0 0 0 0 0 0 0 0 0 0 0 0 0 0 0 0 0 0 0 0 0 0 0 0 0 0 0 0 0 0 0 0 0 0 0 0 0 0 0 0 0 0 0 0 0 0 0 0 0 0 0 0
0 0 0 0 0 0 0 0 0 0 0 0 0 0 0 0 0 0 0 0 0 0 0 0 0 0 0 0 0 0 0 0 0 0 0 0 0 0 0 151 176 194 0 0 0 0 0 0 0 0 0 0 0 0 0 0 0 0 0 0 0 0 0 0 0 0 0 0 0 0 0 0 0 0 0 0 0 0 0 0 0 0 0 0 0 0 0 0 0 0 0 0 0 0 0 0 0 0 0 0 0 0 0 0 0 0 0 0 0 0 0 0 0 0 0 0 0 0 0 0 151 176 194 0 0 0 0 0 0 0 0 0 0 0 0 0 0 0 0 0 0 0 0 0 0 0 0 0 0 0 0 0 0 0 0 0 0 0 0 0 0 0 0 0 0 0 0 0 0 0 0 0 0 0 0 0 0 0 0 0 0 0 0 0 0 0 0 0 0 0 0 0 0 0 0 0 0 0 0 0 0 151 176 194 0 0 0 0 0 0 0 0 0 0 0 0 0 0 0 0 0 0 0 0 0 0 0 0 0 0 0 0 0 0 0 0 0 0 0 0 0 0 0 0 0 0 0 0 0 0 0 0 0 0 0 0 0 0 0 0 0 0 0 0 0 0 0 0 0 0 0 0 0 0 0 0 0 0 0 0 0 0 151 176 194 0 0 0 0 0 0 0 0 0 0 0 0 0 0 0 0 0 0 0 0 0 0 0 0 0 0 0 0 0 0 0 0 0 0 0 0 0 0 0 0 0 0 0 0 0 0 0 0 0 0 0 0 0 0 0 0 0 0 0 0 0 0 0 0 0 0 0 0 0 0 0 0 0 0 0 0 0 0 0 0 0 0 0 0 0 0 0 0 0 0 0 0 0 0 0 0 0 0 0
0 0 0 0 0 0 0 0 0 0 0 0 0 0 0 0 0 0 0 0 0 0 0 0 0 0 0 0 0 0 0 0 0 0 0 0 0 0 0 0 0 0 0 0 0 0 0 0 0 0 0 0 0 0 0 0 0 0 0 0 0 0 0 0 0 0 0 0 0 0 0 0 0 0 0 0 0 0 0 0 0 0 0 0 0 0 0 0 0 0 0 0 0 0 0 0 0 0 0 0 0 0 0 0 0 0 0 0 0 0 0 0 0 0 0 0 0 0 0 0 0 0 0 0 0 0 0 0 0 0 0 0 0 0 0 0 0 0 0 0 0 0 0 0 0 0 0 0 0 0 0 0 0 0 0 0 0 0 0 0 0 0 0 0 0 0 0 0 0 0 0 0 0 0 0 0 0 0 0 0 0 0 0 0 0 0 0 0 0 0 0 0 0 0 0 0 0 0 0 0 0 0 0 0 0 0 0 0 0 0 0 0 0 0 0 0 0 0 0 0 0 0 0 0 0 0 0 0 0 0 0 0 0 0 0 0 0 0 0 0 0 0 0 0 0 0 0 0 0 0 0 0 0 0 0 0 0 0 0 0 0 0 0 0 0 0 0 0 0 0 0 0 0 0 0 0 0 0 0 0 0 0 0 0 0 0 0 0 0 0 0 0 0 0 0 0 0 0 0 0 0 0 0 0 0 0 0 0 0 0 0 0 0 0 0 0 0 0 0 0 0 0 0 0 0 0 0 0 0 0 0 0 0 0 0 0 0 0 0 0 0 0 0 0 0 0 0 0 0 0 0 0 0 0 0 0 0 0 0 0 0 0 0 0 0 0 0 0 0 0 0 0 0 0 0 0 0 0 0 0 0 0 0 0
0 0 0 0 0 0 0 0 0 0 0 0 0 0 0 0 0 0 0 0 0 0 0 0 0 0 0 0 0 0 0 0 0 0 0 0 0 0 0 0 0 0 0 0 0 0 0 0 0 0 0 0 0 0 0 0 0 0 0 0 0 0 0 0 0 0 0 0 0 0 0 0 0 0 0 0 0 0 0 0 0 0 0 0 0 0 0 0 0 0 0 0 0 0 0 0 0 0 0 0 0 0 0 0 0 0 0 0 0 0 0 0 0 0 0 0 0 0 0 0 0 0 0 0 0 0 0 0 0 0 0 0 0 0 0 0 0 0 0 0 0 0 0 0 0 0 0 0 0 0 0 0 0 0 0 0 0 0 0 0 0 0 0 0 0 0 0 0 0 0 0 0 0 0 0 0 0 0 0 0 0 0 0 0 0 0 0 0 0 0 0 0 0 0 0 0 0 0 0 0 0 0 0 0 0 0 0 0 0 0 0 0 0 0 0 0 0 0 0 0 0 0 0 0 0 0 0 0 0 0 0 0 0 0 0 0 0 0 0 0 0 0 0 0 0 0 0 0 0 0 0 0 0 0 0 0 0 0 0 0 0 0 0 0 0 0 0 0 0 0 0 0 0 0 0 0 0 0 0 0 0 0 0 0 0 0 0 0 0 0 0 0 0 0 0 0 0 0 0 0 0 0 0 0 0 0 0 0 0 0 0 0 0 0 0 0 0 0 0 0 0 0 0 0 0 0 0 0 0 0 0 0 0 0 0 0 0 0 0 0 0 0 0 0 0 0 0 0 0 0 0 0 0 0 0 0 0 0 0 0 0 0 0 0 0 0 0 0 0 0 0 0 0 0 0 0 0 0 0 0 0 0 0 0
0 0 0 0 0 0 0 0 0 0 0 0 0 0 0 0 0 0 0 0 0 0 0 0 0 0 0 0 0 0 0 0 0 0 0 0 0 0 0 0 0 0 0 0 0 0 0 0 0 0 0 0 0 0 0 0 0 0 0 0 0 0 0 0 0 0 0 0 0 0 0 0 0 0 0 0 0 0 0 0 0 0 0 0 0 0 0 0 0 0 0 0 0 0 0 0 0 0 0 0 0 0 0 0 0 0 0 0 0 0 0 0 0 0 0 0 0 0 0 0 0 0 0 0 0 0 0 0 0 0 0 0 0 0 0 0 0 0 0 0 0 0 0 0 0 0 0 0 0 0 0 0 0 0 0 0 0 0 0 0 0 0 0 0 0 0 0 0 0 0 0 0 0 0 0 0 0 0 0 0 0 0 0 0 0 0 0 0 0 0 0 0 0 0 0 0 0 0 0 0 0 0 0 0 0 0 0 0 0 0 0 0 0 0 0 0 0 0 0 0 0 0 0 0 0 0 0 0 0 0 0 0 0 0 0 0 0 0 0 0 0 0 0 0 0 0 0 0 0 0 0 0 0 0 0 0 0 0 0 0 0 0 0 0 0 0 0 0 0 0 0 0 0 0 0 0 0 0 0 0 0 0 0 0 0 0 0 0 0 0 0 0 0 0 0 0 0 0 0 0 0 0 0 0 0 0 0 0 0 0 0 0 0 0 0 0 0 0 0 0 0 0 0 0 0 0 0 0 0 0 0 0 0 0 0 0 0 0 0 0 0 0 0 0 0 0 0 0 0 0 0 0 0 0 0 0 0 0 0 0 0 0 0 0 0 0 0 0 0 0 0 0 0 0 0 0 0 0 0 0 0 0 0 0
0 0 0 0 0 0 0 0 0 0 0 0 0 0 0 0 0 0 0 0 0 0 0 0 0 0 0 0 0 0 0 0 0 0 0 0 0 0 0 0 0 0 0 0 0 0 0 0 0 0 0 0 0 0 0 0 0 0 0 0 0 0 0 0 0 0 0 0 0 0 0 0 0 0 0 0 0 0 0 0 0 0 0 0 0 0 0 0 0 0 0 0 0 0 0 0 0 0 0 0 0 0 0 0 0 0 0 0 0 0 0 0 0 0 0 0 0 0 0 0 0 0 0 0 0 0 0 0 0 0 0 0 0 0 0 0 0 0 0 0 0 0 0 0 0 0 0 0 0 0 0 0 0 0 0 0 0 0 0 0 0 0 0 0 0 0 0 0 0 0 0 0 0 0 0 0 0 0 0 0 0 0 0 0 0 0 0 0 0 0 0 0 0 0 0 0 0 0 0 0 0 0 0 0 0 0 0 0 0 0 0 0 0 0 0 0 0 0 0 0 0 0 0 0 0 0 0 0 0 0 0 0 0 0 0 0 0 0 0 0 0 0 0 0 0 0 0 0 0 0 0 0 0 0 0 0 0 0 0 0 0 0 0 0 0 0 0 0 0 0 0 0 0 0 0 0 0 0 0 0 0 0 0 0 0 0 0 0 0 0 0 0 0 0 0 0 0 0 0 0 0 0 0 0 0 0 0 0 0 0 0 0 0 0 0 0 0 0 0 0 0 0 0 0 0 0 0 0 0 0 0 0 0 0 0 0 0 0 0 0 0 0 0 0 0 0 0 0 0 0 0 0 0 0 0 0 0 0 0 0 0 0 0 0 0 0 0 0 0 0 0 0 0 0 0 0 0 0 0 0 0 0 0 0
0 0 0 0 0 0 0 0 0 0 0 0 0 0 0 25 37 50 25 37 50 25 37 50 25 37 50 25 37 50 25 37 50 25 37 50 25 37 50 25 37 50 25 37 50 25 37 50 25 37 50 25 37 50 25 37 50 25 37 50 25 37 50 25 37 50 0 0 0 0 0 0 0 0 0 0 0 0 0 0 0 0 0 0 0 0 0 0 0 0 0 0 0 0 0 0 0 0 0 0 0 0 25 37 50 25 37 50 25 37 50 25 37 50 25 37 50 25 37 50 25 37 50 25 37 50 25 37 50 25 37 50 25 37 50 25 37 50 25 37 50 25 37 50 25 37 50 25 37 50 25 37 50 0 0 0 0 0 0 0 0 0 0 0 0 0 0 0 0 0 0 0 0 0 0 0 0 0 0 0 0 0 0 0 0 0 0 0 0 25 37 50 25 37 50 25 37 50 25 37 50 25 37 50 25 37 50 25 37 50 25 37 50 25 37 50 25 37 50 25 37 50 25 37 50 25 37 50 25 37 50 25 37 50 25 37 50 25 37 50 0 0 0 0 0 0 0 0 0 0 0 0 0 0 0 0 0 0 0 0 0 0 0 0 0 0 0 0 0 0 0 0 0 0 0 0 25 37 50 25 37 50 25 37 50 25 37 50 25 37 50 25 37 50 25 37 50 25 37 50 25 37 50 25 37 50 25 37 50 25 37 50 25 37 50 25 37 50 25 37 50 25 37 50 25 37 50 0 0 0 0 0 0 0 0 0 0 0 0 0 0 0 0 0 0 0 0 0 0 0 0 0 0 0 0 0 0 0 0 0 0 0 0 0 0 0 0 0 0 0 0 0 0 0 0 0 0 0 0 0 0 0 0 0
0 0 0 0 0 0 0 0 0 0 0 0 0 0 0 25 37 50 25 37 50 25 37 50 25 37 50 25 37 50 25 37 50 25 37 50 25 37 50 25 37 50 25 37 50 25 37 50 25 37 50 25 37 50 25 37 50 25 37 50 25 37 50 25 37 50 0 0 0 0 0 0 0 0 0 0 0 0 0 0 0 0 0 0 0 0 0 0 0 0 0 0 0 0 0 0 0 0 0 0 0 0 25 37 50 25 37 50 25 37 50 25 37 50 25 37 50 25 37 50 25 37 50 25 37 50 25 37 50 25 37 50 25 37 50 25 37 50 25 37 50 25 37 50 25 37 50 25 37 50 25 37 50 0 0 0 0 0 0 0 0 0 0 0 0 0 0 0 0 0 0 0 0 0 0 0 0 0 0 0 0 0 0 0 0 0 0 0 0 25 37 50 25 37 50 25 37 50 25 37 50 25 37 50 25 37 50 25 37 50 25 37 50 25 37 50 25 37 50 25 37 50 25 37 50 25 37 50 25 37 50 25 37 50 25 37 50 25 37 50 0 0 0 0 0 0 0 0 0 0 0 0 0 0 0 0 0 0 0 0 0 0 0 0 0 0 0 0 0 0 0 0 0 0 0 0 25 37 50 25 37 50 25 37 50 25 37 50 25 37 50 25 37 50 25 37 50 25 37 50 25 37 50 25 37 50 25 37 50 25 37 50 25 37 50 25 37 50 25 37 50 25 37 50 25 37 50 0 0 0 0 0 0 0 0 0 0 0 0 0 0 0 0 0 0 0 0 0 0 0 0 0 0 0 0 0 0 0 0 0 0 0 0 0 0 0 0 0 0 0 0 0 0 0 0 0 0 0 0 0 0 0 0 0
0 0 0 0 0 0 0 0 0 0 0 0 0 0 0 25 37 50 25 37 50 25 37 50 25 37 50 60 78 94 60 78 94 0 174 235 0 174 235 0 174 235 0 174 235 0 174 235 60 78 94 60 78 94 25 37 50 25 37 50 25 37 50 25 37 50 0 0 0 0 0 0 0 0 0 0 0 0 0 0 0 0 0 0 0 0 0 0 0 0 0 0 0 0 0 0 0 0 0 0 0 0 25 37 50 25 37 50 25 37 50 25 37 50 60 78 94 60 78 94 0 174 235 0 174 235 0 174 235 0 174 235 0 174 235 60 78 94 60 78 94 25 37 50 25 37 50 25 37 50 25 37 50 0 0 0 0 0 0 0 0 0 0 0 0 0 0 0 0 0 0 0 0 0 0 0 0 0 0 0 0 0 0 0 0 0 0 0 0 25 37 50 25 37 50 25 37 50 25 37 50 60 78 94 60 78 94 0 174 235 0 174 235 0 174 235 0 174 235 0 174 235 60 78 94 60 78 94 25 37 50 25 37 50 25 37 50 25 37 50 0 0 0 0 0 0 0 0 0 0 0 0 0 0 0 0 0 0 0 0 0 0 0 0 0 0 0 0 0 0 0 0 0 0 0 0 25 37 50 25 37 50 25 37 50 25 37 50 60 78 94 60 78 94 0 174 235 0 174 235 0 174 235 0 174 235 0 174 235 60 78 94 60 78 94 25 37 50 25 37 50 25 37 50 25 37 50 0 0 0 0 0 0 0 0 0 0 0 0 0 0 0 0 0 0 0 0 0 0 0 0 0 0 0 0 0 0 0 0 0 0 0 0 0 0 0 0 0 0 0 0 0 0 0 0 0 0 0 0 0 0 0 0 0
0 0 0 0 0 0 0 0 0 0 0 0 0 0 0 25 37 50 25 37 50 25 37 50 25 37 50 60 78 94 60 78 94 0 174 235 0 174 235 0 174 235 0 174 235 0 174 235 60 78 94 60 78 94 25 37 50 25 37 50 25 37 50 25 37 50 0 0 0 0 0 0 0 0 0 0 0 0 0 0 0 0 0 0 0 0 0 0 0 0 0 0 0 0 0 0 0 0 0 0 0 0 25 37 50 25 37 50 25 37 50 25 37 50 60 78 94 60 78 94 0 174 235 0 174 235 0 174 235 0 174 235 0 174 235 60 78 94 60 78 94 25 37 50 25 37 50 25 37 50 25 37 50 0 0 0 0 0 0 0 0 0 0 0 0 0 0 0 0 0 0 0 0 0 0 0 0 0 0 0 0 0 0 0 0 0 0 0 0 25 37 50 25 37 50 25 37 50 25 37 50 60 78 94 60 78 94 0 174 235 0 174 235 0 174 235 0 174 235 0 174 235 60 78 94 60 78 94 25 37 50 25 37 50 25 37 50 25 37 50 0 0 0 0 0 0 0 0 0 0 0 0 0 0 0 0 0 0 0 0 0 0 0 0 0 0 0 0 0 0 0 0 0 151 176 194 25 37 50 25 37 50 25 37 50 25 37 50 60 78 94 60 78 94 0 174 235 0 174 235 0 174 235 0 174 235 0 174 235 60 78 94 60 78 94 25 37 50 25 37 50 25 37 50 25 37 50 0 0 0 0 0 0 0 0 0 0 0 0 0 0 0 0 0 0 0 0 0 0 0 0 0 0 0 0 0 0 0 0 0 0 0 0 0 0 0 0 0 0 0 0 0 0 0 0 0 0 0 0 0 0 0 0 0
0 0 0 0 0 0 0 0 0 0 0 0 0 0 0 25 37 50 25 37 50 25 37 50 25 37 50 60 78 94 60 78 94 60 78 94 60 78 94 60 78 94 60 78 94 60 78 94 60 78 94 60 78 94 25 37 50 25 37 50 25 37 50 25 37 50 0 0 0 0 0 0 0 0 0 0 0 0 0 0 0 0 0 0 0 0 0 0 0 0 0 0 0 0 0 0 0 0 0 0 0 0 25 37 50 25 37 50 25 37 50 25 37 50 60 78 94 60 78 94 60 78 94 60 78 94 60 78 94 60 78 94 60 78 94 60 78 94 60 78 94 25 37 50 25 37 50 25 37 50 25 37 50 0 0 0 0 0 0 0 0 0 0 0 0 0 0 0 0 0 0 0 0 0 0 0 0 0 0 0 0 0 0 0 0 0 0 0 0 25 37 50 25 37 50 25 37 50 25 37 50 60 78 94 60 78 94 60 78 94 60 78 94 60 78 94 60 78 94 60 78 94 60 78 94 60 78 94 25 37 50 25 37 50 25 37 50 25 37 50 0 0 0 0 0 0 0 0 0 0 0 0 0 0 0 0 0 0 0 0 0 0 0 0 151 176 194 151 176 194 151 176 194 151 176 194 151 176 194 151 176 194 151 176 194 25 37 50 60 78 94 60 78 94 60 78 94 60 78 94 60 78 94 60 78 94 60 78 94 60 78 94 60 78 94 25 37 50 25 37 50 25 37 50 25 37 50 0 0 0 0 0 0 0 0 0 0 0 0 0 0 0 0 0 0 0 0 0 0 0 0 0 0 0 0 0 0 0 0 0 0 0 0 0 0 0 0 0 0 0 0 0 0 0 0 0 0 0 0 0 0 0 0 0
0 0 0 0 0 0 0 0 0 0 0 0 0 0 0 25 37 50 25 37 50 25 37 50 25 37 50 60 78 94 60 78 94 60 78 94 60 78 94 60 78 94 60 78 94 60 78 94 60 78 94 60 78 94 25 37 50 25 37 50 25 37 50 25 37 50 0 0 0 0 0 0 0 0 0 0 0 0 0 0 0 0 0 0 0 0 0 0 0 0 0 0 0 0 0 0 0 0 0 0 0 0 25 37 50 25 37 50 25 37 50 25 37 50 60 78 94 60 78 94 60 78 94 60 78 94 60 78 94 60 78 94 60 78 94 60 78 94 60 78 94 25 37 50 25 37 50 25 37 50 25 37 50 0 0 0 0 0 0 0 0 0 0 0 0 0 0 0 0 0 0 0 0 0 0 0 0 0 0 0 0 0 0 0 0 0 0 0 0 25 37 50 25 37 50 25 37 50 25 37 50 60 78 94 60 78 94 60 78 94 60 78 94 60 78 94 60 78 94 60 78 94 60 78 94 60 78 94 25 37 50 25 37 50 25 37 50 25 37 50 0 0 0 0 0 0 0 0 0 0 0 0 0 0 0 0 0 0 0 0 0 151 176 194 151 176 194 151 176 194 151 176 194 151 176 194 151 176 194 151 176 194 151 176 194 151 176 194 60 78 94 60 78 94 60 78 94 60 78 94 60 78 94 60 78 94 60 78 94 60 78 94 60 78 94 25 37 50 25 37 50 25 37 50 25 37 50 0 0 0 0 0 0 0 0 0 0 0 0 0 0 0 0 0 0 0 0 0 0 0 0 0 0 0 0 0 0 0 0 0 0 0 0 0 0 0 0 0 0 0 0 0 0 0 0 0 0 0 0 0 0 0 0 0
0 0 0 0 0 0 0 0 0 0 0 0 0 0 0 25 37 50 25 37 50 25 37 50 25 37 50 25 37 50 25 37 50 25 37 50 25 37 50 25 37 50 25 37 50 25 37 50 25 37 50 25 37 50 25 37 50 25 37 50 25 37 50 25 37 50 0 0 0 0 0 0 0 0 0 0 0 0 0 0 0 0 0 0 0 0 0 0 0 0 0 0 0 0 0 0 0 0 0 0 0 0 25 37 50 25 37 50 25 37 50 25 37 50 25 37 50 25 37 50 25 37 50 25 37 50 25 37 50 25 37 50 25 37 50 25 37 50 25 37 50 25 37 50 25 37 50 25 37 50 25 37 50 0 0 0 0 0 0 0 0 0 0 0 0 0 0 0 0 0 0 0 0 0 0 0 0 0 0 0 0 0 0 0 0 0 0 0 0 25 37 50 25 37 50 25 37 50 25 37 50 25 37 50 25 37 50 25 37 50 25 37 50 25 37 50 25 37 50 25 37 50 25 37 50 25 37 50 25 37 50 25 37 50 25 37 50 25 37 50 0 0 0 0 0 0 0 0 0 0 0 0 0 0 0 0 0 0 151 176 194 151 176 194 151 176 194 151 176 194 151 176 194 151 176 194 151 176 194 151 176 194 151 176 194 151 176 194 151 176 194 25 37 50 25 37 50 25 37 50 25 37 50 25 37 50 25 37 50 25 37 50 25 37 50 25 37 50 25 37 50 25 37 50 25 37 50 0 0 0 0 0 0 0 0 0 0 0 0 0 0 0 0 0 0 0 0 0 0 0 0 0 0 0 0 0 0 0 0 0 0 0 0 0 0 0 0 0 0 0 0 0 0 0 0 0 0 0 0 0 0 0 0 0
0 0 0 0 0 0 0 0 0 0 0 0 0 0 0 25 37 50 25 37 50 25 37 50 25 37 50 25 37 50 25 37 50 25 37 50 25 37 50 25 37 50 25 37 50 25 37 50 25 37 50 25 37 50 25 37 50 25 37 50 25 37 50 25 37 50 0 0 0 0 0 0 0 0 0 0 0 0 0 0 0 0 0 0 0 0 0 0 0 0 0 0 0 0 0 0 0 0 0 0 0 0 25 37 50 25 37 50 25 37 50 25 37 50 25 37 50 25 37 50 25 37 50 25 37 50 25 37 50 25 37 50 25 37 50 25 37 50 25 37 50 25 37 50 25 37 50 25 37 50 25 37 50 0 0 0 0 0 0 0 0 0 0 0 0 0 0 0 0 0 0 0 0 0 0 0 0 0 0 0 0 0 0 0 0 0 0 0 0 25 37 50 25 37 50 25 37 50 25 37 50 25 37 50 25 37 50 25 37 50 25 37 50 25 37 50 25 37 50 25 37 50 25 37 50 25 37 50 25 37 50 25 37 50 25 37 50 25 37 50 0 0 0 0 0 0 0 0 0 0 0 0 0 0 0 151 176 194 151 176 194 151 176 194 151 176 194 151 176 194 151 176 194 151 176 194 151 176 194 151 176 194 151 176 194 151 176 194 151 176 194 151 176 194 25 37 50 25 37 50 25 37 50 25 37 50 25 37 50 25 37 50 25 37 50 25 37 50 25 37 50 25 37 50 25 37 50 0 0 0 0 0 0 0 0 0 0 0 0 0 0 0 0 0 0 0 0 0 0 0 0 0 0 0 0 0 0 0 0 0 0 0 0 0 0 0 0 0 0 0 0 0 0 0 0 0 0 0 0 0 0 0 0 0
0 0 0 0 0 0 0 0 0 0 0 0 0 0 0 25 37 50 25 37 50 25 37 50 25 37 50 25 37 50 25 37 50 25 37 50 25 37 50 25 37 50 25 37 50 25 37 50 25 37 50 25 37 50 25 37 50 25 37 50 25 37 50 25 37 50 0 0 0 0 0 0 0 0 0 0 0 0 0 0 0 0 0 0 0 0 0 0 0 0 0 0 0 0 0 0 0 0 0 0 0 0 25 37 50 25 37 50 25 37 50 25 37 50 25 37 50 25 37 50 25 37 50 25 37 50 25 37 50 25 37 50 25 37 50 25 37 50 25 37 50 25 37 50 25 37 50 25 37 50 25 37 50 0 0 0 0 0 0 0 0 0 0 0 0 0 0 0 0 0 0 0 0 0 0 0 0 0 0 0 0 0 0 0 0 0 0 0 0 25 37 50 25 37 50 25 37 50 25 37 50 25 37 50 25 37 50 25 37 50 25 37 50 25 37 50 25 37 50 25 37 50 25 37 50 25 37 50 25 37 50 25 37 50 25 37 50 25 37 50 0 0 0 0 0 0 0 0 0 0 0 0 0 0 0 151 176 194 151 176 194 151 176 194 151 176 194 151 176 194 151 176 194 151 176 194 151 176 194 151 176 194 151 176 194 151 176 194 151 176 194 151 176 194 25 37 50 25 37 50 25 37 50 25 37 50 25 37 50 25 37 50 25 37 50 25 37 50 25 37 50 25 37 50 25 37 50 0 0 0 0 0 0 0 0 0 0 0 0 0 0 0 0 0 0 0 0 0 0 0 0 0 0 0 0 0 0 0 0 0 0 0 0 0 0 0 0 0 0 0 0 0 0 0 0 0 0 0 0 0 0 0 0 0
0 0 0 0 0 0 0 0 0 0 0 0 0 0 0 25 37 50 25 37 50 25 37 50 25 37 50 25 37 50 25 37 50 25 37 50 25 37 50 25 37 50 25 37 50 25 37 50 25 37 50 25 37 50 25 37 50 25 37 50 25 37 50 25 37 50 0 0 0 0 0 0 0 0 0 0 0 0 0 0 0 0 0 0 0 0 0 0 0 0 0 0 0 0 0 0 0 0 0 0 0 0 25 37 50 25 37 50 25 37 50 25 37 50 25 37 50 25 37 50 25 37 50 25 37 50 25 37 50 25 37 50 25 37 50 25 37 50 25 37 50 25 37 50 25 37 50 25 37 50 25 37 50 0 0 0 0 0 0 0 0 0 0 0 0 0 0 0 0 0 0 0 0 0 0 0 0 0 0 0 0 0 0 0 0 0 0 0 0 25 37 50 25 37 50 25 37 50 25 37 50 25 37 50 25 37 50 25 37 50 25 37 50 25 37 50 25 37 50 25 37 50 25 37 50 25 37 50 25 37 50 25 37 50 25 37 50 25 37 50 0 0 0 0 0 0 0 0 0 0 0 0 0 0 0 25 37 50 25 37 50 25 37 50 25 37 50 25 37 50 25 37 50 25 37 50 25 37 50 25 37 50 25 37 50 25 37 50 25 37 50 151 176 194 25 37 50 25 37 50 25 37 50 25 37 50 25 37 50 25 37 50 25 37 50 25 37 50 25 37 50 25 37 50 25 37 50 0 0 0 0 0 0 0 0 0 0 0 0 0 0 0 0 0 0 0 0 0 0 0 0 0 0 0 0 0 0 0 0 0 0 0 0 0 0 0 0 0 0 0 0 0 0 0 0 0 0 0 0 0 0 0 0 0
0 0 0 0 0 0 0 0 0 0 0 0 0 0 0 25 37 50 25 37 50 25 37 50 25 37 50 25 37 50 25 37 50 25 37 50 25 37 50 25 37 50 25 37 50 25 37 50 25 37 50 25 37 50 25 37 50 25 37 50 25 37 50 25 37 50 0 0 0 0 0 0 0 0 0 0 0 0 0 0 0 0 0 0 0 0 0 0 0 0 0 0 0 0 0 0 0 0 0 0 0 0 25 37 50 25 37 50 25 37 50 25 37 50 25 37 50 25 37 50 25 37 50 25 37 50 25 37 50 25 37 50 25 37 50 25 37 50 25 37 50 25 37 50 25 37 50 25 37 50 25 37 50 0 0 0 0 0 0 0 0 0 0 0 0 0 0 0 0 0 0 0 0 0 0 0 0 0 0 0 0 0 0 0 0 0 0 0 0 25 37 50 25 37 50 25 37 50 25 37 50 25 37 50 25 37 50 25 37 50 25 37 50 25 37 50 25 37 50 25 37 50 25 37 50 25 37 50 25 37 50 25 37 50 25 37 50 25 37 50 0 0 0 0 0 0 0 0 0 0 0 0 151 176 194 25 37 50 0 174 235 0 174 235 0 174 235 0 174 235 0 174 235 0 174 235 0 174 235 0 174 235 0 174 235 0 174 235 25 37 50 151 176 194 151 176 194 25 37 50 25 37 50 25 37 50 25 37 50 25 37 50 25 37 50 25 37 50 25 37 50 25 37 50 25 37 50 0 0 0 0 0 0 0 0 0 0 0 0 0 0 0 0 0 0 0 0 0 0 0 0 0 0 0 0 0 0 0 0 0 0 0 0 0 0 0 0 0 0 0 0 0 0 0 0 0 0 0 0 0 0 0 0 0
0 0 0 0 0 0 0 0 0 0 0 0 0 0 0 25 37 50 25 37 50 25 37 50 25 37 50 25 37 50 25 37 50 25 37 50 25 37 50 25 37 50 25 37 50 25 37 50 25 37 50 25 37 50 25 37 50 25 37 50 25 37 50 25 37 50 0 0 0 0 0 0 0 0 0 0 0 0 0 0 0 0 0 0 0 0 0 0 0 0 0 0 0 0 0 0 0 0 0 0 0 0 25 37 50 25 37 50 25 37 50 25 37 50 25 37 50 25 37 50 25 37 50 25 37 50 25 37 50 25 37 50 25 37 50 25 37 50 25 37 50 25 37 50 25 37 50 25 37 50 25 37 50 0 0 0 0 0 0 0 0 0 0 0 0 0 0 0 0 0 0 0 0 0 0 0 0 0 0 0 0 0 0 0 0 0 0 0 0 25 37 50 25 37 50 25 37 50 25 37 50 25 37 50 25 37 50 25 37 50 25 37 50 25 37 50 25 37 50 25 37 50 25 37 50 25 37 50 25 37 50 25 37 50 25 37 50 25 37 50 0 0 0 0 0 0 0 0 0 0 0 0 0 0 0 25 37 50 0 174 235 0 174 235 0 174 235 0 174 235 0 174 235 0 174 235 0 174 235 0 174 235 0 174 235 0 174 235 25 37 50 151 176 194 25 37 50 25 37 50 25 37 50 25 37 50 25 37 50 25 37 50 25 37 50 25 37 50 25 37 50 25 37 50 25 37 50 0 0 0 0 0 0 0 0 0 0 0 0 0 0 0 0 0 0 0 0 0 0 0 0 0 0 0 0 0 0 0 0 0 0 0 0 0 0 0 0 0 0 0 0 0 0 0 0 0 0 0 0 0 0 0 0 0
0 0 0 0 0 0 0 0 0 0 0 0 0 0 0 25 37 50 25 37 50 25 37 50 25 37 50 25 37 50 25 37 50 25 37 50 25 37 50 25 37 50 25 37 50 25 37 50 25 37 50 25 37 50 25 37 50 25 37 50 25 37 50 25 37 50 0 0 0 0 0 0 0 0 0 0 0 0 0 0 0 0 0 0 0 0 0 0 0 0 0 0 0 0 0 0 0 0 0 0 0 0 25 37 50 25 37 50 25 37 50 25 37 50 25 37 50 25 37 50 25 37 50 25 37 50 25 37 50 25 37 50 25 37 50 25 37 50 25 37 50 25 37 50 25 37 50 25 37 50 25 37 50 0 0 0 0 0 0 0 0 0 0 0 0 0 0 0 0 0 0 0 0 0 0 0 0 0 0 0 0 0 0 0 0 0 0 0 0 25 37 50 25 37 50 25 37 50 25 37 50 25 37 50 25 37 50 25 37 50 25 37 50 25 37 50 25 37 50 25 37 50 25 37 50 25 37 50 25 37 50 25 37 50 25 37 50 25 37 50 0 0 0 0 0 0 0 0 0 0 0 0 0 0 0 25 37 50 25 37 50 25 37 50 25 37 50 25 37 50 25 37 50 25 37 50 25 37 50 25 37 50 25 37 50 25 37 50 25 37 50 151 176 194 25 37 50 25 37 50 25 37 50 25 37 50 25 37 50 25 37 50 25 37 50 25 37 50 25 37 50 25 37 50 25 37 50 0 0 0 0 0 0 0 0 0 0 0 0 0 0 0 0 0 0 0 0 0 0 0 0 0 0 0 0 0 0 0 0 0 0 0 0 0 0 0 0 0 0 0 0 0 0 0 0 0 0 0 0 0 0 0 0 0
0 0 0 0 0 0 0 0 0 0 0 0 0 0 0 0 0 0 0 0 0 0 0 0 0 0 0 0 0 0 0 0 0 0 0 0 0 0 0 0 0 0 0 0 0 0 0 0 0 0 0 0 0 0 0 0 0 0 0 0 0 0 0 0 0 0 0 0 0 0 0 0 0 0 0 0 0 0 0 0 0 0 0 0 0 0 0 0 0 0 0 0 0 0 0 0 0 0 0 0 0 0 0 0 0 0 0 0 0 0 0 0 0 0 0 0 0 0 0 0 0 0 0 0 0 0 0 0 0 0 0 0 0 0 0 0 0 0 0 0 0 0 0 0 0 0 0 0 0 0 0 0 0 0 0 0 0 0 0 0 0 0 0 0 0 0 0 0 0 0 0 0 0 0 0 0 0 0 0 0 0 0 0 0 0 0 0 0 0 0 0 0 0 0 0 0 0 0 0 0 0 0 0 0 0 0 0 0 0 0 0 0 0 0 0 0 0 0 0 0 0 0 0 0 0 0 0 0 0 0 0 0 0 0 0 0 0 0 0 0 0 0 0 0 0 0 0 0 0 0 0 0 0 0 0 25 37 50 25 37 50 25 37 50 25 37 50 25 37 50 25 37 50 25 37 50 25 37 50 25 37 50 25 37 50 25 37 50 25 37 50 151 176 194 0 0 0 0 0 0 0 0 0 0 0 0 0 0 0 0 0 0 0 0 0 0 0 0 0 0 0 0 0 0 0 0 0 0 0 0 0 0 0 0 0 0 0 0 0 0 0 0 0 0 0 0 0 0 0 0 0 0 0 0 0 0 0 0 0 0 0 0 0 0 0 0 0 0 0 0 0 0 0 0 0 0 0 0 0 0 0 0 0 0
0 0 0 0 0 0 0 0 0 0 0 0 0 0 0 0 0 0 0 0 0 0 0 0 0 0 0 0 0 0 0 0 0 0 0 0 0 0 0 0 0 0 0 0 0 0 0 0 0 0 0 0 0 0 0 0 0 0 0 0 0 0 0 0 0 0 0 0 0 0 0 0 0 0 0 0 0 0 0 0 0 0 0 0 0 0 0 0 0 0 0 0 0 0 0 0 0 0 0 0 0 0 0 0 0 0 0 0 0 0 0 0 0 0 0 0 0 0 0 0 0 0 0 0 0 0 0 0 0 0 0 0 0 0 0 0 0 0 0 0 0 0 0 0 0 0 0 0 0 0 0 0 0 0 0 0 0 0 0 0 0 0 0 0 0 0 0 0 0 0 0 0 0 0 0 0 0 0 0 0 0 0 0 0 0 0 0 0 0 0 0 0 0 0 0 0 0 0 0 0 0 0 0 0 0 0 0 0 0 0 0 0 0 0 0 0 0 0 0 0 0 0 0 0 0 0 0 0 0 0 0 0 0 0 0 0 0 0 0 0 0 0 0 0 0 0 0 0 0 0 0 0 0 0 0 0 0 0 151 176 194 151 176 194 151 176 194 151 176 194 151 176 194 151 176 194 151 176 194 151 176 194 151 176 194 151 176 194 151 176 194 0 0 0 0 0 0 0 0 0 0 0 0 0 0 0 0 0 0 0 0 0 0 0 0 0 0 0 0 0 0 0 0 0 0 0 0 0 0 0 0 0 0 0 0 0 0 0 0 0 0 0 0 0 0 0 0 0 0 0 0 0 0 0 0 0 0 0 0 0 0 0 0 0 0 0 0 0 0 0 0 0 0 0 0 0 0 0 0 0 0 0 0 0
0 0 0 0 0 0 0 0 0 0 0 0 0 0 0 0 0 0 0 0 0 0 0 0 0 0 0 0 0 0 0 0 0 0 0 0 0 0 0 0 0 0 0 0 0 0 0 0 0 0 0 0 0 0 0 0 0 0 0 0 0 0 0 0 0 0 0 0 0 0 0 0 0 0 0 0 0 0 0 0 0 0 0 0 0 0 0 0 0 0 0 0 0 0 0 0 0 0 0 0 0 0 0 0 0 0 0 0 0 0 0 0 0 0 0 0 0 0 0 0 0 0 0 0 0 0 0 0 0 0 0 0 0 0 0 0 0 0 0 0 0 0 0 0 0 0 0 0 0 0 0 0 0 0 0 0 0 0 0 0 0 0 0 0 0 0 0 0 0 0 0 0 0 0 0 0 0 0 0 0 0 0 0 0 0 0 0 0 0 0 0 0 0 0 0 0 0 0 0 0 0 0 0 0 0 0 0 0 0 0 0 0 0 0 0 0 0 0 0 0 0 0 0 0 0 0 0 0 0 0 0 0 0 0 0 0 0 0 0 0 0 0 0 0 0 0 0 0 0 0 0 0 0 0 0 0 0 0 0 0 0 151 176 194 151 176 194 151 176 194 151 176 194 151 176 194 151 176 194 151 176 194 151 176 194 151 176 194 0 0 0 0 0 0 0 0 0 0 0 0 0 0 0 0 0 0 0 0 0 0 0 0 0 0 0 0 0 0 0 0 0 0 0 0 0 0 0 0 0 0 0 0 0 0 0 0 0 0 0 0 0 0 0 0 0 0 0 0 0 0 0 0 0 0 0 0 0 0 0 0 0 0 0 0 0 0 0 0 0 0 0 0 0 0 0 0 0 0 0 0 0 0 0 0
0 0 0 0 0 0 0 0 0 0 0 0 0 0 0 0 0 0 0 0 0 0 0 0 0 0 0 0 0 0 0 0 0 0 0 0 0 0 0 0 0 0 0 0 0 0 0 0 0 0 0 0 0 0 0 0 0 0 0 0 0 0 0 0 0 0 0 0 0 0 0 0 0 0 0 0 0 0 0 0 0 0 0 0 0 0 0 0 0 0 0 0 0 0 0 0 0 0 0 0 0 0 0 0 0 0 0 0 0 0 0 0 0 0 0 0 0 0 0 0 0 0 0 0 0 0 0 0 0 0 0 0 0 0 0 0 0 0 0 0 0 0 0 0 0 0 0 0 0 0 0 0 0 0 0 0 0 0 0 0 0 0 0 0 0 0 0 0 0 0 0 0 0 0 0 0 0 0 0 0 0 0 0 0 0 0 0 0 0 0 0 0 0 0 0 0 0 0 0 0 0 0 0 0 0 0 0 0 0 0 0 0 0 0 0 0 0 0 0 0 0 0 0 0 0 0 0 0 0 0 0 0 0 0 0 0 0 0 0 0 0 0 0 0 0 0 0 0 0 0 0 0 0 0 0 0 0 0 0 0 0 0 0 0 151 176 194 151 176 194 151 176 194 151 176 194 151 176 194 151 176 194 151 176 194 0 0 0 0 0 0 0 0 0 0 0 0 0 0 0 0 0 0 0 0 0 0 0 0 0 0 0 0 0 0 0 0 0 0 0 0 0 0 0 0 0 0 0 0 0 0 0 0 0 0 0 0 0 0 0 0 0 0 0 0 0 0 0 0 0 0 0 0 0 0 0 0 0 0 0 0 0 0 0 0 0 0 0 0 0 0 0 0 0 0 0 0 0 0 0 0 0 0 0
0 0 0 0 0 0 0 0 0 0 0 0 0 0 0 0 0 0 0 0 0 0 0 0 0 0 0 0 0 0 0 0 0 0 0 0 0 0 0 0 0 0 0 0 0 0 0 0 0 0 0 0 0 0 0 0 0 0 0 0 0 0 0 0 0 0 0 0 0 0 0 0 0 0 0 0 0 0 0 0 0 0 0 0 0 0 0 0 0 0 0 0 0 0 0 0 0 0 0 0 0 0 0 0 0 0 0 0 0 0 0 0 0 0 0 0 0 0 0 0 0 0 0 0 0 0 0 0 0 0 0 0 0 0 0 0 0 0 0 0 0 0 0 0 0 0 0 0 0 0 0 0 0 0 0 0 0 0 0 0 0 0 0 0 0 0 0 0 0 0 0 0 0 0 0 0 0 0 0 0 0 0 0 0 0 0 0 0 0 0 0 0 0 0 0 0 0 0 0 0 0 0 0 0 0 0 0 0 0 0 0 0 0 0 0 0 0 0 0 0 0 0 0 0 0 0 0 0 0 0 0 0 0 0 0 0 0 0 0 0 0 0 0 0 0 0 0 0 0 25 37 50 25 37 50 25 37 50 25 37 50 25 37 50 25 37 50 25 37 50 25 37 50 25 37 50 25 37 50 25 37 50 25 37 50 25 37 50 25 37 50 25 37 50 25 37 50 0 0 0 0 0 0 0 0 0 0 0 0 0 0 0 0 0 0 0 0 0 0 0 0 0 0 0 0 0 0 0 0 0 0 0 0 0 0 0 0 0 0 0 0 0 0 0 0 0 0 0 0 0 0 0 0 0 0 0 0 0 0 0 0 0 0 0 0 0 0 0 0 0 0 0 0 0 0 0 0 0 0 0 0 0 0 0
0 0 0 0 0 0 0 0 0 0 0 0 0 0 0 0 0 0 0 0 0 0 0 0 0 0 0 0 0 0 0 0 0 0 0 0 0 0 0 0 0 0 0 0 0 0 0 0 0 0 0 0 0 0 0 0 0 0 0 0 0 0 0 0 0 0 0 0 0 0 0 0 0 0 0 0 0 0 0 0 0 0 0 0 0 0 0 0 0 0 0 0 0 0 0 0 0 0 0 0 0 0 0 0 0 0 0 0 0 0 0 0 0 0 0 0 0 0 0 0 0 0 0 0 0 0 0 0 0 0 0 0 0 0 0 0 0 0 0 0 0 0 0 0 0 0 0 0 0 0 0 0 0 0 0 0 0 0 0 0 0 0 0 0 0 0 0 0 0 0 0 0 0 0 0 0 0 0 0 0 0 0 0 0 0 0 0 0 0 0 0 0 0 0 0 0 0 0 0 0 0 0 0 0 0 0 0 0 0 0 0 0 0 0 0 0 0 0 0 0 0 0 0 0 0 0 0 0 0 0 0 0 0 0 0 0 0 0 0 0 0 0 0 0 0 0 25 37 50 25 37 50 25 37 50 25 37 50 60 78 94 60 78 94 60 78 94 60 78 94 60 78 94 60 78 94 60 78 94 60 78 94 60 78 94 60 78 94 25 37 50 25 37 50 25 37 50 25 37 50 0 0 0 0 0 0 0 0 0 0 0 0 0 0 0 0 0 0 0 0 0 0 0 0 0 0 0 0 0 0 0 0 0 0 0 0 0 0 0 0 0 0 0 0 0 0 0 0 0 0 0 0 0 0 0 0 0 0 0 0 0 0 0 0 0 0 0 0 0 0 0 0 0 0 0 0 0 0 0 0 0 0 0 0
0 0 0 0 0 0 0 0 0 0 0 0 0 0 0 0 0 0 0 0 0 0 0 0 0 0 0 0 0 0 0 0 0 0 0 0 0 0 0 0 0 0 0 0 0 0 0 0 0 0 0 0 0 0 0 0 0 0 0 0 0 0 0 0 0 0 0 0 0 0 0 0 0 0 0 0 0 0 0 0 0 0 0 0 0 0 0 0 0 0 0 0 0 0 0 0 0 0 0 0 0 0 0 0 0 0 0 0 0 0 0 0 0 0 0 0 0 0 0 0 0 0 0 0 0 0 0 0 0 0 0 0 0 0 0 0 0 0 0 0 0 0 0 0 0 0 0 0 0 0 0 0 0 0 0 0 0 0 0 0 0 0 0 0 0 0 0 0 0 0 0 0 0 0 0 0 0 0 0 0 0 0 0 0 0 0 0 0 0 0 0 0 0 0 0 0 0 0 0 0 0 0 0 0 0 0 0 0 0 0 0 0 0 0 0 0 0 0 0 0 0 0 0 0 0 0 0 0 0 0 0 0 0 0 0 0 0 0 0 0 0 0 0 0 0 0 25 37 50 25 37 50 25 37 50 25 37 50 60 78 94 60 78 94 0 174 235 0 174 235 0 174 235 0 174 235 0 174 235 0 174 235 60 78 94 60 78 94 25 37 50 25 37 50 25 37 50 25 37 50 0 0 0 0 0 0 0 0 0 0 0 0 0 0 0 0 0 0 0 0 0 0 0 0 0 0 0 0 0 0 0 0 0 0 0 0 0 0 0 0 0 0 0 0 0 0 0 0 0 0 0 0 0 0 0 0 0 0 0 0 0 0 0 0 0 0 0 0 0 0 0 0 0 0 0 0 0 0 0 0 0 0 0 0
0 0 0 0 0 0 0 0 0 0 0 0 0 0 0 25 37 50 25 37 50 25 37 50 25 37 50 25 37 50 25 37 50 25 37 50 0 0 0 0 0 0 0 0 0 0 0 0 0 0 0 0 0 0 0 0 0 0 0 0 0 0 0 0 0 0 0 0 0 0 0 0 0 0 0 25 37 50 25 37 50 25 37 50 25 37 50 25 37 50 25 37 50 25 37 50 0 0 0 0 0 0 0 0 0 0 0 0 0 0 0 0 0 0 0 0 0 0 0 0 0 0 0 0 0 0 0 0 0 0 0 0 0 0 0 25 37 50 25 37 50 25 37 50 25 37 50 25 37 50 25 37 50 25 37 50 0 0 0 0 0 0 0 0 0 0 0 0 0 0 0 0 0 0 0 0 0 0 0 0 0 0 0 0 0 0 0 0 0 0 0 0 0 0 0 25 37 50 25 37 50 25 37 50 25 37 50 25 37 50 25 37 50 25 37 50 0 0 0 0 0 0 0 0 0 0 0 0 0 0 0 0 0 0 0 0 0 0 0 0 0 0 0 25 37 50 25 37 50 25 37 50 25 37 50 25 37 50 60 78 94 60 78 94 0 174 235 0 174 235 0 174 235 0 174 235 0 174 235 0 174 235 60 78 94 60 78 94 25 37 50 25 37 50 25 37 50 25 37 50 25 37 50 0 0 0 0 0 0 0 0 0 0 0 0 25 37 50 25 37 50 25 37 50 25 37 50 25 37 50 25 37 50 25 37 50 0 0 0 0 0 0 0 0 0 0 0 0 0 0 0 0 0 0 0 0 0 0 0 0 0 0 0 0 0 0 0 0 0 0 0 0 0 0 0 0 0 0 0 0 0 0 0 0
0 0 0 0 0 0 0 0 0 0 0 0 0 0 0 25 37 50 25 37 50 25 37 50 25 37 50 25 37 50 25 37 50 25 37 50 0 0 0 0 0 0 0 0 0 0 0 0 0 0 0 0 0 0 0 0 0 0 0 0 0 0 0 0 0 0 0 0 0 0 0 0 0 0 0 25 37 50 25 37 50 25 37 50 25 37 50 25 37 50 25 37 50 25 37 50 0 0 0 0 0 0 0 0 0 0 0 0 0 0 0 0 0 0 0 0 0 0 0 0 0 0 0 0 0 0 0 0 0 0 0 0 0 0 0 25 37 50 25 37 50 25 37 50 25 37 50 25 37 50 25 37 50 25 37 50 0 0 0 0 0 0 0 0 0 0 0 0 0 0 0 0 0 0 0 0 0 0 0 0 0 0 0 0 0 0 0 0 0 0 0 0 0 0 0 25 37 50 25 37 50 25 37 50 25 37 50 25 37 50 25 37 50 25 37 50 0 0 0 0 0 0 0 0 0 0 0 0 0 0 0 0 0 0 0 0 0 0 0 0 0 0 0 25 37 50 25 37 50 25 37 50 25 37 50 25 37 50 60 78 94 60 78 94 60 78 94 60 78 94 60 78 94 60 78 94 60 78 94 60 78 94 60 78 94 60 78 94 25 37 50 25 37 50 25 37 50 25 37 50 25 37 50 0 0 0 0 0 0 0 0 0 0 0 0 25 37 50 25 37 50 25 37 50 25 37 50 25 37 50 25 37 50 25 37 50 0 0 0 0 0 0 0 0 0 0 0 0 0 0 0 0 0 0 0 0 0 0 0 0 0 0 0 0 0 0 0 0 0 0 0 0 0 0 0 0 0 0 0 0 0 0 0 0
0 0 0 0 0 0 0 0 0 0 0 0 0 0 0 25 37 50 25 37 50 60 78 94 60 78 94 60 78 94 60 78 94 25 37 50 0 0 0 0 0 0 0 0 0 0 0 0 0 0 0 0 0 0 0 0 0 0 0 0 0 0 0 0 0 0 0 0 0 0 0 0 0 0 0 25 37 50 25 37 50 60 78 94 60 78 94 60 78 94 60 78 94 25 37 50 0 0 0 0 0 0 0 0 0 0 0 0 0 0 0 0 0 0 0 0 0 0 0 0 0 0 0 0 0 0 0 0 0 0 0 0 0 0 0 25 37 50 25 37 50 60 78 94 60 78 94 60 78 94 60 78 94 25 37 50 0 0 0 0 0 0 0 0 0 0 0 0 0 0 0 0 0 0 0 0 0 0 0 0 0 0 0 0 0 0 0 0 0 0 0 0 0 0 0 25 37 50 25 37 50 60 78 94 60 78 94 60 78 94 60 78 94 25 37 50 0 0 0 0 0 0 0 0 0 0 0 0 0 0 0 0 0 0 0 0 0 0 0 0 0 0 0 25 37 50 25 37 50 25 37 50 25 37 50 25 37 50 60 78 94 60 78 94 60 78 94 60 78 94 60 78 94 60 78 94 60 78 94 60 78 94 60 78 94 60 78 94 25 37 50 25 37 50 25 37 50 25 37 50 25 37 50 0 0 0 0 0 0 0 0 0 0 0 0 25 37 50 25 37 50 60 78 94 60 78 94 60 78 94 60 78 94 25 37 50 0 0 0 0 0 0 0 0 0 0 0 0 0 0 0 0 0 0 0 0 0 0 0 0 0 0 0 0 0 0 0 0 0 0 0 0 0 0 0 0 0 0 0 0 0 0 0 0
0 0 0 0 0 0 0 0 0 0 0 0 0 0 0 25 37 50 25 37 50 60 78 94 60 78 94 60 78 94 60 78 94 25 37 50 0 0 0 0 0 0 0 0 0 0 0 0 0 0 0 0 0 0 0 0 0 0 0 0 0 0 0 0 0 0 0 0 0 0 0 0 0 0 0 25 37 50 25 37 50 60 78 94 60 78 94 60 78 94 60 78 94 25 37 50 0 0 0 0 0 0 0 0 0 0 0 0 0 0 0 0 0 0 0 0 0 0 0 0 0 0 0 0 0 0 0 0 0 0 0 0 0 0 0 25 37 50 25 37 50 60 78 94 60 78 94 60 78 94 60 78 94 25 37 50 0 0 0 0 0 0 0 0 0 0 0 0 0 0 0 0 0 0 0 0 0 0 0 0 0 0 0 0 0 0 0 0 0 0 0 0 0 0 0 25 37 50 25 37 50 60 78 94 60 78 94 60 78 94 60 78 94 25 37 50 0 0 0 0 0 0 0 0 0 0 0 0 0 0 0 0 0 0 0 0 0 0 0 0 0 0 0 25 37 50 25 37 50 25 37 50 25 37 50 25 37 50 25 37 50 25 37 50 25 37 50 25 37 50 25 37 50 25 37 50 25 37 50 25 37 50 25 37 50 25 37 50 25 37 50 25 37 50 25 37 50 25 37 50 25 37 50 0 0 0 0 0 0 0 0 0 0 0 0 25 37 50 25 37 50 60 78 94 60 78 94 60 78 94 60 78 94 25 37 50 0 0 0 0 0 0 0 0 0 0 0 0 0 0 0 0 0 0 0 0 0 0 0 0 0 0 0 0 0 0 0 0 0 0 0 0 0 0 0 0 0 0 0 0 0 0 0 0
0 0 0 0 0 0 0 0 0 0 0 0 0 0 0 25 37 50 25 37 50 60 78 94 60 78 94 60 78 94 60 78 94 25 37 50 0 0 0 0 0 0 0 0 0 0 0 0 0 0 0 0 0 0 0 0 0 0 0 0 0 0 0 0 0 0 0 0 0 0 0 0 0 0 0 25 37 50 25 37 50 60 78 94 60 78 94 60 78 94 60 78 94 25 37 50 0 0 0 0 0 0 0 0 0 0 0 0 0 0 0 0 0 0 0 0 0 0 0 0 0 0 0 0 0 0 0 0 0 0 0 0 0 0 0 25 37 50 25 37 50 60 78 94 60 78 94 60 78 94 60 78 94 25 37 50 0 0 0 0 0 0 0 0 0 0 0 0 0 0 0 0 0 0 0 0 0 0 0 0 0 0 0 0 0 0 0 0 0 0 0 0 0 0 0 25 37 50 25 37 50 60 78 94 60 78 94 60 78 94 60 78 94 25 37 50 0 0 0 0 0 0 0 0 0 0 0 0 0 0 0 0 0 0 0 0 0 0 0 0 25 37 50 25 37 50 25 37 50 25 37 50 25 37 50 25 37 50 25 37 50 25 37 50 25 37 50 25 37 50 25 37 50 25 37 50 25 37 50 25 37 50 25 37 50 25 37 50 25 37 50 25 37 50 25 37 50 25 37 50 25 37 50 25 37 50 0 0 0 0 0 0 0 0 0 25 37 50 25 37 50 60 78 94 60 78 94 60 78 94 60 78 94 25 37 50 0 0 0 0 0 0 0 0 0 0 0 0 0 0 0 0 0 0 0 0 0 0 0 0 0 0 0 0 0 0 0 0 0 0 0 0 0 0 0 0 0 0 0 0 0 0 0 0
0 0 0 0 0 0 0 0 0 0 0 0 0 0 0 25 37 50 25 37 50 60 78 94 60 78 94 60 78 94 60 78 94 25 37 50 0 0 0 0 0 0 0 0 0 0 0 0 0 0 0 0 0 0 0 0 0 0 0 0 0 0 0 0 0 0 0 0 0 0 0 0 0 0 0 25 37 50 25 37 50 60 78 94 60 78 94 60 78 94 60 78 94 25 37 50 0 0 0 0 0 0 0 0 0 0 0 0 0 0 0 0 0 0 0 0 0 0 0 0 0 0 0 0 0 0 0 0 0 0 0 0 0 0 0 25 37 50 25 37 50 60 78 94 60 78 94 60 78 94 60 78 94 25 37 50 0 0 0 0 0 0 0 0 0 0 0 0 0 0 0 0 0 0 0 0 0 0 0 0 0 0 0 0 0 0 0 0 0 0 0 0 0 0 0 25 37 50 25 37 50 60 78 94 60 78 94 60 78 94 60 78 94 25 37 50 0 0 0 0 0 0 0 0 0 0 0 0 0 0 0 0 0 0 0 0 0 0 0 0 25 37 50 25 37 50 25 37 50 25 37 50 25 37 50 25 37 50 25 37 50 25 37 50 25 37 50 25 37 50 25 37 50 25 37 50 25 37 50 25 37 50 25 37 50 25 37 50 25 37 50 25 37 50 25 37 50 25 37 50 25 37 50 25 37 50 0 0 0 0 0 0 0 0 0 25 37 50 25 37 50 60 78 94 60 78 94 60 78 94 60 78 94 25 37 50 0 0 0 0 0 0 0 0 0 0 0 0 0 0 0 0 0 0 0 0 0 0 0 0 0 0 0 0 0 0 0 0 0 0 0 0 0 0 0 0 0 0 0 0 0 0 0 0
0 0 0 0 0 0 0 0 0 0 0 0 0 0 0 25 37 50 25 37 50 60 78 94 60 78 94 60 78 94 60 78 94 25 37 50 0 0 0 0 0 0 0 0 0 0 0 0 0 0 0 0 0 0 0 0 0 0 0 0 0 0 0 0 0 0 0 0 0 0 0 0 0 0 0 25 37 50 25 37 50 60 78 94 60 78 94 60 78 94 60 78 94 25 37 50 0 0 0 0 0 0 0 0 0 0 0 0 0 0 0 0 0 0 0 0 0 0 0 0 0 0 0 0 0 0 0 0 0 0 0 0 0 0 0 25 37 50 25 37 50 60 78 94 60 78 94 60 78 94 60 78 94 25 37 50 0 0 0 0 0 0 0 0 0 0 0 0 0 0 0 0 0 0 0 0 0 0 0 0 0 0 0 0 0 0 0 0 0 0 0 0 0 0 0 25 37 50 25 37 50 60 78 94 60 78 94 60 78 94 60 78 94 25 37 50 0 0 0 0 0 0 0 0 0 0 0 0 0 0 0 0 0 0 0 0 0 0 0 0 25 37 50 25 37 50 25 37 50 25 37 50 25 37 50 25 37 50 25 37 50 25 37 50 25 37 50 25 37 50 25 37 50 25 37 50 25 37 50 25 37 50 25 37 50 25 37 50 25 37 50 25 37 50 25 37 50 25 37 50 25 37 50 25 37 50 25 37 50 25 37 50 25 37 50 25 37 50 25 37 50 25 37 50 25 37 50 25 37 50 25 37 50 25 37 50 25 37 50 0 0 0 0 0 0 0 0 0 0 0 0 0 0 0 0 0 0 0 0 0 0 0 0 0 0 0 0 0 0 0 0 0 0 0 0 0 0 0 0 0 0 0 0 0
0 0 0 0 0 0 0 0 0 0 0 0 0 0 0 25 37 50 25 37 50 25 37 50 25 37 50 25 37 50 25 37 50 25 37 50 0 0 0 0 0 0 0 0 0 0 0 0 0 0 0 0 0 0 0 0 0 0 0 0 0 0 0 0 0 0 0 0 0 0 0 0 0 0 0 25 37 50 25 37 50 25 37 50 25 37 50 25 37 50 25 37 50 25 37 50 0 0 0 0 0 0 0 0 0 0 0 0 0 0 0 0 0 0 0 0 0 0 0 0 0 0 0 0 0 0 0 0 0 0 0 0 0 0 0 25 37 50 25 37 50 25 37 50 25 37 50 25 37 50 25 37 50 25 37 50 0 0 0 0 0 0 0 0 0 0 0 0 0 0 0 0 0 0 0 0 0 0 0 0 0 0 0 0 0 0 0 0 0 0 0 0 0 0 0 25 37 50 25 37 50 25 37 50 25 37 50 25 37 50 25 37 50 25 37 50 0 0 0 0 0 0 0 0 0 0 0 0 0 0 0 0 0 0 0 0 0 25 37 50 25 37 50 25 37 50 25 37 50 25 37 50 25 37 50 25 37 50 25 37 50 25 37 50 25 37 50 25 37 50 25 37 50 25 37 50 25 37 50 25 37 50 25 37 50 25 37 50 25 37 50 25 37 50 25 37 50 25 37 50 25 37 50 36 255 96 36 255 96 36 255 96 36 255 96 36 255 96 36 255 96 36 255 96 36 255 96 36 255 96 36 255 96 36 255 96 25 37 50 0 0 0 0 0 0 0 0 0 0 0 0 0 0 0 0 0 0 0 0 0 0 0 0 0 0 0 0 0 0 0 0 0 0 0 0 0 0 0 0 0 0 0 0 0
0 0 0 0 0 0 0 0 0 0 0 0 0 0 0 25 37 50 25 37 50 25 37 50 25 37 50 25 37 50 25 37 50 25 37 50 0 0 0 0 0 0 0 0 0 0 0 0 0 0 0 0 0 0 0 0 0 0 0 0 0 0 0 0 0 0 0 0 0 0 0 0 0 0 0 25 37 50 25 37 50 25 37 50 25 37 50 25 37 50 25 37 50 25 37 50 0 0 0 0 0 0 0 0 0 0 0 0 0 0 0 0 0 0 0 0 0 0 0 0 0 0 0 0 0 0 0 0 0 0 0 0 0 0 0 25 37 50 25 37 50 25 37 50 25 37 50 25 37 50 25 37 50 25 37 50 0 0 0 0 0 0 0 0 0 0 0 0 0 0 0 0 0 0 0 0 0 0 0 0 0 0 0 0 0 0 0 0 0 0 0 0 0 0 0 25 37 50 25 37 50 25 37 50 25 37 50 25 37 50 25 37 50 25 37 50 0 0 0 0 0 0 0 0 0 0 0 0 0 0 0 0 0 0 0 0 0 25 37 50 25 37 50 25 37 50 25 37 50 25 37 50 25 37 50 25 37 50 25 37 50 25 37 50 25 37 50 25 37 50 25 37 50 25 37 50 25 37 50 25 37 50 25 37 50 25 37 50 25 37 50 25 37 50 25 37 50 25 37 50 25 37 50 25 37 50 25 37 50 25 37 50 25 37 50 25 37 50 25 37 50 25 37 50 25 37 50 25 37 50 25 37 50 25 37 50 25 37 50 0 0 0 0 0 0 0 0 0 0 0 0 0 0 0 0 0 0 0 0 0 0 0 0 0 0 0 0 0 0 0 0 0 0 0 0 0 0 0 0 0 0 0 0 0
0 0 0 0 0 0 0 0 0 0 0 0 0 0 0 25 37 50 25 37 50 25 37 50 25 37 50 25 37 50 25 37 50 25 37 50 0 0 0 0 0 0 0 0 0 0 0 0 0 0 0 0 0 0 0 0 0 0 0 0 0 0 0 0 0 0 0 0 0 0 0 0 0 0 0 25 37 50 25 37 50 25 37 50 25 37 50 25 37 50 25 37 50 25 37 50 0 0 0 0 0 0 0 0 0 0 0 0 0 0 0 0 0 0 0 0 0 0 0 0 0 0 0 0 0 0 0 0 0 0 0 0 0 0 0 25 37 50 25 37 50 25 37 50 25 37 50 25 37 50 25 37 50 25 37 50 0 0 0 0 0 0 0 0 0 0 0 0 0 0 0 0 0 0 0 0 0 0 0 0 0 0 0 0 0 0 0 0 0 0 0 0 0 0 0 25 37 50 25 37 50 25 37 50 25 37 50 25 37 50 25 37 50 25 37 50 0 0 0 0 0 0 0 0 0 0 0 0 0 0 0 0 0 0 0 0 0 25 37 50 25 37 50 25 37 50 25 37 50 25 37 50 25 37 50 25 37 50 25 37 50 25 37 50 25 37 50 25 37 50 25 37 50 25 37 50 25 37 50 25 37 50 25 37 50 25 37 50 25 37 50 25 37 50 25 37 50 25 37 50 25 37 50 25 37 50 25 37 50 25 37 50 25 37 50 25 37 50 25 37 50 25 37 50 25 37 50 25 37 50 25 37 50 25 37 50 25 37 50 0 0 0 0 0 0 0 0 0 0 0 0 0 0 0 0 0 0 0 0 0 0 0 0 0 0 0 0 0 0 0 0 0 0 0 0 0 0 0 0 0 0 0 0 0
0 0 0 0 0 0 0 0 0 0 0 0 0 0 0 25 37 50 25 37 50 25 37 50 25 37 50 25 37 50 25 37 50 25 37 50 0 0 0 0 0 0 0 0 0 0 0 0 0 0 0 0 0 0 0 0 0 0 0 0 0 0 0 0 0 0 0 0 0 0 0 0 0 0 0 25 37 50 25 37 50 25 37 50 25 37 50 25 37 50 25 37 50 25 37 50 0 0 0 0 0 0 0 0 0 0 0 0 0 0 0 0 0 0 0 0 0 0 0 0 0 0 0 0 0 0 0 0 0 0 0 0 0 0 0 25 37 50 25 37 50 25 37 50 25 37 50 25 37 50 25 37 50 25 37 50 0 0 0 0 0 0 0 0 0 0 0 0 0 0 0 0 0 0 0 0 0 0 0 0 0 0 0 0 0 0 0 0 0 0 0 0 0 0 0 25 37 50 25 37 50 25 37 50 25 37 50 25 37 50 25 37 50 25 37 50 0 0 0 0 0 0 0 0 0 0 0 0 0 0 0 0 0 0 0 0 0 25 37 50 25 37 50 25 37 50 25 37 50 25 37 50 25 37 50 25 37 50 25 37 50 25 37 50 25 37 50 25 37 50 25 37 50 25 37 50 25 37 50 25 37 50 25 37 50 25 37 50 25 37 50 25 37 50 25 37 50 25 37 50 25 37 50 25 37 50 25 37 50 0 0 0 0 0 0 25 37 50 25 37 50 25 37 50 25 37 50 25 37 50 25 37 50 25 37 50 0 0 0 0 0 0 0 0 0 0 0 0 0 0 0 0 0 0 0 0 0 0 0 0 0 0 0 0 0 0 0 0 0 0 0 0 0 0 0 0 0 0 0 0 0 0 0 0
0 0 0 0 0 0 0 0 0 0 0 0 0 0 0 25 37 50 25 37 50 25 37 50 25 37 50 25 37 50 25 37 50 25 37 50 0 0 0 0 0 0 0 0 0 0 0 0 0 0 0 0 0 0 0 0 0 0 0 0 0 0 0 0 0 0 0 0 0 0 0 0 0 0 0 25 37 50 25 37 50 25 37 50 25 37 50 25 37 50 25 37 50 25 37 50 0 0 0 0 0 0 0 0 0 0 0 0 0 0 0 0 0 0 0 0 0 0 0 0 0 0 0 0 0 0 0 0 0 0 0 0 0 0 0 25 37 50 25 37 50 25 37 50 25 37 50 25 37 50 25 37 50 25 37 50 0 0 0 0 0 0 0 0 0 0 0 0 0 0 0 0 0 0 0 0 0 0 0 0 0 0 0 0 0 0 0 0 0 0 0 0 0 0 0 25 37 50 25 37 50 25 37 50 25 37 50 25 37 50 25 37 50 25 37 50 0 0 0 0 0 0 0 0 0 0 0 0 0 0 0 0 0 0 25 37 50 25 37 50 25 37 50 25 37 50 25 37 50 25 37 50 25 37 50 25 37 50 25 37 50 25 37 50 25 37 50 25 37 50 25 37 50 25 37 50 25 37 50 25 37 50 25 37 50 25 37 50 25 37 50 25 37 50 25 37 50 25 37 50 25 37 50 25 37 50 25 37 50 25 37 50 0 0 0 25 37 50 25 37 50 25 37 50 25 37 50 25 37 50 25 37 50 25 37 50 0 0 0 0 0 0 0 0 0 0 0 0 0 0 0 0 0 0 0 0 0 0 0 0 0 0 0 0 0 0 0 0 0 0 0 0 0 0 0 0 0 0 0 0 0 0 0 0
0 0 0 0 0 0 0 0 0 0 0 0 0 0 0 25 37 50 25 37 50 25 37 50 25 37 50 25 37 50 25 37 50 25 37 50 0 0 0 0 0 0 0 0 0 0 0 0 0 0 0 0 0 0 0 0 0 0 0 0 0 0 0 0 0 0 0 0 0 0 0 0 0 0 0 25 37 50 25 37 50 25 37 50 25 37 50 25 37 50 25 37 50 25 37 50 0 0 0 0 0 0 0 0 0 0 0 0 0 0 0 0 0 0 0 0 0 0 0 0 0 0 0 0 0 0 0 0 0 0 0 0 0 0 0 25 37 50 25 37 50 25 37 50 25 37 50 25 37 50 25 37 50 25 37 50 0 0 0 0 0 0 0 0 0 0 0 0 0 0 0 0 0 0 0 0 0 0 0 0 0 0 0 0 0 0 0 0 0 0 0 0 0 0 0 25 37 50 25 37 50 25 37 50 25 37 50 25 37 50 25 37 50 25 37 50 0 0 0 0 0 0 0 0 0 0 0 0 0 0 0 0 0 0 25 37 50 25 37 50 25 37 50 25 37 50 25 37 50 0 0 0 0 0 0 25 37 50 25 37 50 25 37 50 25 37 50 25 37 50 25 37 50 25 37 50 0 0 0 25 37 50 25 37 50 25 37 50 25 37 50 25 37 50 0 0 0 25 37 50 25 37 50 25 37 50 25 37 50 25 37 50 0 0 0 25 37 50 25 37 50 25 37 50 25 37 50 25 37 50 25 37 50 25 37 50 0 0 0 0 0 0 0 0 0 0 0 0 0 0 0 0 0 0 0 0 0 0 0 0 0 0 0 0 0 0 0 0 0 0 0 0 0 0 0 0 0 0 0 0 0 0 0 0
0 0 0 0 0 0 0 0 0 0 0 0 0 0 0 25 37 50 25 37 50 25 37 50 25 37 50 25 37 50 25 37 50 25 37 50 0 0 0 0 0 0 0 0 0 0 0 0 0 0 0 0 0 0 0 0 0 0 0 0 0 0 0 0 0 0 0 0 0 0 0 0 0 0 0 25 37 50 25 37 50 25 37 50 25 37 50 25 37 50 25 37 50 25 37 50 0 0 0 0 0 0 0 0 0 0 0 0 0 0 0 0 0 0 0 0 0 0 0 0 0 0 0 0 0 0 0 0 0 0 0 0 0 0 0 25 37 50 25 37 50 25 37 50 25 37 50 25 37 50 25 37 50 25 37 50 0 0 0 0 0 0 0 0 0 0 0 0 0 0 0 0 0 0 0 0 0 0 0 0 0 0 0 0 0 0 0 0 0 0 0 0 0 0 0 25 37 50 25 37 50 25 37 50 25 37 50 25 37 50 25 37 50 25 37 50 0 0 0 0 0 0 0 0 0 0 0 0 0 0 0 0 0 0 25 37 50 25 37 50 25 37 50 25 37 50 25 37 50 0 0 0 0 0 0 25 37 50 25 37 50 25 37 50 25 37 50 25 37 50 25 37 50 25 37 50 0 0 0 25 37 50 25 37 50 25 37 50 25 37 50 25 37 50 0 0 0 25 37 50 25 37 50 25 37 50 25 37 50 25 37 50 0 0 0 25 37 50 25 37 50 25 37 50 25 37 50 25 37 50 25 37 50 25 37 50 0 0 0 0 0 0 0 0 0 0 0 0 0 0 0 0 0 0 0 0 0 0 0 0 0 0 0 0 0 0 0 0 0 0 0 0 0 0 0 0 0 0 0 0 0 0 0 0
0 0 0 0 0 0 0 0 0 0 0 0 0 0 0 0 0 0 0 0 0 0 0 0 0 0 0 0 0 0 0 0 0 0 0 0 0 0 0 0 0 0 0 0 0 0 0 0 0 0 0 0 0 0 0 0 0 0 0 0 0 0 0 0 0 0 0 0 0 0 0 0 0 0 0 0 0 0 0 0 0 0 0 0 0 0 0 0 0 0 0 0 0 0 0 0 0 0 0 0 0 0 0 0 0 0 0 0 0 0 0 0 0 0 0 0 0 0 0 0 0 0 0 0 0 0 0 0 0 0 0 0 0 0 0 0 0 0 0 0 0 0 0 0 0 0 0 0 0 0 0 0 0 0 0 0 0 0 0 0 0 0 0 0 0 0 0 0 0 0 0 0 0 0 0 0 0 0 0 0 0 0 0 0 0 0 0 0 0 0 0 0 0 0 0 0 0 0 0 0 0 0 0 0 0 0 0 0 0 0 0 0 0 0 0 0 0 0 0 0 0 0 0 0 0 0 0 0 0 0 0 0 0 0 25 37 50 25 37 50 25 37 50 25 37 50 0 0 0 0 0 0 0 0 0 25 37 50 25 37 50 25 37 50 25 37 50 25 37 50 0 0 0 0 0 0 0 0 0 25 37 50 25 37 50 25 37 50 25 37 50 25 37 50 0 0 0 0 0 0 25 37 50 25 37 50 25 37 50 25 37 50 0 0 0 0 0 0 0 0 0 0 0 0 0 0 0 0 0 0 0 0 0 0 0 0 0 0 0 0 0 0 0 0 0 0 0 0 0 0 0 0 0 0 0 0 0 0 0 0 0 0 0 0 0 0 0 0 0 0 0 0 0 0 0 0 0 0 0 0 0 0 0 0
0 0 0 0 0 0 0 0 0 0 0 0 0 0 0 0 0 0 0 0 0 0 0 0 0 0 0 0 0 0 0 0 0 0 0 0 0 0 0 0 0 0 0 0 0 0 0 0 0 0 0 0 0 0 0 0 0 0 0 0 0 0 0 0 0 0 0 0 0 0 0 0 0 0 0 0 0 0 0 0 0 0 0 0 0 0 0 0 0 0 0 0 0 0 0 0 0 0 0 0 0 0 0 0 0 0 0 0 0 0 0 0 0 0 0 0 0 0 0 0 0 0 0 0 0 0 0 0 0 0 0 0 0 0 0 0 0 0 0 0 0 0 0 0 0 0 0 0 0 0 0 0 0 0 0 0 0 0 0 0 0 0 0 0 0 0 0 0 0 0 0 0 0 0 0 0 0 0 0 0 0 0 0 0 0 0 0 0 0 0 0 0 0 0 0 0 0 0 0 0 0 0 0 0 0 0 0 0 0 0 0 0 0 0 0 0 0 0 0 0 0 0 0 0 0 0 0 0 0 0 0 0 0 0 25 37 50 25 37 50 25 37 50 25 37 50 0 0 0 0 0 0 0 0 0 25 37 50 25 37 50 25 37 50 25 37 50 25 37 50 0 0 0 0 0 0 0 0 0 25 37 50 25 37 50 25 37 50 25 37 50 25 37 50 0 0 0 0 0 0 25 37 50 25 37 50 25 37 50 25 37 50 0 0 0 0 0 0 0 0 0 0 0 0 0 0 0 0 0 0 0 0 0 0 0 0 0 0 0 0 0 0 0 0 0 0 0 0 0 0 0 0 0 0 0 0 0 0 0 0 0 0 0 0 0 0 0 0 0 0 0 0 0 0 0 0 0 0 0 0 0 0 0 0
0 0 0 0 0 0 0 0 0 0 0 0 0 0 0 0 0 0 0 0 0 0 0 0 0 0 0 0 0 0 0 0 0 0 0 0 0 0 0 0 0 0 0 0 0 0 0 0 0 0 0 0 0 0 0 0 0 0 0 0 0 0 0 0 0 0 0 0 0 0 0 0 0 0 0 0 0 0 0 0 0 0 0 0 0 0 0 0 0 0 0 0 0 0 0 0 0 0 0 0 0 0 0 0 0 0 0 0 0 0 0 0 0 0 0 0 0 0 0 0 0 0 0 0 0 0 0 0 0 0 0 0 0 0 0 0 0 0 0 0 0 0 0 0 0 0 0 0 0 0 0 0 0 0 0 0 0 0 0 0 0 0 0 0 0 0 0 0 0 0 0 0 0 0 0 0 0 0 0 0 0 0 0 0 0 0 0 0 0 0 0 0 0 0 0 0 0 0 0 0 0 0 0 0 0 0 0 0 0 0 0 0 0 0 0 0 0 0 0 0 0 0 0 0 0 0 0 0 0 0 0 0 0 0 0 0 0 0 0 0 0 0 0 0 0 0 0 0 0 0 0 0 0 0 0 25 37 50 25 37 50 25 37 50 25 37 50 25 37 50 0 0 0 0 0 0 0 0 0 25 37 50 25 37 50 25 37 50 25 37 50 25 37 50 0 0 0 0 0 0 0 0 0 0 0 0 0 0 0 0 0 0 0 0 0 0 0 0 0 0 0 0 0 0 0 0 0 0 0 0 0 0 0 0 0 0 0 0 0 0 0 0 0 0 0 0 0 0 0 0 0 0 0 0 0 0 0 0 0 0 0 0 0 0 0 0 0 0 0 0 0 0 0 0 0 0 0 0 0 0 0 0 0 0
0 0 0 0 0 0 0 0 0 0 0 0 0 0 0 25 37 50 25 37 50 25 37 50 25 37 50 25 37 50 25 37 50 25 37 50 0 0 0 0 0 0 0 0 0 0 0 0 0 0 0 0 0 0 0 0 0 0 0 0 0 0 0 0 0 0 0 0 0 0 0 0 0 0 0 25 37 50 25 37 50 25 37 50 25 37 50 25 37 50 25 37 50 25 37 50 0 0 0 0 0 0 0 0 0 0 0 0 0 0 0 0 0 0 0 0 0 0 0 0 0 0 0 0 0 0 0 0 0 0 0 0 0 0 0 25 37 50 25 37 50 25 37 50 25 37 50 25 37 50 25 37 50 25 37 50 0 0 0 0 0 0 0 0 0 0 0 0 0 0 0 0 0 0 0 0 0 0 0 0 0 0 0 0 0 0 0 0 0 0 0 0 0 0 0 25 37 50 25 37 50 25 37 50 25 37 50 25 37 50 25 37 50 25 37 50 0 0 0 0 0 0 0 0 0 0 0 0 0 0 0 0 0 0 0 0 0 0 0 0 0 0 0 0 0 0 0 0 0 0 0 0 0 0 0 25 37 50 25 37 50 25 37 50 25 37 50 25 37 50 25 37 50 25 37 50 0 0 0 25 37 50 25 37 50 25 37 50 25 37 50 25 37 50 0 0 0 0 0 0 0 0 0 0 0 0 0 0 0 0 0 0 0 0 0 25 37 50 25 37 50 25 37 50 25 37 50 25 37 50 25 37 50 25 37 50 0 0 0 0 0 0 0 0 0 0 0 0 0 0 0 0 0 0 0 0 0 0 0 0 0 0 0 0 0 0 0 0 0 0 0 0 0 0 0 0 0 0 0 0 0 0 0 0
0 0 0 0 0 0 0 0 0 0 0 0 0 0 0 25 37 50 25 37 50 25 37 50 25 37 50 25 37 50 25 37 50 25 37 50 0 0 0 0 0 0 0 0 0 0 0 0 0 0 0 0 0 0 0 0 0 0 0 0 0 0 0 0 0 0 0 0 0 0 0 0 0 0 0 25 37 50 25 37 50 25 37 50 25 37 50 25 37 50 25 37 50 25 37 50 0 0 0 0 0 0 0 0 0 0 0 0 0 0 0 0 0 0 0 0 0 0 0 0 0 0 0 0 0 0 0 0 0 0 0 0 0 0 0 25 37 50 25 37 50 25 37 50 25 37 50 25 37 50 25 37 50 25 37 50 0 0 0 0 0 0 0 0 0 0 0 0 0 0 0 0 0 0 0 0 0 0 0 0 0 0 0 0 0 0 0 0 0 0 0 0 0 0 0 25 37 50 25 37 50 25 37 50 25 37 50 25 37 50 25 37 50 25 37 50 0 0 0 0 0 0 0 0 0 0 0 0 0 0 0 0 0 0 0 0 0 0 0 0 0 0 0 0 0 0 0 0 0 0 0 0 0 0 0 25 37 50 25 37 50 25 37 50 25 37 50 25 37 50 25 37 50 25 37 50 0 0 0 25 37 50 25 37 50 25 37 50 25 37 50 25 37 50 0 0 0 0 0 0 0 0 0 0 0 0 0 0 0 0 0 0 0 0 0 25 37 50 25 37 50 25 37 50 25 37 50 25 37 50 25 37 50 25 37 50 0 0 0 0 0 0 0 0 0 0 0 0 0 0 0 0 0 0 0 0 0 0 0 0 0 0 0 0 0 0 0 0 0 0 0 0 0 0 0 0 0 0 0 0 0 0 0 0
0 0 0 0 0 0 0 0 0 0 0 0 0 0 0 25 37 50 25 37 50 25 37 50 25 37 50 25 37 50 25 37 50 25 37 50 0 0 0 0 0 0 0 0 0 0 0 0 0 0 0 0 0 0 0 0 0 0 0 0 0 0 0 0 0 0 0 0 0 0 0 0 0 0 0 25 37 50 25 37 50 25 37 50 25 37 50 25 37 50 25 37 50 25 37 50 0 0 0 0 0 0 0 0 0 0 0 0 0 0 0 0 0 0 0 0 0 0 0 0 0 0 0 0 0 0 0 0 0 0 0 0 0 0 0 25 37 50 25 37 50 25 37 50 25 37 50 25 37 50 25 37 50 25 37 50 0 0 0 0 0 0 0 0 0 0 0 0 0 0 0 0 0 0 0 0 0 0 0 0 0 0 0 0 0 0 0 0 0 0 0 0 0 0 0 25 37 50 25 37 50 25 37 50 25 37 50 25 37 50 25 37 50 25 37 50 0 0 0 0 0 0 0 0 0 0 0 0 0 0 0 0 0 0 0 0 0 0 0 0 0 0 0 0 0 0 0 0 0 0 0 0 0 0 0 25 37 50 25 37 50 25 37 50 25 37 50 25 37 50 25 37 50 25 37 50 0 0 0 25 37 50 25 37 50 25 37 50 25 37 50 25 37 50 0 0 0 0 0 0 0 0 0 0 0 0 0 0 0 0 0 0 0 0 0 25 37 50 25 37 50 25 37 50 25 37 50 25 37 50 25 37 50 25 37 50 0 0 0 0 0 0 0 0 0 0 0 0 0 0 0 0 0 0 0 0 0 0 0 0 0 0 0 0 0 0 0 0 0 0 0 0 0 0 0 0 0 0 0 0 0 0 0 0
0 0 0 0 0 0 0 0 0 0 0 0 0 0 0 25 37 50 25 37 50 25 37 50 25 37 50 25 37 50 25 37 50 25 37 50 0 0 0 0 0 0 0 0 0 0 0 0 0 0 0 0 0 0 0 0 0 0 0 0 0 0 0 0 0 0 0 0 0 0 0 0 0 0 0 25 37 50 25 37 50 25 37 50 25 37 50 25 37 50 25 37 50 25 37 50 0 0 0 0 0 0 0 0 0 0 0 0 0 0 0 0 0 0 0 0 0 0 0 0 0 0 0 0 0 0 0 0 0 0 0 0 0 0 0 25 37 50 25 37 50 25 37 50 25 37 50 25 37 50 25 37 50 25 37 50 0 0 0 0 0 0 0 0 0 0 0 0 0 0 0 0 0 0 0 0 0 0 0 0 0 0 0 0 0 0 0 0 0 0 0 0 0 0 0 25 37 50 25 37 50 25 37 50 25 37 50 25 37 50 25 37 50 25 37 50 0 0 0 0 0 0 0 0 0 0 0 0 0 0 0 0 0 0 0 0 0 0 0 0 0 0 0 0 0 0 0 0 0 0 0 0 25 37 50 25 37 50 25 37 50 25 37 50 25 37 50 25 37 50 25 37 50 25 37 50 0 0 0 25 37 50 25 37 50 25 37 50 25 37 50 25 37 50 25 37 50 0 0 0 0 0 0 0 0 0 0 0 0 0 0 0 0 0 0 25 37 50 25 37 50 25 37 50 25 37 50 25 37 50 25 37 50 25 37 50 0 0 0 0 0 0 0 0 0 0 0 0 0 0 0 0 0 0 0 0 0 0 0 0 0 0 0 0 0 0 0 0 0 0 0 0 0 0 0 0 0 0 0 0 0 0 0 0
0 0 0 0 0 0 0 0 0 0 0 0 0 0 0 25 37 50 25 37 50 25 37 50 25 37 50 25 37 50 25 37 50 25 37 50 0 0 0 0 0 0 0 0 0 0 0 0 0 0 0 0 0 0 0 0 0 0 0 0 0 0 0 0 0 0 0 0 0 0 0 0 0 0 0 25 37 50 25 37 50 25 37 50 25 37 50 25 37 50 25 37 50 25 37 50 0 0 0 0 0 0 0 0 0 0 0 0 0 0 0 0 0 0 0 0 0 0 0 0 0 0 0 0 0 0 0 0 0 0 0 0 0 0 0 25 37 50 25 37 50 25 37 50 25 37 50 25 37 50 25 37 50 25 37 50 0 0 0 0 0 0 0 0 0 0 0 0 0 0 0 0 0 0 0 0 0 0 0 0 0 0 0 0 0 0 0 0 0 0 0 0 0 0 0 25 37 50 25 37 50 25 37 50 25 37 50 25 37 50 25 37 50 25 37 50 0 0 0 0 0 0 0 0 0 0 0 0 0 0 0 0 0 0 0 0 0 0 0 0 0 0 0 0 0 0 0 0 0 0 0 0 25 37 50 25 37 50 25 37 50 25 37 50 25 37 50 25 37 50 25 37 50 25 37 50 0 0 0 25 37 50 25 37 50 25 37 50 25 37 50 25 37 50 25 37 50 0 0 0 0 0 0 0 0 0 0 0 0 0 0 0 0 0 0 25 37 50 25 37 50 25 37 50 25 37 50 25 37 50 25 37 50 25 37 50 0 0 0 0 0 0 0 0 0 0 0 0 0 0 0 0 0 0 0 0 0 0 0 0 0 0 0 0 0 0 0 0 0 0 0 0 0 0 0 0 0 0 0 0 0 0 0 0
0 0 0 0 0 0 0 0 0 0 0 0 0 0 0 25 37 50 25 37 50 25 37 50 25 37 50 25 37 50 25 37 50 25 37 50 0 0 0 0 0 0 0 0 0 0 0 0 0 0 0 0 0 0 0 0 0 0 0 0 0 0 0 0 0 0 0 0 0 0 0 0 0 0 0 25 37 50 25 37 50 25 37 50 25 37 50 25 37 50 25 37 50 25 37 50 0 0 0 0 0 0 0 0 0 0 0 0 0 0 0 0 0 0 0 0 0 0 0 0 0 0 0 0 0 0 0 0 0 0 0 0 0 0 0 25 37 50 25 37 50 25 37 50 25 37 50 25 37 50 25 37 50 25 37 50 0 0 0 0 0 0 0 0 0 0 0 0 0 0 0 0 0 0 0 0 0 0 0 0 0 0 0 0 0 0 0 0 0 0 0 0 0 0 0 25 37 50 25 37 50 25 37 50 25 37 50 25 37 50 25 37 50 25 37 50 0 0 0 0 0 0 0 0 0 0 0 0 0 0 0 0 0 0 0 0 0 0 0 0 0 0 0 0 0 0 0 0 0 0 0 0 25 37 50 25 37 50 25 37 50 25 37 50 25 37 50 25 37 50 25 37 50 25 37 50 0 0 0 25 37 50 25 37 50 25 37 50 25 37 50 25 37 50 25 37 50 0 0 0 0 0 0 0 0 0 0 0 0 0 0 0 0 0 0 25 37 50 25 37 50 25 37 50 25 37 50 25 37 50 25 37 50 25 37 50 0 0 0 0 0 0 0 0 0 0 0 0 0 0 0 0 0 0 0 0 0 0 0 0 0 0 0 0 0 0 0 0 0 0 0 0 0 0 0 0 0 0 0 0 0 0 0 0
0 0 0 0 0 0 0 0 0 0 0 0 0 0 0 25 37 50 25 37 50 25 37 50 25 37 50 25 37 50 25 37 50 25 37 50 0 0 0 0 0 0 0 0 0 0 0 0 0 0 0 0 0 0 0 0 0 0 0 0 0 0 0 0 0 0 0 0 0 0 0 0 0 0 0 25 37 50 25 37 50 25 37 50 25 37 50 25 37 50 25 37 50 25 37 50 0 0 0 0 0 0 0 0 0 0 0 0 0 0 0 0 0 0 0 0 0 0 0 0 0 0 0 0 0 0 0 0 0 0 0 0 0 0 0 25 37 50 25 37 50 25 37 50 25 37 50 25 37 50 25 37 50 25 37 50 0 0 0 0 0 0 0 0 0 0 0 0 0 0 0 0 0 0 0 0 0 0 0 0 0 0 0 0 0 0 0 0 0 0 0 0 0 0 0 25 37 50 25 37 50 25 37 50 25 37 50 25 37 50 25 37 50 25 37 50 0 0 0 0 0 0 0 0 0 0 0 0 0 0 0 0 0 0 0 0 0 0 0 0 0 0 0 0 0 0 0 0 0 0 0 0 25 37 50 25 37 50 25 37 50 25 37 50 25 37 50 25 37 50 25 37 50 25 37 50 0 0 0 25 37 50 25 37 50 25 37 50 25 37 50 25 37 50 25 37 50 0 0 0 0 0 0 0 0 0 0 0 0 0 0 0 0 0 0 25 37 50 25 37 50 25 37 50 25 37 50 25 37 50 25 37 50 25 37 50 0 0 0 0 0 0 0 0 0 0 0 0 0 0 0 0 0 0 0 0 0 0 0 0 0 0 0 0 0 0 0 0 0 0 0 0 0 0 0 0 0 0 0 0 0 0 0 0
0 0 0 0 0 0 0 0 0 0 0 0 0 0 0 25 37 50 25 37 50 25 37 50 25 37 50 25 37 50 25 37 50 25 37 50 0 0 0 0 0 0 0 0 0 0 0 0 0 0 0 0 0 0 0 0 0 0 0 0 0 0 0 0 0 0 0 0 0 0 0 0 0 0 0 25 37 50 25 37 50 25 37 50 25 37 50 25 37 50 25 37 50 25 37 50 0 0 0 0 0 0 0 0 0 0 0 0 0 0 0 0 0 0 0 0 0 0 0 0 0 0 0 0 0 0 0 0 0 0 0 0 0 0 0 25 37 50 25 37 50 25 37 50 25 37 50 25 37 50 25 37 50 25 37 50 0 0 0 0 0 0 0 0 0 0 0 0 0 0 0 0 0 0 0 0 0 0 0 0 0 0 0 0 0 0 0 0 0 0 0 0 0 0 0 25 37 50 25 37 50 25 37 50 25 37 50 25 37 50 25 37 50 25 37 50 0 0 0 0 0 0 0 0 0 0 0 0 0 0 0 0 0 0 0 0 0 0 0 0 0 0 0 0 0 0 0 0 0 0 0 0 25 37 50 25 37 50 25 37 50 25 37 50 25 37 50 25 37 50 25 37 50 25 37 50 0 0 0 0 0 0 25 37 50 25 37 50 25 37 50 25 37 50 25 37 50 0 0 0 0 0 0 0 0 0 0 0 0 0 0 0 0 0 0 25 37 50 25 37 50 25 37 50 25 37 50 25 37 50 25 37 50 25 37 50 0 0 0 0 0 0 0 0 0 0 0 0 0 0 0 0 0 0 0 0 0 0 0 0 0 0 0 0 0 0 0 0 0 0 0 0 0 0 0 0 0 0 0 0 0 0 0 0
0 0 0 0 0 0 0 0 0 0 0 0 0 0 0 25 37 50 25 37 50 25 37 50 25 37 50 25 37 50 25 37 50 25 37 50 0 0 0 0 0 0 0 0 0 0 0 0 0 0 0 0 0 0 0 0 0 0 0 0 0 0 0 0 0 0 0 0 0 0 0 0 0 0 0 25 37 50 25 37 50 25 37 50 25 37 50 25 37 50 25 37 50 25 37 50 0 0 0 0 0 0 0 0 0 0 0 0 0 0 0 0 0 0 0 0 0 0 0 0 0 0 0 0 0 0 0 0 0 0 0 0 0 0 0 25 37 50 25 37 50 25 37 50 25 37 50 25 37 50 25 37 50 25 37 50 0 0 0 0 0 0 0 0 0 0 0 0 0 0 0 0 0 0 0 0 0 0 0 0 0 0 0 0 0 0 0 0 0 0 0 0 0 0 0 25 37 50 25 37 50 25 37 50 25 37 50 25 37 50 25 37 50 25 37 50 0 0 0 0 0 0 0 0 0 0 0 0 0 0 0 0 0 0 0 0 0 0 0 0 0 0 0 0 0 0 0 0 0 0 0 0 25 37 50 25 37 50 25 37 50 25 37 50 25 37 50 25 37 50 25 37 50 25 37 50 0 0 0 0 0 0 25 37 50 25 37 50 25 37 50 25 37 50 25 37 50 0 0 0 0 0 0 0 0 0 0 0 0 0 0 0 0 0 0 25 37 50 25 37 50 25 37 50 25 37 50 25 37 50 25 37 50 25 37 50 0 0 0 0 0 0 0 0 0 0 0 0 0 0 0 0 0 0 0 0 0 0 0 0 0 0 0 0 0 0 0 0 0 0 0 0 0 0 0 0 0 0 0 0 0 0 0 0
0 0 0 0 0 0 0 0 0 0 0 0 0 0 0 25 37 50 25 37 50 25 37 50 25 37 50 25 37 50 25 37 50 25 37 50 0 0 0 0 0 0 0 0 0 0 0 0 0 0 0 0 0 0 0 0 0 0 0 0 0 0 0 0 0 0 0 0 0 0 0 0 0 0 0 25 37 50 25 37 50 25 37 50 25 37 50 25 37 50 25 37 50 25 37 50 0 0 0 0 0 0 0 0 0 0 0 0 0 0 0 0 0 0 0 0 0 0 0 0 0 0 0 0 0 0 0 0 0 0 0 0 0 0 0 25 37 50 25 37 50 25 37 50 25 37 50 25 37 50 25 37 50 25 37 50 0 0 0 0 0 0 0 0 0 0 0 0 0 0 0 0 0 0 0 0 0 0 0 0 0 0 0 0 0 0 0 0 0 0 0 0 0 0 0 25 37 50 25 37 50 25 37 50 25 37 50 25 37 50 25 37 50 25 37 50 0 0 0 0 0 0 0 0 0 0 0 0 0 0 0 0 0 0 0 0 0 0 0 0 0 0 0 0 0 0 0 0 0 0 0 0 25 37 50 25 37 50 25 37 50 25 37 50 25 37 50 25 37 50 25 37 50 25 37 50 0 0 0 0 0 0 25 37 50 25 37 50 25 37 50 25 37 50 25 37 50 0 0 0 0 0 0 0 0 0 0 0 0 0 0 0 0 0 0 25 37 50 25 37 50 25 37 50 25 37 50 25 37 50 25 37 50 25 37 50 0 0 0 0 0 0 0 0 0 0 0 0 0 0 0 0 0 0 0 0 0 0 0 0 0 0 0 0 0 0 0 0 0 0 0 0 0 0 0 0 0 0 0 0 0 0 0 0
0 0 0 0 0 0 0 0 0 0 0 0 0 0 0 25 37 50 25 37 50 25 37 50 25 37 50 25 37 50 25 37 50 25 37 50 0 0 0 0 0 0 0 0 0 0 0 0 0 0 0 0 0 0 0 0 0 0 0 0 0 0 0 0 0 0 0 0 0 0 0 0 0 0 0 25 37 50 25 37 50 25 37 50 25 37 50 25 37 50 25 37 50 25 37 50 0 0 0 0 0 0 0 0 0 0 0 0 0 0 0 0 0 0 0 0 0 0 0 0 0 0 0 0 0 0 0 0 0 0 0 0 0 0 0 25 37 50 25 37 50 25 37 50 25 37 50 25 37 50 25 37 50 25 37 50 0 0 0 0 0 0 0 0 0 0 0 0 0 0 0 0 0 0 0 0 0 0 0 0 0 0 0 0 0 0 0 0 0 0 0 0 0 0 0 25 37 50 25 37 50 25 37 50 25 37 50 25 37 50 25 37 50 25 37 50 0 0 0 0 0 0 0 0 0 0 0 0 0 0 0 0 0 0 0 0 0 0 0 0 0 0 0 0 0 0 0 0 0 0 0 0 25 37 50 25 37 50 25 37 50 25 37 50 25 37 50 25 37 50 25 37 50 25 37 50 0 0 0 0 0 0 25 37 50 25 37 50 25 37 50 25 37 50 25 37 50 0 0 0 0 0 0 0 0 0 0 0 0 0 0 0 0 0 0 25 37 50 25 37 50 25 37 50 25 37 50 25 37 50 25 37 50 25 37 50 0 0 0 0 0 0 0 0 0 0 0 0 0 0 0 0 0 0 0 0 0 0 0 0 0 0 0 0 0 0 0 0 0 0 0 0 0 0 0 0 0 0 0 0 0 0 0 0
0 0 0 0 0 0 0 0 0 0 0 0 0 0 0 25 37 50 25 37 50 25 37 50 25 37 50 25 37 50 25 37 50 25 37 50 0 0 0 0 0 0 0 0 0 0 0 0 0 0 0 0 0 0 0 0 0 0 0 0 0 0 0 0 0 0 0 0 0 0 0 0 0 0 0 25 37 50 25 37 50 25 37 50 25 37 50 25 37 50 25 37 50 25 37 50 0 0 0 0 0 0 0 0 0 0 0 0 0 0 0 0 0 0 0 0 0 0 0 0 0 0 0 0 0 0 0 0 0 0 0 0 0 0 0 25 37 50 25 37 50 25 37 50 25 37 50 25 37 50 25 37 50 25 37 50 0 0 0 0 0 0 0 0 0 0 0 0 0 0 0 0 0 0 0 0 0 0 0 0 0 0 0 0 0 0 0 0 0 0 0 0 0 0 0 25 37 50 25 37 50 25 37 50 25 37 50 25 37 50 25 37 50 25 37 50 0 0 0 0 0 0 0 0 0 0 0 0 0 0 0 0 0 0 0 0 0 0 0 0 0 0 0 0 0 0 0 0 0 0 0 0 25 37 50 25 37 50 25 37 50 25 37 50 25 37 50 25 37 50 25 37 50 25 37 50 0 0 0 0 0 0 25 37 50 25 37 50 25 37 50 25 37 50 25 37 50 0 0 0 0 0 0 0 0 0 0 0 0 0 0 0 0 0 0 25 37 50 25 37 50 25 37 50 25 37 50 25 37 50 25 37 50 25 37 50 0 0 0 0 0 0 0 0 0 0 0 0 0 0 0 0 0 0 0 0 0 0 0 0 0 0 0 0 0 0 0 0 0 0 0 0 0 0 0 0 0 0 0 0 0 0 0 0
0 0 0 0 0 0 0 0 0 0 0 0 0 0 0 25 37 50 25 37 50 25 37 50 25 37 50 25 37 50 25 37 50 25 37 50 0 0 0 0 0 0 0 0 0 0 0 0 0 0 0 0 0 0 0 0 0 0 0 0 0 0 0 0 0 0 0 0 0 0 0 0 0 0 0 25 37 50 25 37 50 25 37 50 25 37 50 25 37 50 25 37 50 25 37 50 0 0 0 0 0 0 0 0 0 0 0 0 0 0 0 0 0 0 0 0 0 0 0 0 0 0 0 0 0 0 0 0 0 0 0 0 0 0 0 25 37 50 25 37 50 25 37 50 25 37 50 25 37 50 25 37 50 25 37 50 0 0 0 0 0 0 0 0 0 0 0 0 0 0 0 0 0 0 0 0 0 0 0 0 0 0 0 0 0 0 0 0 0 0 0 0 0 0 0 25 37 50 25 37 50 25 37 50 25 37 50 25 37 50 25 37 50 25 37 50 0 0 0 0 0 0 0 0 0 0 0 0 0 0 0 0 0 0 0 0 0 0 0 0 0 0 0 0 0 0 0 0 0 0 0 0 25 37 50 25 37 50 25 37 50 25 37 50 25 37 50 25 37 50 25 37 50 25 37 50 0 0 0 0 0 0 25 37 50 25 37 50 25 37 50 25 37 50 25 37 50 0 0 0 0 0 0 0 0 0 0 0 0 0 0 0 0 0 0 25 37 50 25 37 50 25 37 50 25 37 50 25 37 50 25 37 50 25 37 50 0 0 0 0 0 0 0 0 0 0 0 0 0 0 0 0 0 0 0 0 0 0 0 0 0 0 0 0 0 0 0 0 0 0 0 0 0 0 0 0 0 0 0 0 0 0 0 0
0 0 0 0 0 0 0 0 0 0 0 0 60 78 94 60 78 94 60 78 94 60 78 94 60 78 94 60 78 94 60 78 94 60 78 94 60 78 94 60 78 94 60 78 94 0 0 0 0 0 0 0 0 0 0 0 0 0 0 0 0 0 0 0 0 0 0 0 0 0 0 0 60 78 94 60 78 94 60 78 94 60 78 94 60 78 94 60 78 94 60 78 94 60 78 94 60 78 94 60 78 94 60 78 94 0 0 0 0 0 0 0 0 0 0 0 0 0 0 0 0 0 0 0 0 0 0 0 0 0 0 0 60 78 94 60 78 94 60 78 94 60 78 94 60 78 94 60 78 94 60 78 94 60 78 94 60 78 94 60 78 94 60 78 94 0 0 0 0 0 0 0 0 0 0 0 0 0 0 0 0 0 0 0 0 0 0 0 0 0 0 0 60 78 94 60 78 94 60 78 94 60 78 94 60 78 94 60 78 94 60 78 94 60 78 94 60 78 94 60 78 94 60 78 94 0 0 0 0 0 0 0 0 0 0 0 0 0 0 0 0 0 0 0 0 0 60 78 94 60 78 94 60 78 94 60 78 94 60 78 94 60 78 94 60 78 94 60 78 94 60 78 94 60 78 94 60 78 94 60 78 94 60 78 94 60 78 94 60 78 94 60 78 94 60 78 94 60 78 94 0 0 0 0 0 0 0 0 0 0 0 0 60 78 94 60 78 94 60 78 94 60 78 94 60 78 94 60 78 94 60 78 94 60 78 94 60 78 94 60 78 94 60 78 94 0 0 0 0 0 0 0 0 0 0 0 0 0 0 0 0 0 0 0 0 0 0 0 0 0 0 0 0 0 0 0 0 0 0 0 0 0 0 0
0 0 0 0 0 0 0 0 0 0 0 0 60 78 94 60 78 94 60 78 94 60 78 94 60 78 94 60 78 94 60 78 94 60 78 94 60 78 94 60 78 94 60 78 94 0 0 0 0 0 0 0 0 0 0 0 0 0 0 0 0 0 0 0 0 0 0 0 0 0 0 0 60 78 94 60 78 94 60 78 94 60 78 94 60 78 94 60 78 94 60 78 94 60 78 94 60 78 94 60 78 94 60 78 94 0 0 0 0 0 0 0 0 0 0 0 0 0 0 0 0 0 0 0 0 0 0 0 0 0 0 0 60 78 94 60 78 94 60 78 94 60 78 94 60 78 94 60 78 94 60 78 94 60 78 94 60 78 94 60 78 94 60 78 94 0 0 0 0 0 0 0 0 0 0 0 0 0 0 0 0 0 0 0 0 0 0 0 0 0 0 0 60 78 94 60 78 94 60 78 94 60 78 94 60 78 94 60 78 94 60 78 94 60 78 94 60 78 94 60 78 94 60 78 94 0 0 0 0 0 0 0 0 0 0 0 0 0 0 0 0 0 0 0 0 0 60 78 94 60 78 94 60 78 94 60 78 94 60 78 94 60 78 94 60 78 94 60 78 94 60 78 94 60 78 94 60 78 94 60 78 94 60 78 94 60 78 94 60 78 94 60 78 94 60 78 94 60 78 94 0 0 0 0 0 0 0 0 0 0 0 0 60 78 94 60 78 94 60 78 94 60 78 94 60 78 94 60 78 94 60 78 94 60 78 94 60 78 94 60 78 94 60 78 94 0 0 0 0 0 0 0 0 0 0 0 0 0 0 0 0 0 0 0 0 0 0 0 0 0 0 0 0 0 0 0 0 0 0 0 0 0 0 0
0 0 0 0 0 0 0 0 0 0 0 0 60 78 94 60 78 94 60 78 94 60 78 94 60 78 94 60 78 94 60 78 94 60 78 94 60 78 94 60 78 94 60 78 94 0 0 0 0 0 0 0 0 0 0 0 0 0 0 0 0 0 0 0 0 0 0 0 0 0 0 0 60 78 94 60 78 94 60 78 94 60 78 94 60 78 94 60 78 94 60 78 94 60 78 94 60 78 94 60 78 94 60 78 94 0 0 0 0 0 0 0 0 0 0 0 0 0 0 0 0 0 0 0 0 0 0 0 0 0 0 0 60 78 94 60 78 94 60 78 94 60 78 94 60 78 94 60 78 94 60 78 94 60 78 94 60 78 94 60 78 94 60 78 94 0 0 0 0 0 0 0 0 0 0 0 0 0 0 0 0 0 0 0 0 0 0 0 0 0 0 0 60 78 94 60 78 94 60 78 94 60 78 94 60 78 94 60 78 94 60 78 94 60 78 94 60 78 94 60 78 94 60 78 94 0 0 0 0 0 0 0 0 0 0 0 0 0 0 0 0 0 0 0 0 0 60 78 94 60 78 94 60 78 94 60 78 94 60 78 94 60 78 94 60 78 94 60 78 94 60 78 94 60 78 94 60 78 94 60 78 94 60 78 94 60 78 94 60 78 94 60 78 94 60 78 94 60 78 94 0 0 0 0 0 0 0 0 0 0 0 0 60 78 94 60 78 94 60 78 94 60 78 94 60 78 94 60 78 94 60 78 94 60 78 94 60 78 94 60 78 94 60 78 94 0 0 0 0 0 0 0 0 0 0 0 0 0 0 0 0 0 0 0 0 0 0 0 0 0 0 0 0 0 0 0 0 0 0 0 0 0 0 0
0 0 0 0 0 0 0 0 0 0 0 0 60 78 94 25 37 50 25 37 50 25 37 50 25 37 50 25 37 50 25 37 50 25 37 50 25 37 50 25 37 50 25 37 50 25 37 50 25 37 50 25 37 50 25 37 50 25 37 50 25 37 50 25 37 50 25 37 50 25 37 50 25 37 50 25 37 50 25 37 50 25 37 50 25 37 50 25 37 50 60 78 94 60 78 94 60 78 94 60 78 94 60 78 94 0 0 0 0 0 0 0 0 0 0 0 0 0 0 0 0 0 0 0 0 0 0 0 0 0 0 0 60 78 94 60 78 94 60 78 94 60 78 94 60 78 94 60 78 94 60 78 94 60 78 94 60 78 94 60 78 94 60 78 94 0 0 0 0 0 0 0 0 0 0 0 0 0 0 0 0 0 0 0 0 0 0 0 0 0 0 0 60 78 94 60 78 94 60 78 94 60 78 94 60 78 94 60 78 94 60 78 94 60 78 94 60 78 94 60 78 94 60 78 94 0 0 0 0 0 0 0 0 0 0 0 0 0 0 0 0 0 0 0 0 0 60 78 94 60 78 94 60 78 94 60 78 94 60 78 94 60 78 94 60 78 94 60 78 94 60 78 94 60 78 94 60 78 94 60 78 94 60 78 94 60 78 94 60 78 94 60 78 94 60 78 94 60 78 94 0 0 0 0 0 0 0 0 0 0 0 0 60 78 94 60 78 94 60 78 94 60 78 94 60 78 94 60 78 94 60 78 94 60 78 94 60 78 94 60 78 94 60 78 94 0 0 0 0 0 0 0 0 0 0 0 0 0 0 0 0 0 0 0 0 0 0 0 0 0 0 0 0 0 0 0 0 0 0 0 0 0 0 0
0 0 0 0 0 0 0 0 0 0 0 0 60 78 94 25 37 50 25 37 50 25 37 50 25 37 50 25 37 50 25 37 50 25 37 50 25 37 50 25 37 50 25 37 50 25 37 50 25 37 50 25 37 50 25 37 50 25 37 50 25 37 50 25 37 50 25 37 50 25 37 50 25 37 50 25 37 50 25 37 50 25 37 50 25 37 50 25 37 50 60 78 94 60 78 94 60 78 94 60 78 94 60 78 94 25 37 50 25 37 50 25 37 50 25 37 50 25 37 50 25 37 50 25 37 50 25 37 50 25 37 50 25 37 50 25 37 50 25 37 50 25 37 50 25 37 50 25 37 50 25 37 50 25 37 50 25 37 50 25 37 50 25 37 50 0 0 0 0 0 0 0 0 0 0 0 0 0 0 0 0 0 0 0 0 0 0 0 0 0 0 0 60 78 94 60 78 94 60 78 94 60 78 94 60 78 94 60 78 94 60 78 94 60 78 94 60 78 94 60 78 94 60 78 94 0 0 0 0 0 0 0 0 0 0 0 0 0 0 0 0 0 0 0 0 0 0 0 0 0 0 0 60 78 94 60 78 94 60 78 94 60 78 94 60 78 94 60 78 94 60 78 94 60 78 94 60 78 94 60 78 94 60 78 94 0 0 0 0 0 0 0 0 0 0 0 0 0 0 0 0 0 0 0 0 0 0 0 0 0 0 0 60 78 94 60 78 94 60 78 94 60 78 94 60 78 94 60 78 94 60 78 94 60 78 94 60 78 94 60 78 94 60 78 94 0 0 0 0 0 0 0 0 0 0 0 0 0 0 0 0 0 0 0 0 0 0 0 0 0 0 0 0 0 0 0 0 0 0 0 0 0 0 0
0 0 0 0 0 0 0 0 0 0 0 0 0 0 0 25 37 50 25 37 50 25 37 50 25 37 50 25 37 50 25 37 50 25 37 50 25 37 50 25 37 50 25 37 50 25 37 50 25 37 50 25 37 50 25 37 50 25 37 50 25 37 50 25 37 50 25 37 50 25 37 50 25 37 50 25 37 50 25 37 50 25 37 50 25 37 50 25 37 50 0 0 0 0 0 0 0 0 0 0 0 0 0 0 0 25 37 50 25 37 50 25 37 50 25 37 50 25 37 50 25 37 50 25 37 50 25 37 50 25 37 50 25 37 50 25 37 50 25 37 50 25 37 50 25 37 50 25 37 50 25 37 50 25 37 50 25 37 50 25 37 50 25 37 50 0 0 0 0 0 0 0 0 0 0 0 0 0 0 0 0 0 0 0 0 0 0 0 0 0 0 0 0 0 0 25 37 50 25 37 50 25 37 50 25 37 50 25 37 50 25 37 50 25 37 50 25 37 50 25 37 50 25 37 50 25 37 50 25 37 50 25 37 50 25 37 50 25 37 50 25 37 50 0 0 0 0 0 0 0 0 0 0 0 0 0 0 0 0 0 0 0 0 0 0 0 0 0 0 0 0 0 0 0 0 0 0 0 0 0 0 0 0 0 0 0 0 0 0 0 0 0 0 0 0 0 0 0 0 0 0 0 0 0 0 0 0 0 0 0 0 0 0 0 0 0 0 0 0 0 0 0 0 0 0 0 0 0 0 0 0 0 0 0 0 0 0 0 0 0 0 0 0 0 0 0 0 0 0 0 0 0 0 0 0 0 0 0 0 0 0 0 0 0 0 0 0 0 0 0 0 0 0 0 0 0 0 0 0 0 0 0 0 0
0 0 0 0 0 0 0 0 0 0 0 0 0 0 0 25 37 50 25 37 50 25 37 50 25 37 50 25 37 50 25 37 50 25 37 50 25 37 50 25 37 50 25 37 50 25 37 50 25 37 50 25 37 50 25 37 50 25 37 50 25 37 50 25 37 50 25 37 50 25 37 50 25 37 50 25 37 50 25 37 50 25 37 50 25 37 50 25 37 50 0 0 0 0 0 0 0 0 0 0 0 0 0 0 0 25 37 50 25 37 50 25 37 50 25 37 50 25 37 50 25 37 50 25 37 50 25 37 50 25 37 50 25 37 50 25 37 50 25 37 50 25 37 50 25 37 50 25 37 50 25 37 50 25 37 50 25 37 50 25 37 50 25 37 50 0 0 0 0 0 0 0 0 0 0 0 0 0 0 0 0 0 0 0 0 0 0 0 0 0 0 0 0 0 0 25 37 50 25 37 50 25 37 50 25 37 50 25 37 50 25 37 50 25 37 50 25 37 50 25 37 50 25 37 50 25 37 50 25 37 50 25 37 50 25 37 50 25 37 50 25 37 50 0 0 0 0 0 0 0 0 0 0 0 0 0 0 0 0 0 0 0 0 0 0 0 0 0 0 0 0 0 0 0 0 0 0 0 0 0 0 0 0 0 0 25 37 50 25 37 50 25 37 50 25 37 50 25 37 50 25 37 50 25 37 50 25 37 50 25 37 50 25 37 50 25 37 50 25 37 50 0 0 0 0 0 0 0 0 0 0 0 0 0 0 0 0 0 0 0 0 0 0 0 0 0 0 0 0 0 0 0 0 0 0 0 0 0 0 0 0 0 0 0 0 0 0 0 0 0 0 0 0 0 0 0 0 0 0 0 0 0 0 0
0 0 0 0 0 0 0 0 0 0 0 0 0 0 0 25 37 50 25 37 50 25 37 50 25 37 50 25 37 50 25 37 50 25 37 50 25 37 50 25 37 50 25 37 50 25 37 50 25 37 50 25 37 50 25 37 50 25 37 50 25 37 50 25 37 50 25 37 50 25 37 50 25 37 50 25 37 50 25 37 50 25 37 50 25 37 50 25 37 50 0 0 0 0 0 0 0 0 0 0 0 0 0 0 0 25 37 50 25 37 50 25 37 50 25 37 50 25 37 50 25 37 50 25 37 50 25 37 50 25 37 50 25 37 50 25 37 50 25 37 50 25 37 50 25 37 50 25 37 50 25 37 50 25 37 50 25 37 50 25 37 50 25 37 50 0 0 0 0 0 0 0 0 0 0 0 0 0 0 0 0 0 0 0 0 0 0 0 0 0 0 0 0 0 0 25 37 50 25 37 50 25 37 50 25 37 50 25 37 50 25 37 50 25 37 50 25 37 50 25 37 50 25 37 50 25 37 50 25 37 50 25 37 50 25 37 50 25 37 50 25 37 50 0 0 0 0 0 0 0 0 0 0 0 0 0 0 0 0 0 0 0 0 0 0 0 0 0 0 0 0 0 0 0 0 0 0 0 0 0 0 0 0 0 0 25 37 50 25 37 50 25 37 50 25 37 50 25 37 50 25 37 50 25 37 50 25 37 50 25 37 50 25 37 50 25 37 50 25 37 50 0 0 0 0 0 0 0 0 0 0 0 0 0 0 0 0 0 0 0 0 0 0 0 0 0 0 0 0 0 0 0 0 0 0 0 0 0 0 0 0 0 0 0 0 0 0 0 0 0 0 0 0 0 0 0 0 0 0 0 0 0 0 0
0 0 0 0 0 0 0 0 0 0 0 0 0 0 0 25 37 50 25 37 50 25 37 50 25 37 50 25 37 50 25 37 50 25 37 50 25 37 50 25 37 50 25 37 50 25 37 50 25 37 50 25 37 50 25 37 50 25 37 50 25 37 50 25 37 50 25 37 50 25 37 50 25 37 50 25 37 50 25 37 50 25 37 50 25 37 50 25 37 50 0 0 0 0 0 0 0 0 0 0 0 0 0 0 0 25 37 50 25 37 50 25 37 50 25 37 50 25 37 50 25 37 50 25 37 50 25 37 50 25 37 50 25 37 50 25 37 50 25 37 50 25 37 50 25 37 50 25 37 50 25 37 50 25 37 50 25 37 50 25 37 50 25 37 50 0 0 0 0 0 0 0 0 0 0 0 0 0 0 0 0 0 0 0 0 0 0 0 0 0 0 0 0 0 0 25 37 50 25 37 50 25 37 50 25 37 50 25 37 50 25 37 50 25 37 50 25 37 50 25 37 50 25 37 50 25 37 50 25 37 50 25 37 50 25 37 50 25 37 50 25 37 50 0 0 0 0 0 0 0 0 0 0 0 0 0 0 0 0 0 0 0 0 0 0 0 0 0 0 0 0 0 0 0 0 0 0 0 0 0 0 0 0 0 0 25 37 50 25 37 50 25 37 50 25 37 50 25 37 50 25 37 50 25 37 50 25 37 50 25 37 50 25 37 50 25 37 50 25 37 50 0 0 0 0 0 0 0 0 0 0 0 0 0 0 0 0 0 0 0 0 0 0 0 0 0 0 0 0 0 0 0 0 0 0 0 0 0 0 0 0 0 0 0 0 0 0 0 0 0 0 0 0 0 0 0 0 0 0 0 0 0 0 0
0 0 0 0 0 0 0 0 0 0 0 0 0 0 0 25 37 50 25 37 50 36 255 96 36 255 96 36 255 96 36 255 96 36 255 96 36 255 96 36 255 96 36 255 96 36 255 96 36 255 96 36 255 96 36 255 96 36 255 96 36 255 96 36 255 96 36 255 96 36 255 96 36 255 96 36 255 96 36 255 96 36 255 96 25 37 50 25 37 50 0 0 0 0 0 0 0 0 0 0 0 0 0 0 0 25 37 50 25 37 50 36 255 96 36 255 96 36 255 96 36 255 96 36 255 96 36 255 96 36 255 96 36 255 96 36 255 96 36 255 96 36 255 96 36 255 96 36 255 96 36 255 96 36 255 96 36 255 96 25 37 50 25 37 50 0 0 0 0 0 0 0 0 0 0 0 0 0 0 0 0 0 0 0 0 0 0 0 0 0 0 0 0 0 0 25 37 50 25 37 50 36 255 96 36 255 96 36 255 96 36 255 96 36 255 96 36 255 96 36 255 96 36 255 96 36 255 96 36 255 96 36 255 96 36 255 96 25 37 50 25 37 50 0 0 0 0 0 0 0 0 0 0 0 0 0 0 0 0 0 0 0 0 0 0 0 0 0 0 0 0 0 0 0 0 0 0 0 0 0 0 0 0 0 0 25 37 50 25 37 50 36 255 96 36 255 96 36 255 96 36 255 96 36 255 96 36 255 96 36 255 96 36 255 96 25 37 50 25 37 50 0 0 0 0 0 0 0 0 0 0 0 0 0 0 0 0 0 0 0 0 0 0 0 0 0 0 0 0 0 0 0 0 0 0 0 0 0 0 0 0 0 0 0 0 0 0 0 0 0 0 0 0 0 0 0 0 0 0 0 0 0 0 0
0 0 0 0 0 0 0 0 0 0 0 0 0 0 0 25 37 50 25 37 50 25 37 50 25 37 50 25 37 50 25 37 50 25 37 50 25 37 50 25 37 50 25 37 50 25 37 50 25 37 50 25 37 50 25 37 50 25 37 50 25 37 50 25 37 50 25 37 50 25 37 50 25 37 50 25 37 50 25 37 50 25 37 50 25 37 50 25 37 50 0 0 0 0 0 0 0 0 0 0 0 0 0 0 0 25 37 50 25 37 50 25 37 50 25 37 50 25 37 50 25 37 50 25 37 50 25 37 50 25 37 50 25 37 50 25 37 50 25 37 50 25 37 50 25 37 50 25 37 50 25 37 50 25 37 50 25 37 50 25 37 50 25 37 50 0 0 0 0 0 0 0 0 0 0 0 0 0 0 0 0 0 0 0 0 0 0 0 0 0 0 0 0 0 0 25 37 50 25 37 50 25 37 50 25 37 50 25 37 50 25 37 50 25 37 50 25 37 50 25 37 50 25 37 50 25 37 50 25 37 50 25 37 50 25 37 50 25 37 50 25 37 50 0 0 0 0 0 0 0 0 0 0 0 0 0 0 0 0 0 0 0 0 0 0 0 0 0 0 0 0 0 0 0 0 0 0 0 0 0 0 0 0 0 0 25 37 50 25 37 50 25 37 50 25 37 50 25 37 50 25 37 50 25 37 50 25 37 50 25 37 50 25 37 50 25 37 50 25 37 50 0 0 0 0 0 0 0 0 0 0 0 0 0 0 0 0 0 0 0 0 0 0 0 0 0 0 0 0 0 0 0 0 0 0 0 0 0 0 0 0 0 0 0 0 0 0 0 0 0 0 0 0 0 0 0 0 0 0 0 0 0 0 0
0 0 0 0 0 0 0 0 0 0 0 0 0 0 0 25 37 50 25 37 50 25 37 50 25 37 50 25 37 50 25 37 50 25 37 50 25 37 50 25 37 50 25 37 50 25 37 50 25 37 50 25 37 50 25 37 50 25 37 50 25 37 50 25 37 50 25 37 50 25 37 50 25 37 50 25 37 50 25 37 50 25 37 50 25 37 50 25 37 50 0 0 0 0 0 0 0 0 0 0 0 0 0 0 0 25 37 50 25 37 50 25 37 50 25 37 50 25 37 50 25 37 50 25 37 50 25 37 50 25 37 50 25 37 50 25 37 50 25 37 50 25 37 50 25 37 50 25 37 50 25 37 50 25 37 50 25 37 50 25 37 50 25 37 50 0 0 0 0 0 0 0 0 0 0 0 0 0 0 0 0 0 0 0 0 0 0 0 0 0 0 0 0 0 0 25 37 50 25 37 50 25 37 50 25 37 50 25 37 50 25 37 50 25 37 50 25 37 50 25 37 50 25 37 50 25 37 50 25 37 50 25 37 50 25 37 50 25 37 50 25 37 50 0 0 0 0 0 0 0 0 0 0 0 0 0 0 0 0 0 0 0 0 0 0 0 0 0 0 0 0 0 0 0 0 0 0 0 0 0 0 0 0 0 0 25 37 50 25 37 50 25 37 50 25 37 50 25 37 50 25 37 50 25 37 50 25 37 50 25 37 50 25 37 50 25 37 50 25 37 50 0 0 0 0 0 0 0 0 0 0 0 0 0 0 0 0 0 0 0 0 0 0 0 0 0 0 0 0 0 0 0 0 0 0 0 0 0 0 0 0 0 0 0 0 0 0 0 0 0 0 0 0 0 0 0 0 0 0 0 0 0 0 0
0 0 0 0 0 0 0 0 0 0 0 0 0 0 0 0 0 0 0 0 0 0 0 0 0 0 0 0 0 0 0 0 0 0 0 0 0 0 0 0 0 0 0 0 0 0 0 0 0 0 0 0 0 0 0 0 0 0 0 0 0 0 0 0 0 0 0 0 0 0 0 0 0 0 0 0 0 0 0 0 0 0 0 0 0 0 0 0 0 0 0 0 0 0 0 0 0 0 0 0 0 0 0 0 0 0 0 0 0 0 0 0 0 0 0 0 0 0 0 0 0 0 0 0 0 0 0 0 0 0 0 0 0 0 0 0 0 0 0 0 0 0 0 0 0 0 0 0 0 0 0 0 0 0 0 0 0 0 0 0 0 0 0 0 0 0 0 0 0 0 0 0 0 0 0 0 0 0 0 0 0 0 0 0 0 0 0 0 0 0 0 0 0 0 0 0 0 0 0 0 0 0 0 0 0 0 0 0 0 0 0 0 0 0 0 0 0 0 0 0 0 0 0 0 0 0 0 0 0 0 0 0 0 0 0 0 0 0 0 0 0 0 0 0 0 0 0 0 0 0 0 0 0 0 0 0 0 0 0 0 0 0 0 0 0 0 0 0 0 0 0 0 0 0 0 0 0 0 0 0 0 0 0 0 0 0 0 0 0 0 0 0 0 0 0 0 0 0 0 0 0 0 0 0 0 0 0 0 0 0 0 0 0 0 0 0 0 0 0 0 0 0 0 0 0 0 0 0 0 0 0 0 0 0 0 0 0 0 0 0 0 0 0 0 0 0 0 0 0 0 0 0 0 0 0 0 0 0 0 0 0 0 0 0 0 0 0 0 0 0 0 0 0 0 0 0 0 0 0 0 0 0 0 0
