P3
128 85
255
0 0 0 0 0 0 0 0 0 0 0 0 0 0 0 0 0 0 0 0 0 0 0 0 0 0 0 0 0 0 0 0 0 0 0 0 0 0 0 0 0 0 0 0 0 0 0 0 0 0 0 0 0 0 0 0 0 0 0 0 0 0 0 0 0 0 0 0 0 0 0 0 0 0 0 0 0 0 0 0 0 0 0 0 0 0 0 0 0 0 0 0 0 0 0 0 0 0 0 0 0 0 0 0 0 0 0 0 0 0 0 0 0 0 0 0 0 0 0 0 0 0 0 0 0 0 0 0 0 0 0 0 0 0 0 0 0 0 0 0 0 0 0 0 0 0 0 0 0 0 0 0 0 0 0 0 0 0 0 0 0 0 0 0 0 0 0 0 0 0 0 0 0 0 0 0 0 0 0 0 0 0 0 0 0 0 0 0 0 0 0 0 0 0 0 0 0 0 0 0 0 0 0 0 0 0 0 0 0 0 0 0 0 0 0 0 0 0 0 0 0 0 0 0 0 0 0 0 0 0 0 0 0 0 0 0 0 0 0 0 0 0 0 0 0 0 0 0 0 0 0 0 0 0 0 0 0 0 0 0 0 0 0 0 0 0 0 0 0 0 0 0 0 0 0 0 0 0 0 0 0 0 0 0 0 0 0 0 0 0 0 0 0 0 0 0 0 0 0 0 0 0 0 0 0 0 0 0 0 0 0 0 0 0 0 0 0 0 0 0 0 0 0 0 0 0 0 0 0 0 0 0 0 0 0 0 0 0 0 0 0 0 0 0 0 0 0 0 0 0 0 0 0 0 0 0 0 0 0 0 0 0 0 0 0 0 0 0 0 0 0 0 0 0 0 0 0 0 0 0 0 0 0 0
0 0 0 0 0 0 0 0 0 0 0 0 0 0 0 0 0 0 0 0 0 0 0 0 0 0 0 0 0 0 0 0 0 0 0 0 0 0 0 0 0 0 0 0 0 0 0 0 0 0 0 0 0 0 0 0 0 0 0 0 0 0 0 0 0 0 0 0 0 0 0 0 0 0 0 0 0 0 0 0 0 75 42 24 0 0 0 0 0 0 0 0 0 0 0 0 0 0 0 0 0 0 0 0 0 0 0 0 0 0 0 0 0 0 0 0 0 0 0 0 0 0 0 0 0 0 0 0 0 0 0 0 0 0 0 0 0 0 0 0 0 0 0 0 0 0 0 0 0 0 0 0 0 0 0 0 0 0 0 0 0 0 0 0 0 0 0 0 0 0 0 0 0 0 0 0 0 0 0 0 0 0 0 0 0 0 0 0 0 0 0 0 0 0 0 0 0 0 0 0 0 0 0 0 0 0 0 0 0 0 0 0 0 0 0 0 0 0 0 0 0 0 0 0 0 0 0 0 0 0 0 0 0 0 0 0 0 0 0 0 0 0 0 0 0 0 0 0 0 0 0 0 0 0 0 170 180 186 0 0 0 0 0 0 0 0 0 0 0 0 0 0 0 0 0 0 0 0 0 0 0 0 0 0 0 0 0 0 0 0 0 0 0 0 0 0 0 0 0 0 0 0 0 0 0 0 0 0 0 0 0 0 0 0 0 0 0 0 0 0 0 0 0 0 0 0 0 0 0 0 0 0 0 0 0 0 0 0 0 0 0 0 0 0 0 0 0 0 0 0 0 0 0 0 0 0 0 0 0 0 0 0 0 0 0 0 0 0 0 0 0 0 0 0 0 0 0 0 0 0 0 0 0 0
0 0 0 0 0 0 0 0 0 0 0 0 0 0 0 0 0 0 0 0 0 0 0 0 0 0 0 0 0 0 0 0 0 0 0 0 0 0 0 0 0 0 0 0 0 0 0 0 0 0 0 0 0 0 0 0 0 0 0 0 0 0 0 0 0 0 0 0 0 75 42 24 75 42 24 75 42 24 75 42 24 75 42 24 75 42 24 75 42 24 75 42 24 75 42 24 0 0 0 0 0 0 0 0 0 0 0 0 0 0 0 0 0 0 0 0 0 0 0 0 0 0 0 0 0 0 0 0 0 0 0 0 0 0 0 0 0 0 0 0 0 0 0 0 0 0 0 0 0 0 0 0 0 0 0 0 0 0 0 0 0 0 0 0 0 0 0 0 0 0 0 0 0 0 0 0 0 0 0 0 0 0 0 0 0 0 0 0 0 0 0 0 0 0 0 0 0 0 0 0 0 0 0 0 0 0 0 0 0 0 0 0 0 0 0 0 0 0 0 0 0 0 0 0 0 0 0 0 0 0 0 0 0 0 0 0 0 0 0 0 0 0 0 170 180 186 170 180 186 170 180 186 170 180 186 170 180 186 170 180 186 170 180 186 170 180 186 170 180 186 0 0 0 0 0 0 0 0 0 0 0 0 0 0 0 0 0 0 0 0 0 0 0 0 0 0 0 0 0 0 0 0 0 0 0 0 0 0 0 0 0 0 0 0 0 0 0 0 0 0 0 0 0 0 0 0 0 0 0 0 0 0 0 0 0 0 0 0 0 0 0 0 0 0 0 0 0 0 0 0 0 0 0 0 0 0 0 0 0 0 0 0 0 0 0 0 0 0 0 0 0 0 0 0 0 0 0 0 0 0 0 0 0 0
0 0 0 0 0 0 0 0 0 0 0 0 0 0 0 0 0 0 0 0 0 0 0 0 0 0 0 0 0 0 0 0 0 0 0 0 0 0 0 151 176 194 0 0 0 0 0 0 0 0 0 0 0 0 0 0 0 0 0 0 0 0 0 75 42 24 75 42 24 75 42 24 75 42 24 75 42 24 75 42 24 75 42 24 75 42 24 75 42 24 75 42 24 75 42 24 75 42 24 75 42 24 0 0 0 0 0 0 0 0 0 0 0 0 0 0 0 0 0 0 151 176 194 0 0 0 0 0 0 0 0 0 0 0 0 0 0 0 0 0 0 0 0 0 0 0 0 0 0 0 0 0 0 0 0 0 0 0 0 0 0 0 0 0 0 0 0 0 0 0 0 0 0 0 0 0 0 0 0 0 0 0 0 0 0 0 0 0 0 0 0 0 0 0 0 0 0 0 0 0 0 151 176 194 0 0 0 0 0 0 0 0 0 0 0 0 0 0 0 0 0 0 0 0 0 0 0 0 0 0 0 0 0 0 0 0 0 170 180 186 170 180 186 170 180 186 170 180 186 170 180 186 170 180 186 170 180 186 170 180 186 170 180 186 170 180 186 170 180 186 170 180 186 170 180 186 0 0 0 0 0 0 151 176 194 0 0 0 0 0 0 0 0 0 0 0 0 0 0 0 0 0 0 0 0 0 0 0 0 0 0 0 0 0 0 0 0 0 0 0 0 0 0 0 0 0 0 0 0 0 0 0 0 0 0 0 0 0 0 0 0 0 0 0 0 0 0 0 0 0 0 0 0 0 0 0 0 0 0 0 0 0 0 0 0 0 0 0 0 0 0 0 0 0 0 0 0 0 0 0 0 0 0 0
0 0 0 0 0 0 0 0 0 0 0 0 0 0 0 0 0 0 0 0 0 0 0 0 0 0 0 0 0 0 151 176 194 151 176 194 151 176 194 151 176 194 151 176 194 151 176 194 151 176 194 0 0 0 0 0 0 0 0 0 0 0 0 75 42 24 75 42 24 75 42 24 75 42 24 75 42 24 75 42 24 75 42 24 75 42 24 75 42 24 75 42 24 75 42 24 75 42 24 75 42 24 0 0 0 0 0 0 0 0 0 151 176 194 151 176 194 151 176 194 151 176 194 151 176 194 151 176 194 151 176 194 0 0 0 0 0 0 0 0 0 0 0 0 0 0 0 0 0 0 0 0 0 0 0 0 0 0 0 0 0 0 0 0 0 0 0 0 0 0 0 0 0 0 0 0 0 0 0 0 0 0 0 0 0 0 0 0 0 0 0 0 151 176 194 151 176 194 151 176 194 151 176 194 151 176 194 151 176 194 151 176 194 0 0 0 0 0 0 0 0 0 0 0 0 0 0 0 0 0 0 0 0 0 0 0 0 170 180 186 170 180 186 170 180 186 170 180 186 170 180 186 170 180 186 170 180 186 170 180 186 170 180 186 170 180 186 170 180 186 170 180 186 151 176 194 151 176 194 151 176 194 151 176 194 151 176 194 151 176 194 151 176 194 0 0 0 0 0 0 0 0 0 0 0 0 0 0 0 0 0 0 0 0 0 0 0 0 0 0 0 0 0 0 0 0 0 0 0 0 0 0 0 0 0 0 0 0 0 0 0 0 0 0 0 0 0 0 0 0 0 0 0 0 0 0 0 0 0 0 0 0 0 0 0 0 0 0 0 0 0 0 0 0 0 0 0 0 0 0 0 0 0 0
0 0 0 0 0 0 0 0 0 0 0 0 0 0 0 0 0 0 0 0 0 0 0 0 0 0 0 151 176 194 151 176 194 151 176 194 151 176 194 151 176 194 151 176 194 151 176 194 151 176 194 151 176 194 0 0 0 0 0 0 75 42 24 75 42 24 75 42 24 75 42 24 75 42 24 75 42 24 75 42 24 75 42 24 75 42 24 75 42 24 75 42 24 75 42 24 75 42 24 75 42 24 75 42 24 0 0 0 151 176 194 151 176 194 151 176 194 151 176 194 151 176 194 151 176 194 151 176 194 151 176 194 151 176 194 0 0 0 0 0 0 0 0 0 0 0 0 0 0 0 0 0 0 0 0 0 0 0 0 0 0 0 0 0 0 0 0 0 0 0 0 0 0 0 0 0 0 0 0 0 0 0 0 0 0 0 0 0 0 151 176 194 151 176 194 151 176 194 151 176 194 151 176 194 151 176 194 151 176 194 151 176 194 151 176 194 0 0 0 0 0 0 0 0 0 0 0 0 0 0 0 0 0 0 170 180 186 170 180 186 170 180 186 170 180 186 170 180 186 170 180 186 170 180 186 170 180 186 170 180 186 170 180 186 170 180 186 170 180 186 151 176 194 151 176 194 151 176 194 151 176 194 151 176 194 151 176 194 151 176 194 151 176 194 151 176 194 0 0 0 0 0 0 0 0 0 0 0 0 0 0 0 0 0 0 0 0 0 0 0 0 0 0 0 0 0 0 0 0 0 0 0 0 0 0 0 0 0 0 0 0 0 0 0 0 0 0 0 0 0 0 0 0 0 0 0 0 0 0 0 0 0 0 0 0 0 0 0 0 0 0 0 0 0 0 0 0 0 0 0 0 0 0 0
0 0 0 0 0 0 0 0 0 0 0 0 0 0 0 0 0 0 0 0 0 0 0 0 151 176 194 151 176 194 151 176 194 151 176 194 151 176 194 151 176 194 151 176 194 151 176 194 151 176 194 151 176 194 151 176 194 0 0 0 0 0 0 75 42 24 75 42 24 75 42 24 75 42 24 75 42 24 75 42 24 75 42 24 75 42 24 75 42 24 75 42 24 75 42 24 75 42 24 75 42 24 0 0 0 151 176 194 151 176 194 151 176 194 151 176 194 151 176 194 151 176 194 151 176 194 151 176 194 151 176 194 151 176 194 151 176 194 0 0 0 0 0 0 0 0 0 0 0 0 0 0 0 0 0 0 0 0 0 0 0 0 0 0 0 0 0 0 0 0 0 0 0 0 0 0 0 0 0 0 0 0 0 0 0 0 151 176 194 151 176 194 151 176 194 151 176 194 151 176 194 151 176 194 151 176 194 151 176 194 151 176 194 151 176 194 151 176 194 0 0 0 0 0 0 0 0 0 0 0 0 0 0 0 0 0 0 170 180 186 170 180 186 170 180 186 170 180 186 170 180 186 170 180 186 170 180 186 170 180 186 170 180 186 170 180 186 151 176 194 151 176 194 151 176 194 151 176 194 151 176 194 151 176 194 151 176 194 151 176 194 151 176 194 151 176 194 151 176 194 0 0 0 0 0 0 0 0 0 0 0 0 0 0 0 0 0 0 0 0 0 0 0 0 0 0 0 0 0 0 0 0 0 0 0 0 0 0 0 0 0 0 0 0 0 0 0 0 0 0 0 0 0 0 0 0 0 0 0 0 0 0 0 0 0 0 0 0 0 0 0 0 0 0 0 0 0 0 0 0 0 0 0 0
0 0 0 0 0 0 0 0 0 0 0 0 0 0 0 0 0 0 0 0 0 151 176 194 151 176 194 151 176 194 151 176 194 151 176 194 151 176 194 151 176 194 151 176 194 151 176 194 151 176 194 151 176 194 151 176 194 151 176 194 0 0 0 75 42 24 75 42 24 75 42 24 75 42 24 75 42 24 75 42 24 75 42 24 75 42 24 75 42 24 75 42 24 75 42 24 75 42 24 75 42 24 151 176 194 151 176 194 151 176 194 151 176 194 151 176 194 151 176 194 151 176 194 151 176 194 151 176 194 151 176 194 151 176 194 151 176 194 151 176 194 0 0 0 0 0 0 0 0 0 0 0 0 0 0 0 0 0 0 0 0 0 0 0 0 0 0 0 0 0 0 0 0 0 0 0 0 0 0 0 0 0 0 151 176 194 151 176 194 151 176 194 151 176 194 151 176 194 151 176 194 151 176 194 151 176 194 151 176 194 151 176 194 151 176 194 151 176 194 151 176 194 0 0 0 0 0 0 0 0 0 0 0 0 0 0 0 170 180 186 170 180 186 170 180 186 170 180 186 170 180 186 170 180 186 170 180 186 170 180 186 170 180 186 151 176 194 151 176 194 151 176 194 151 176 194 151 176 194 151 176 194 151 176 194 151 176 194 151 176 194 151 176 194 151 176 194 151 176 194 151 176 194 0 0 0 0 0 0 0 0 0 0 0 0 0 0 0 0 0 0 0 0 0 0 0 0 0 0 0 0 0 0 0 0 0 0 0 0 0 0 0 0 0 0 0 0 0 0 0 0 0 0 0 0 0 0 0 0 0 0 0 0 0 0 0 0 0 0 0 0 0 0 0 0 0 0 0 0 0 0 0 0 0
0 0 0 0 0 0 0 0 0 0 0 0 0 0 0 0 0 0 0 0 0 151 176 194 151 176 194 151 176 194 151 176 194 151 176 194 151 176 194 151 176 194 151 176 194 151 176 194 151 176 194 151 176 194 151 176 194 151 176 194 0 0 0 0 0 0 232 164 116 75 42 24 75 42 24 75 42 24 75 42 24 75 42 24 75 42 24 75 42 24 75 42 24 75 42 24 232 164 116 0 0 0 151 176 194 151 176 194 151 176 194 151 176 194 151 176 194 151 176 194 151 176 194 151 176 194 151 176 194 151 176 194 151 176 194 151 176 194 151 176 194 0 0 0 0 0 0 0 0 0 0 0 0 0 0 0 0 0 0 0 0 0 0 0 0 0 0 0 0 0 0 0 0 0 0 0 0 0 0 0 0 0 0 151 176 194 151 176 194 151 176 194 151 176 194 151 176 194 151 176 194 151 176 194 151 176 194 151 176 194 151 176 194 151 176 194 151 176 194 151 176 194 0 0 0 0 0 0 0 0 0 0 0 0 0 0 0 0 0 0 232 164 116 170 180 186 170 180 186 170 180 186 170 180 186 170 180 186 170 180 186 170 180 186 151 176 194 151 176 194 151 176 194 151 176 194 151 176 194 151 176 194 151 176 194 151 176 194 151 176 194 151 176 194 151 176 194 151 176 194 151 176 194 0 0 0 0 0 0 0 0 0 0 0 0 0 0 0 0 0 0 0 0 0 0 0 0 0 0 0 0 0 0 0 0 0 0 0 0 0 0 0 0 0 0 0 0 0 0 0 0 0 0 0 0 0 0 0 0 0 0 0 0 0 0 0 0 0 0 0 0 0 0 0 0 0 0 0 0 0 0 0 0 0
0 0 0 0 0 0 0 0 0 0 0 0 0 0 0 0 0 0 0 0 0 25 37 50 25 37 50 25 37 50 25 37 50 25 37 50 25 37 50 25 37 50 25 37 50 25 37 50 25 37 50 25 37 50 25 37 50 151 176 194 0 0 0 232 164 116 232 164 116 232 164 116 232 164 116 232 164 116 232 164 116 75 42 24 232 164 116 232 164 116 232 164 116 232 164 116 232 164 116 232 164 116 25 37 50 25 37 50 25 37 50 25 37 50 25 37 50 25 37 50 25 37 50 25 37 50 25 37 50 25 37 50 25 37 50 25 37 50 151 176 194 0 0 0 0 0 0 0 0 0 0 0 0 0 0 0 0 0 0 0 0 0 0 0 0 0 0 0 0 0 0 0 0 0 0 0 0 0 0 0 0 0 0 25 37 50 25 37 50 25 37 50 25 37 50 25 37 50 25 37 50 25 37 50 25 37 50 25 37 50 25 37 50 25 37 50 25 37 50 151 176 194 0 0 0 0 0 0 0 0 0 0 0 0 0 0 0 232 164 116 232 164 116 232 164 116 232 164 116 232 164 116 232 164 116 170 180 186 232 164 116 232 164 116 25 37 50 25 37 50 25 37 50 25 37 50 25 37 50 25 37 50 25 37 50 25 37 50 25 37 50 25 37 50 25 37 50 25 37 50 151 176 194 0 0 0 0 0 0 0 0 0 0 0 0 0 0 0 0 0 0 0 0 0 0 0 0 0 0 0 0 0 0 0 0 0 0 0 0 0 0 0 0 0 0 0 0 0 0 0 0 0 0 0 0 0 0 0 0 0 0 0 0 0 0 0 0 0 0 0 0 0 0 0 0 0 0 0 0 0 0 0 0 0
0 0 0 0 0 0 0 0 0 0 0 0 0 0 0 0 0 0 151 176 194 25 37 50 25 37 50 0 174 235 0 174 235 0 174 235 0 174 235 0 174 235 0 174 235 0 174 235 0 174 235 0 174 235 25 37 50 151 176 194 151 176 194 0 0 0 232 164 116 232 164 116 232 164 116 232 164 116 232 164 116 232 164 116 232 164 116 232 164 116 232 164 116 232 164 116 232 164 116 151 176 194 25 37 50 25 37 50 0 174 235 0 174 235 0 174 235 0 174 235 0 174 235 0 174 235 0 174 235 0 174 235 0 174 235 25 37 50 151 176 194 151 176 194 0 0 0 0 0 0 0 0 0 0 0 0 0 0 0 0 0 0 0 0 0 0 0 0 0 0 0 0 0 0 0 0 0 0 0 0 151 176 194 25 37 50 25 37 50 0 174 235 0 174 235 0 174 235 0 174 235 0 174 235 0 174 235 0 174 235 0 174 235 0 174 235 25 37 50 151 176 194 151 176 194 0 0 0 0 0 0 0 0 0 0 0 0 0 0 0 232 164 116 232 164 116 232 164 116 232 164 116 232 164 116 232 164 116 232 164 116 151 176 194 25 37 50 25 37 50 0 174 235 0 174 235 0 174 235 0 174 235 0 174 235 0 174 235 0 174 235 0 174 235 0 174 235 25 37 50 151 176 194 151 176 194 0 0 0 0 0 0 0 0 0 0 0 0 0 0 0 0 0 0 0 0 0 0 0 0 0 0 0 0 0 0 0 0 0 0 0 0 0 0 0 0 0 0 0 0 0 0 0 0 0 0 0 0 0 0 0 0 0 0 0 0 0 0 0 0 0 0 0 0 0 0 0 0 0 0 0 0 0 0
0 0 0 0 0 0 0 0 0 0 0 0 0 0 0 0 0 0 0 0 0 25 37 50 25 37 50 0 174 235 0 174 235 0 174 235 0 174 235 0 174 235 0 174 235 0 174 235 0 174 235 0 174 235 25 37 50 151 176 194 0 0 0 0 0 0 232 164 116 232 164 116 232 164 116 232 164 116 232 164 116 232 164 116 232 164 116 232 164 116 232 164 116 232 164 116 232 164 116 0 0 0 25 37 50 25 37 50 0 174 235 0 174 235 0 174 235 0 174 235 0 174 235 0 174 235 0 174 235 0 174 235 0 174 235 25 37 50 151 176 194 0 0 0 0 0 0 0 0 0 0 0 0 0 0 0 0 0 0 0 0 0 0 0 0 0 0 0 0 0 0 0 0 0 0 0 0 0 0 0 0 0 0 25 37 50 25 37 50 0 174 235 0 174 235 0 174 235 0 174 235 0 174 235 0 174 235 0 174 235 0 174 235 0 174 235 25 37 50 151 176 194 0 0 0 0 0 0 0 0 0 0 0 0 0 0 0 0 0 0 232 164 116 232 164 116 232 164 116 232 164 116 232 164 116 232 164 116 232 164 116 232 164 116 25 37 50 25 37 50 0 174 235 0 174 235 0 174 235 0 174 235 0 174 235 0 174 235 0 174 235 0 174 235 0 174 235 25 37 50 151 176 194 0 0 0 0 0 0 0 0 0 0 0 0 0 0 0 0 0 0 0 0 0 0 0 0 0 0 0 0 0 0 0 0 0 0 0 0 0 0 0 0 0 0 0 0 0 0 0 0 0 0 0 0 0 0 0 0 0 0 0 0 0 0 0 0 0 0 0 0 0 0 0 0 0 0 0 0 0 0 0 0 0
0 0 0 0 0 0 0 0 0 0 0 0 0 0 0 0 0 0 0 0 0 25 37 50 25 37 50 25 37 50 25 37 50 25 37 50 25 37 50 25 37 50 25 37 50 25 37 50 25 37 50 25 37 50 25 37 50 151 176 194 0 0 0 0 0 0 232 164 116 232 164 116 232 164 116 232 164 116 232 164 116 232 164 116 232 164 116 232 164 116 232 164 116 232 164 116 232 164 116 0 0 0 25 37 50 25 37 50 25 37 50 25 37 50 25 37 50 25 37 50 25 37 50 25 37 50 25 37 50 25 37 50 25 37 50 25 37 50 151 176 194 0 0 0 0 0 0 0 0 0 0 0 0 0 0 0 0 0 0 0 0 0 0 0 0 0 0 0 0 0 0 0 0 0 0 0 0 0 0 0 0 0 0 25 37 50 25 37 50 25 37 50 25 37 50 25 37 50 25 37 50 25 37 50 25 37 50 25 37 50 25 37 50 25 37 50 25 37 50 151 176 194 0 0 0 0 0 0 0 0 0 0 0 0 0 0 0 0 0 0 232 164 116 232 164 116 232 164 116 232 164 116 232 164 116 232 164 116 232 164 116 232 164 116 25 37 50 25 37 50 25 37 50 25 37 50 25 37 50 25 37 50 25 37 50 25 37 50 25 37 50 25 37 50 25 37 50 25 37 50 151 176 194 0 0 0 0 0 0 0 0 0 0 0 0 0 0 0 0 0 0 0 0 0 0 0 0 0 0 0 0 0 0 0 0 0 0 0 0 0 0 0 0 0 0 0 0 0 0 0 0 0 0 0 0 0 0 0 0 0 0 0 0 0 0 0 0 0 0 0 0 0 0 0 0 0 0 0 0 0 0 0 0 0
0 0 0 0 0 0 0 0 0 0 0 0 0 0 0 0 0 0 0 0 0 151 176 194 151 176 194 151 176 194 151 176 194 151 176 194 151 176 194 151 176 194 151 176 194 151 176 194 151 176 194 151 176 194 151 176 194 151 176 194 0 0 0 0 0 0 0 0 0 232 164 116 232 164 116 232 164 116 232 164 116 232 164 116 232 164 116 232 164 116 232 164 116 232 164 116 0 0 0 0 0 0 151 176 194 151 176 194 151 176 194 151 176 194 151 176 194 151 176 194 151 176 194 151 176 194 151 176 194 151 176 194 151 176 194 151 176 194 151 176 194 0 0 0 0 0 0 0 0 0 0 0 0 0 0 0 0 0 0 0 0 0 0 0 0 0 0 0 0 0 0 0 0 0 0 0 0 0 0 0 0 0 0 151 176 194 151 176 194 151 176 194 151 176 194 151 176 194 151 176 194 151 176 194 151 176 194 151 176 194 151 176 194 151 176 194 151 176 194 151 176 194 0 0 0 0 0 0 0 0 0 0 0 0 0 0 0 0 0 0 0 0 0 232 164 116 232 164 116 232 164 116 232 164 116 232 164 116 232 164 116 232 164 116 151 176 194 151 176 194 151 176 194 151 176 194 151 176 194 151 176 194 151 176 194 151 176 194 151 176 194 151 176 194 151 176 194 151 176 194 151 176 194 0 0 0 0 0 0 0 0 0 0 0 0 0 0 0 0 0 0 0 0 0 0 0 0 0 0 0 0 0 0 0 0 0 0 0 0 0 0 0 0 0 0 0 0 0 0 0 0 0 0 0 0 0 0 0 0 0 0 0 0 0 0 0 0 0 0 0 0 0 0 0 0 0 0 0 0 0 0 0 0 0
0 0 0 0 0 0 0 0 0 0 0 0 0 0 0 0 0 0 0 0 0 0 0 0 151 176 194 151 176 194 151 176 194 151 176 194 151 176 194 151 176 194 151 176 194 151 176 194 151 176 194 151 176 194 151 176 194 0 0 0 0 0 0 0 0 0 0 0 0 232 164 116 232 164 116 232 164 116 232 164 116 232 164 116 232 164 116 232 164 116 232 164 116 232 164 116 0 0 0 0 0 0 0 0 0 151 176 194 151 176 194 151 176 194 151 176 194 151 176 194 151 176 194 151 176 194 151 176 194 151 176 194 151 176 194 151 176 194 0 0 0 0 0 0 0 0 0 0 0 0 0 0 0 0 0 0 0 0 0 0 0 0 0 0 0 0 0 0 0 0 0 0 0 0 0 0 0 0 0 0 0 0 0 0 0 0 151 176 194 151 176 194 151 176 194 151 176 194 151 176 194 151 176 194 151 176 194 151 176 194 151 176 194 151 176 194 151 176 194 0 0 0 0 0 0 0 0 0 0 0 0 0 0 0 0 0 0 0 0 0 0 0 0 232 164 116 232 164 116 232 164 116 232 164 116 232 164 116 232 164 116 232 164 116 232 164 116 151 176 194 151 176 194 151 176 194 151 176 194 151 176 194 151 176 194 151 176 194 151 176 194 151 176 194 151 176 194 151 176 194 0 0 0 0 0 0 0 0 0 0 0 0 0 0 0 0 0 0 0 0 0 0 0 0 0 0 0 0 0 0 0 0 0 0 0 0 0 0 0 0 0 0 0 0 0 0 0 0 0 0 0 0 0 0 0 0 0 0 0 0 0 0 0 0 0 0 0 0 0 0 0 0 0 0 0 0 0 0 0 0 0 0 0 0
0 0 0 0 0 0 0 0 0 0 0 0 0 0 0 0 0 0 0 0 0 0 0 0 0 0 0 151 176 194 151 176 194 151 176 194 151 176 194 151 176 194 151 176 194 151 176 194 151 176 194 151 176 194 0 0 0 0 0 0 0 0 0 0 0 0 0 0 0 0 0 0 232 164 116 232 164 116 232 164 116 232 164 116 232 164 116 232 164 116 232 164 116 0 0 0 0 0 0 0 0 0 0 0 0 0 0 0 151 176 194 151 176 194 151 176 194 151 176 194 151 176 194 151 176 194 151 176 194 151 176 194 151 176 194 0 0 0 0 0 0 0 0 0 0 0 0 0 0 0 0 0 0 0 0 0 0 0 0 0 0 0 0 0 0 0 0 0 0 0 0 0 0 0 0 0 0 0 0 0 0 0 0 0 0 0 0 0 0 151 176 194 151 176 194 151 176 194 151 176 194 151 176 194 151 176 194 151 176 194 151 176 194 151 176 194 0 0 0 0 0 0 0 0 0 0 0 0 0 0 0 0 0 0 0 0 0 0 0 0 0 0 0 0 0 0 232 164 116 232 164 116 232 164 116 232 164 116 232 164 116 232 164 116 232 164 116 0 0 0 151 176 194 151 176 194 151 176 194 151 176 194 151 176 194 151 176 194 151 176 194 151 176 194 151 176 194 0 0 0 0 0 0 0 0 0 0 0 0 0 0 0 0 0 0 0 0 0 0 0 0 0 0 0 0 0 0 0 0 0 0 0 0 0 0 0 0 0 0 0 0 0 0 0 0 0 0 0 0 0 0 0 0 0 0 0 0 0 0 0 0 0 0 0 0 0 0 0 0 0 0 0 0 0 0 0 0 0 0 0 0 0 0 0
0 0 0 0 0 0 0 0 0 0 0 0 0 0 0 0 0 0 0 0 0 0 0 0 0 0 0 0 0 0 151 176 194 151 176 194 151 176 194 151 176 194 151 176 194 151 176 194 151 176 194 0 0 0 0 0 0 25 37 50 25 37 50 25 37 50 25 37 50 25 37 50 25 37 50 25 37 50 25 37 50 25 37 50 25 37 50 25 37 50 25 37 50 25 37 50 25 37 50 25 37 50 25 37 50 0 0 0 0 0 0 151 176 194 151 176 194 151 176 194 151 176 194 151 176 194 151 176 194 151 176 194 0 0 0 0 0 0 0 0 0 0 0 0 0 0 0 0 0 0 0 0 0 0 0 0 0 0 0 0 0 0 0 0 0 0 0 0 0 0 0 0 0 0 0 0 0 0 0 0 0 0 0 0 0 0 0 0 0 0 0 0 151 176 194 151 176 194 151 176 194 151 176 194 151 176 194 151 176 194 151 176 194 0 0 0 0 0 0 0 0 0 0 0 0 0 0 0 0 0 0 25 37 50 25 37 50 25 37 50 25 37 50 25 37 50 25 37 50 25 37 50 25 37 50 25 37 50 25 37 50 25 37 50 25 37 50 25 37 50 25 37 50 151 176 194 151 176 194 151 176 194 151 176 194 151 176 194 151 176 194 151 176 194 0 0 0 0 0 0 0 0 0 0 0 0 0 0 0 0 0 0 0 0 0 0 0 0 0 0 0 0 0 0 0 0 0 0 0 0 0 0 0 0 0 0 0 0 0 0 0 0 0 0 0 0 0 0 0 0 0 0 0 0 0 0 0 0 0 0 0 0 0 0 0 0 0 0 0 0 0 0 0 0 0 0 0 0 0 0 0 0 0 0
0 0 0 0 0 0 0 0 0 0 0 0 0 0 0 0 0 0 0 0 0 0 0 0 0 0 0 0 0 0 0 0 0 0 0 0 0 0 0 151 176 194 0 0 0 0 0 0 0 0 0 0 0 0 25 37 50 25 37 50 25 37 50 25 37 50 60 78 94 60 78 94 60 78 94 60 78 94 60 78 94 60 78 94 60 78 94 60 78 94 60 78 94 60 78 94 25 37 50 25 37 50 25 37 50 25 37 50 0 0 0 0 0 0 0 0 0 0 0 0 151 176 194 0 0 0 0 0 0 0 0 0 0 0 0 0 0 0 0 0 0 0 0 0 0 0 0 0 0 0 0 0 0 0 0 0 0 0 0 0 0 0 0 0 0 0 0 0 0 0 0 0 0 0 0 0 0 0 0 0 0 0 0 0 0 0 0 0 0 0 0 0 0 0 0 0 0 0 0 0 0 151 176 194 0 0 0 0 0 0 0 0 0 0 0 0 0 0 0 0 0 0 0 0 0 0 0 0 25 37 50 25 37 50 25 37 50 25 37 50 60 78 94 60 78 94 60 78 94 60 78 94 60 78 94 60 78 94 60 78 94 60 78 94 60 78 94 60 78 94 25 37 50 25 37 50 25 37 50 25 37 50 151 176 194 0 0 0 0 0 0 0 0 0 0 0 0 0 0 0 0 0 0 0 0 0 0 0 0 0 0 0 0 0 0 0 0 0 0 0 0 0 0 0 0 0 0 0 0 0 0 0 0 0 0 0 0 0 0 0 0 0 0 0 0 0 0 0 0 0 0 0 0 0 0 0 0 0 0 0 0 0 0 0 0 0 0 0 0 0 0 0 0 0 0 0 0 0 0 0 0 0 0 0
0 0 0 0 0 0 0 0 0 0 0 0 0 0 0 0 0 0 0 0 0 0 0 0 0 0 0 0 0 0 0 0 0 0 0 0 0 0 0 0 0 0 0 0 0 0 0 0 0 0 0 0 0 0 25 37 50 25 37 50 25 37 50 25 37 50 60 78 94 60 78 94 0 174 235 0 174 235 0 174 235 0 174 235 0 174 235 0 174 235 60 78 94 60 78 94 25 37 50 25 37 50 25 37 50 25 37 50 0 0 0 0 0 0 0 0 0 0 0 0 0 0 0 0 0 0 0 0 0 0 0 0 0 0 0 0 0 0 0 0 0 0 0 0 0 0 0 0 0 0 0 0 0 0 0 0 0 0 0 0 0 0 0 0 0 0 0 0 0 0 0 0 0 0 0 0 0 0 0 0 0 0 0 0 0 0 0 0 0 0 0 0 0 0 0 0 0 0 0 0 0 0 0 0 0 0 0 0 0 0 0 0 0 0 0 0 0 0 0 0 0 0 0 0 0 0 0 0 25 37 50 25 37 50 25 37 50 25 37 50 60 78 94 60 78 94 0 174 235 0 174 235 0 174 235 0 174 235 0 174 235 0 174 235 60 78 94 60 78 94 25 37 50 25 37 50 25 37 50 25 37 50 0 0 0 0 0 0 0 0 0 0 0 0 0 0 0 0 0 0 0 0 0 0 0 0 0 0 0 0 0 0 0 0 0 0 0 0 0 0 0 0 0 0 0 0 0 0 0 0 0 0 0 0 0 0 0 0 0 0 0 0 0 0 0 0 0 0 0 0 0 0 0 0 0 0 0 0 0 0 0 0 0 0 0 0 0 0 0 0 0 0 0 0 0 0 0 0 0 0 0 0 0 0
0 0 0 0 0 0 0 0 0 0 0 0 0 0 0 0 0 0 0 0 0 0 0 0 0 0 0 0 0 0 0 0 0 0 0 0 0 0 0 0 0 0 0 0 0 0 0 0 0 0 0 25 37 50 25 37 50 25 37 50 25 37 50 25 37 50 60 78 94 60 78 94 0 174 235 0 174 235 0 174 235 0 174 235 0 174 235 0 174 235 60 78 94 60 78 94 25 37 50 25 37 50 25 37 50 25 37 50 25 37 50 0 0 0 0 0 0 0 0 0 0 0 0 0 0 0 0 0 0 0 0 0 0 0 0 0 0 0 0 0 0 0 0 0 0 0 0 0 0 0 0 0 0 0 0 0 0 0 0 0 0 0 0 0 0 0 0 0 0 0 0 0 0 0 0 0 0 0 0 0 0 0 0 0 0 0 0 0 0 0 0 0 0 0 0 0 0 0 0 0 0 0 0 0 0 0 0 0 0 0 0 0 0 0 0 0 0 0 0 0 0 0 0 0 0 25 37 50 25 37 50 25 37 50 25 37 50 25 37 50 60 78 94 60 78 94 0 174 235 0 174 235 0 174 235 0 174 235 0 174 235 0 174 235 60 78 94 60 78 94 25 37 50 25 37 50 25 37 50 25 37 50 25 37 50 0 0 0 0 0 0 0 0 0 0 0 0 0 0 0 0 0 0 0 0 0 0 0 0 0 0 0 0 0 0 0 0 0 0 0 0 0 0 0 0 0 0 0 0 0 0 0 0 0 0 0 0 0 0 0 0 0 0 0 0 0 0 0 0 0 0 0 0 0 0 0 0 0 0 0 0 0 0 0 0 0 0 0 0 0 0 0 0 0 0 0 0 0 0 0 0 0 0 0
0 0 0 0 0 0 0 0 0 0 0 0 0 0 0 0 0 0 0 0 0 0 0 0 0 0 0 0 0 0 0 0 0 0 0 0 0 0 0 0 0 0 0 0 0 0 0 0 0 0 0 25 37 50 25 37 50 25 37 50 25 37 50 25 37 50 60 78 94 60 78 94 60 78 94 60 78 94 60 78 94 60 78 94 60 78 94 60 78 94 60 78 94 60 78 94 25 37 50 25 37 50 25 37 50 25 37 50 25 37 50 0 0 0 0 0 0 0 0 0 0 0 0 0 0 0 0 0 0 0 0 0 0 0 0 0 0 0 0 0 0 0 0 0 0 0 0 0 0 0 0 0 0 0 0 0 0 0 0 0 0 0 0 0 0 0 0 0 0 0 0 0 0 0 0 0 0 0 0 0 0 0 0 0 0 0 0 0 0 0 0 0 0 0 0 0 0 0 0 0 0 0 0 0 0 0 0 0 0 0 0 0 0 0 0 0 0 0 0 0 0 0 0 0 0 25 37 50 25 37 50 25 37 50 25 37 50 25 37 50 60 78 94 60 78 94 60 78 94 60 78 94 60 78 94 60 78 94 60 78 94 60 78 94 60 78 94 60 78 94 25 37 50 25 37 50 25 37 50 25 37 50 25 37 50 0 0 0 0 0 0 0 0 0 0 0 0 0 0 0 0 0 0 0 0 0 0 0 0 0 0 0 0 0 0 0 0 0 0 0 0 0 0 0 0 0 0 0 0 0 0 0 0 0 0 0 0 0 0 0 0 0 0 0 0 0 0 0 0 0 0 0 0 0 0 0 0 0 0 0 0 0 0 0 0 0 0 0 0 0 0 0 0 0 0 0 0 0 0 0 0 0 0 0
0 0 0 0 0 0 0 0 0 0 0 0 0 0 0 0 0 0 0 0 0 0 0 0 0 0 0 0 0 0 0 0 0 0 0 0 0 0 0 0 0 0 0 0 0 0 0 0 0 0 0 25 37 50 25 37 50 25 37 50 25 37 50 25 37 50 60 78 94 60 78 94 60 78 94 60 78 94 60 78 94 60 78 94 60 78 94 60 78 94 60 78 94 60 78 94 25 37 50 25 37 50 25 37 50 25 37 50 25 37 50 0 0 0 0 0 0 0 0 0 0 0 0 0 0 0 0 0 0 0 0 0 0 0 0 0 0 0 0 0 0 0 0 0 0 0 0 0 0 0 0 0 0 0 0 0 0 0 0 0 0 0 0 0 0 0 0 0 0 0 0 0 0 0 0 0 0 0 0 0 0 0 0 0 0 0 0 0 0 0 0 0 0 0 0 0 0 0 0 0 0 0 0 0 0 0 0 0 0 0 0 0 0 0 0 0 0 0 0 0 0 0 0 0 0 25 37 50 25 37 50 25 37 50 25 37 50 25 37 50 60 78 94 60 78 94 60 78 94 60 78 94 60 78 94 60 78 94 60 78 94 60 78 94 60 78 94 60 78 94 25 37 50 25 37 50 25 37 50 25 37 50 25 37 50 0 0 0 0 0 0 0 0 0 0 0 0 0 0 0 0 0 0 0 0 0 0 0 0 0 0 0 0 0 0 0 0 0 0 0 0 0 0 0 0 0 0 0 0 0 0 0 0 0 0 0 0 0 0 0 0 0 0 0 0 0 0 0 0 0 0 0 0 0 0 0 0 0 0 0 0 0 0 0 0 0 0 0 0 0 0 0 0 0 0 0 0 0 0 0 0 0 0 0
0 0 0 0 0 0 0 0 0 0 0 0 0 0 0 25 37 50 25 37 50 25 37 50 25 37 50 25 37 50 25 37 50 25 37 50 25 37 50 25 37 50 25 37 50 25 37 50 25 37 50 25 37 50 25 37 50 25 37 50 25 37 50 25 37 50 25 37 50 25 37 50 25 37 50 25 37 50 25 37 50 25 37 50 25 37 50 25 37 50 25 37 50 25 37 50 25 37 50 25 37 50 25 37 50 25 37 50 25 37 50 25 37 50 25 37 50 25 37 50 25 37 50 25 37 50 25 37 50 25 37 50 25 37 50 25 37 50 25 37 50 25 37 50 25 37 50 25 37 50 25 37 50 0 0 0 0 0 0 0 0 0 0 0 0 0 0 0 0 0 0 0 0 0 0 0 0 0 0 0 0 0 0 0 0 0 0 0 0 25 37 50 25 37 50 25 37 50 25 37 50 25 37 50 25 37 50 25 37 50 25 37 50 25 37 50 25 37 50 25 37 50 25 37 50 25 37 50 25 37 50 25 37 50 25 37 50 25 37 50 25 37 50 25 37 50 25 37 50 25 37 50 25 37 50 25 37 50 25 37 50 25 37 50 25 37 50 25 37 50 25 37 50 25 37 50 25 37 50 25 37 50 25 37 50 25 37 50 25 37 50 25 37 50 25 37 50 25 37 50 25 37 50 25 37 50 25 37 50 25 37 50 25 37 50 25 37 50 25 37 50 25 37 50 25 37 50 0 0 0 0 0 0 0 0 0 0 0 0 0 0 0 0 0 0 0 0 0 0 0 0 0 0 0 0 0 0 0 0 0 0 0 0 0 0 0 0 0 0 0 0 0 0 0 0 0 0 0 0 0 0 0 0 0
0 0 0 0 0 0 0 0 0 0 0 0 0 0 0 25 37 50 25 37 50 25 37 50 25 37 50 25 37 50 25 37 50 25 37 50 25 37 50 25 37 50 25 37 50 25 37 50 25 37 50 25 37 50 25 37 50 25 37 50 25 37 50 25 37 50 25 37 50 25 37 50 25 37 50 25 37 50 25 37 50 25 37 50 25 37 50 25 37 50 25 37 50 25 37 50 25 37 50 25 37 50 25 37 50 25 37 50 25 37 50 25 37 50 25 37 50 25 37 50 25 37 50 25 37 50 25 37 50 25 37 50 25 37 50 25 37 50 25 37 50 25 37 50 25 37 50 25 37 50 25 37 50 0 0 0 0 0 0 0 0 0 0 0 0 0 0 0 0 0 0 0 0 0 0 0 0 0 0 0 0 0 0 0 0 0 0 0 0 25 37 50 25 37 50 25 37 50 25 37 50 25 37 50 25 37 50 25 37 50 25 37 50 25 37 50 25 37 50 25 37 50 25 37 50 25 37 50 25 37 50 25 37 50 25 37 50 25 37 50 25 37 50 25 37 50 25 37 50 25 37 50 25 37 50 25 37 50 25 37 50 25 37 50 25 37 50 25 37 50 25 37 50 25 37 50 25 37 50 25 37 50 25 37 50 25 37 50 25 37 50 25 37 50 25 37 50 25 37 50 25 37 50 25 37 50 25 37 50 25 37 50 25 37 50 25 37 50 25 37 50 25 37 50 25 37 50 0 0 0 0 0 0 0 0 0 0 0 0 0 0 0 0 0 0 0 0 0 0 0 0 0 0 0 0 0 0 0 0 0 0 0 0 0 0 0 0 0 0 0 0 0 0 0 0 0 0 0 0 0 0 0 0 0
0 0 0 0 0 0 0 0 0 0 0 0 0 0 0 25 37 50 25 37 50 25 37 50 25 37 50 60 78 94 60 78 94 0 174 235 0 174 235 0 174 235 0 174 235 0 174 235 60 78 94 60 78 94 25 37 50 25 37 50 25 37 50 25 37 50 25 37 50 25 37 50 25 37 50 25 37 50 25 37 50 25 37 50 25 37 50 25 37 50 25 37 50 25 37 50 25 37 50 25 37 50 25 37 50 25 37 50 25 37 50 25 37 50 60 78 94 60 78 94 0 174 235 0 174 235 0 174 235 0 174 235 0 174 235 60 78 94 60 78 94 25 37 50 25 37 50 25 37 50 25 37 50 0 0 0 0 0 0 0 0 0 0 0 0 0 0 0 0 0 0 0 0 0 0 0 0 0 0 0 0 0 0 0 0 0 0 0 0 25 37 50 25 37 50 25 37 50 25 37 50 60 78 94 60 78 94 0 174 235 0 174 235 0 174 235 0 174 235 0 174 235 60 78 94 60 78 94 25 37 50 25 37 50 25 37 50 25 37 50 25 37 50 25 37 50 25 37 50 25 37 50 25 37 50 25 37 50 25 37 50 25 37 50 25 37 50 25 37 50 25 37 50 25 37 50 25 37 50 25 37 50 25 37 50 25 37 50 60 78 94 60 78 94 0 174 235 0 174 235 0 174 235 0 174 235 0 174 235 60 78 94 60 78 94 25 37 50 25 37 50 25 37 50 25 37 50 0 0 0 0 0 0 0 0 0 0 0 0 0 0 0 0 0 0 0 0 0 0 0 0 0 0 0 0 0 0 0 0 0 0 0 0 0 0 0 0 0 0 0 0 0 0 0 0 0 0 0 0 0 0 0 0 0
0 0 0 0 0 0 0 0 0 0 0 0 0 0 0 25 37 50 25 37 50 25 37 50 25 37 50 60 78 94 60 78 94 0 174 235 0 174 235 0 174 235 0 174 235 0 174 235 60 78 94 60 78 94 25 37 50 25 37 50 25 37 50 25 37 50 25 37 50 25 37 50 25 37 50 25 37 50 25 37 50 25 37 50 25 37 50 25 37 50 25 37 50 25 37 50 25 37 50 25 37 50 25 37 50 25 37 50 25 37 50 25 37 50 60 78 94 60 78 94 0 174 235 0 174 235 0 174 235 0 174 235 0 174 235 60 78 94 60 78 94 25 37 50 25 37 50 25 37 50 25 37 50 0 0 0 0 0 0 0 0 0 0 0 0 0 0 0 0 0 0 0 0 0 0 0 0 0 0 0 0 0 0 0 0 0 0 0 0 25 37 50 25 37 50 25 37 50 25 37 50 60 78 94 60 78 94 0 174 235 0 174 235 0 174 235 0 174 235 0 174 235 60 78 94 60 78 94 25 37 50 25 37 50 25 37 50 25 37 50 25 37 50 25 37 50 25 37 50 25 37 50 25 37 50 25 37 50 25 37 50 25 37 50 25 37 50 25 37 50 25 37 50 25 37 50 25 37 50 25 37 50 25 37 50 25 37 50 60 78 94 60 78 94 0 174 235 0 174 235 0 174 235 0 174 235 0 174 235 60 78 94 60 78 94 25 37 50 25 37 50 25 37 50 25 37 50 0 0 0 0 0 0 0 0 0 0 0 0 0 0 0 0 0 0 0 0 0 0 0 0 0 0 0 0 0 0 0 0 0 0 0 0 0 0 0 0 0 0 0 0 0 0 0 0 0 0 0 0 0 0 0 0 0
0 0 0 0 0 0 0 0 0 0 0 0 0 0 0 25 37 50 25 37 50 25 37 50 25 37 50 60 78 94 60 78 94 60 78 94 60 78 94 60 78 94 60 78 94 60 78 94 60 78 94 60 78 94 25 37 50 25 37 50 25 37 50 25 37 50 25 37 50 25 37 50 25 37 50 25 37 50 25 37 50 25 37 50 25 37 50 25 37 50 25 37 50 25 37 50 25 37 50 25 37 50 25 37 50 25 37 50 25 37 50 25 37 50 60 78 94 60 78 94 60 78 94 60 78 94 60 78 94 60 78 94 60 78 94 60 78 94 60 78 94 25 37 50 25 37 50 25 37 50 25 37 50 0 0 0 0 0 0 0 0 0 0 0 0 0 0 0 0 0 0 0 0 0 0 0 0 0 0 0 0 0 0 0 0 0 0 0 0 25 37 50 25 37 50 25 37 50 25 37 50 60 78 94 60 78 94 60 78 94 60 78 94 60 78 94 60 78 94 60 78 94 60 78 94 60 78 94 25 37 50 25 37 50 25 37 50 25 37 50 25 37 50 25 37 50 25 37 50 25 37 50 25 37 50 25 37 50 25 37 50 25 37 50 25 37 50 25 37 50 25 37 50 25 37 50 25 37 50 25 37 50 25 37 50 25 37 50 60 78 94 60 78 94 60 78 94 60 78 94 60 78 94 60 78 94 60 78 94 60 78 94 60 78 94 25 37 50 25 37 50 25 37 50 25 37 50 0 0 0 0 0 0 0 0 0 0 0 0 0 0 0 0 0 0 0 0 0 0 0 0 0 0 0 0 0 0 0 0 0 0 0 0 0 0 0 0 0 0 0 0 0 0 0 0 0 0 0 0 0 0 0 0 0
0 0 0 0 0 0 0 0 0 0 0 0 0 0 0 25 37 50 25 37 50 25 37 50 25 37 50 60 78 94 60 78 94 60 78 94 60 78 94 60 78 94 60 78 94 60 78 94 60 78 94 60 78 94 25 37 50 25 37 50 25 37 50 25 37 50 25 37 50 25 37 50 25 37 50 25 37 50 25 37 50 25 37 50 25 37 50 25 37 50 25 37 50 25 37 50 25 37 50 25 37 50 25 37 50 25 37 50 25 37 50 25 37 50 60 78 94 60 78 94 60 78 94 60 78 94 60 78 94 60 78 94 60 78 94 60 78 94 60 78 94 25 37 50 25 37 50 25 37 50 25 37 50 0 0 0 0 0 0 0 0 0 0 0 0 0 0 0 0 0 0 0 0 0 0 0 0 0 0 0 0 0 0 0 0 0 0 0 0 25 37 50 25 37 50 25 37 50 25 37 50 60 78 94 60 78 94 60 78 94 60 78 94 60 78 94 60 78 94 60 78 94 60 78 94 60 78 94 25 37 50 25 37 50 25 37 50 25 37 50 25 37 50 25 37 50 25 37 50 25 37 50 25 37 50 25 37 50 25 37 50 25 37 50 25 37 50 25 37 50 25 37 50 25 37 50 25 37 50 25 37 50 25 37 50 25 37 50 60 78 94 60 78 94 60 78 94 60 78 94 60 78 94 60 78 94 60 78 94 60 78 94 60 78 94 25 37 50 25 37 50 25 37 50 25 37 50 0 0 0 0 0 0 0 0 0 0 0 0 0 0 0 0 0 0 0 0 0 0 0 0 0 0 0 0 0 0 0 0 0 0 0 0 0 0 0 0 0 0 0 0 0 0 0 0 0 0 0 0 0 0 0 0 0
0 0 0 0 0 0 0 0 0 0 0 0 0 0 0 25 37 50 25 37 50 25 37 50 25 37 50 25 37 50 25 37 50 25 37 50 25 37 50 25 37 50 25 37 50 25 37 50 25 37 50 25 37 50 25 37 50 25 37 50 25 37 50 25 37 50 25 37 50 25 37 50 25 37 50 25 37 50 25 37 50 25 37 50 25 37 50 25 37 50 25 37 50 25 37 50 25 37 50 25 37 50 25 37 50 25 37 50 25 37 50 25 37 50 25 37 50 25 37 50 25 37 50 25 37 50 25 37 50 25 37 50 25 37 50 25 37 50 25 37 50 25 37 50 25 37 50 25 37 50 25 37 50 0 0 0 0 0 0 0 0 0 0 0 0 0 0 0 0 0 0 0 0 0 0 0 0 0 0 0 0 0 0 0 0 0 0 0 0 25 37 50 25 37 50 25 37 50 25 37 50 25 37 50 25 37 50 25 37 50 25 37 50 25 37 50 25 37 50 25 37 50 25 37 50 25 37 50 25 37 50 25 37 50 25 37 50 25 37 50 25 37 50 25 37 50 25 37 50 25 37 50 25 37 50 25 37 50 25 37 50 25 37 50 25 37 50 25 37 50 25 37 50 25 37 50 25 37 50 25 37 50 25 37 50 25 37 50 25 37 50 25 37 50 25 37 50 25 37 50 25 37 50 25 37 50 25 37 50 25 37 50 25 37 50 25 37 50 25 37 50 25 37 50 25 37 50 0 0 0 0 0 0 0 0 0 0 0 0 0 0 0 0 0 0 0 0 0 0 0 0 0 0 0 0 0 0 0 0 0 0 0 0 0 0 0 0 0 0 0 0 0 0 0 0 0 0 0 0 0 0 0 0 0
0 0 0 0 0 0 0 0 0 0 0 0 0 0 0 25 37 50 25 37 50 25 37 50 25 37 50 25 37 50 25 37 50 25 37 50 25 37 50 25 37 50 25 37 50 25 37 50 25 37 50 25 37 50 25 37 50 25 37 50 25 37 50 25 37 50 25 37 50 25 37 50 25 37 50 25 37 50 25 37 50 25 37 50 25 37 50 25 37 50 25 37 50 25 37 50 25 37 50 25 37 50 25 37 50 25 37 50 25 37 50 25 37 50 25 37 50 25 37 50 25 37 50 25 37 50 25 37 50 25 37 50 25 37 50 25 37 50 25 37 50 25 37 50 25 37 50 25 37 50 25 37 50 0 0 0 0 0 0 0 0 0 0 0 0 0 0 0 0 0 0 0 0 0 0 0 0 0 0 0 0 0 0 0 0 0 0 0 0 25 37 50 25 37 50 25 37 50 25 37 50 25 37 50 25 37 50 25 37 50 25 37 50 25 37 50 25 37 50 25 37 50 25 37 50 25 37 50 25 37 50 25 37 50 25 37 50 25 37 50 25 37 50 25 37 50 25 37 50 25 37 50 25 37 50 25 37 50 25 37 50 25 37 50 25 37 50 25 37 50 25 37 50 25 37 50 25 37 50 25 37 50 25 37 50 25 37 50 25 37 50 25 37 50 25 37 50 25 37 50 25 37 50 25 37 50 25 37 50 25 37 50 25 37 50 25 37 50 25 37 50 25 37 50 25 37 50 0 0 0 0 0 0 0 0 0 0 0 0 0 0 0 0 0 0 0 0 0 0 0 0 0 0 0 0 0 0 0 0 0 0 0 0 0 0 0 0 0 0 0 0 0 0 0 0 0 0 0 0 0 0 0 0 0
0 0 0 0 0 0 0 0 0 0 0 0 0 0 0 25 37 50 25 37 50 25 37 50 25 37 50 25 37 50 25 37 50 25 37 50 25 37 50 25 37 50 25 37 50 25 37 50 25 37 50 25 37 50 25 37 50 25 37 50 25 37 50 25 37 50 25 37 50 25 37 50 25 37 50 25 37 50 25 37 50 25 37 50 25 37 50 25 37 50 25 37 50 25 37 50 25 37 50 25 37 50 25 37 50 25 37 50 25 37 50 25 37 50 25 37 50 25 37 50 25 37 50 25 37 50 25 37 50 25 37 50 25 37 50 25 37 50 25 37 50 25 37 50 25 37 50 25 37 50 25 37 50 0 0 0 0 0 0 0 0 0 0 0 0 0 0 0 0 0 0 0 0 0 0 0 0 0 0 0 0 0 0 0 0 0 0 0 0 25 37 50 25 37 50 25 37 50 25 37 50 25 37 50 25 37 50 25 37 50 25 37 50 25 37 50 25 37 50 25 37 50 25 37 50 25 37 50 25 37 50 25 37 50 25 37 50 25 37 50 25 37 50 25 37 50 25 37 50 25 37 50 25 37 50 25 37 50 25 37 50 25 37 50 25 37 50 25 37 50 25 37 50 25 37 50 25 37 50 25 37 50 25 37 50 25 37 50 25 37 50 25 37 50 25 37 50 25 37 50 25 37 50 25 37 50 25 37 50 25 37 50 25 37 50 25 37 50 25 37 50 25 37 50 25 37 50 0 0 0 0 0 0 0 0 0 0 0 0 0 0 0 0 0 0 0 0 0 0 0 0 0 0 0 0 0 0 0 0 0 0 0 0 0 0 0 0 0 0 0 0 0 0 0 0 0 0 0 0 0 0 0 0 0
0 0 0 0 0 0 0 0 0 0 0 0 0 0 0 25 37 50 25 37 50 25 37 50 25 37 50 25 37 50 25 37 50 25 37 50 25 37 50 25 37 50 25 37 50 25 37 50 25 37 50 25 37 50 25 37 50 25 37 50 25 37 50 25 37 50 25 37 50 25 37 50 25 37 50 25 37 50 0 0 0 0 0 0 0 0 0 25 37 50 25 37 50 25 37 50 25 37 50 25 37 50 25 37 50 25 37 50 25 37 50 25 37 50 25 37 50 25 37 50 25 37 50 25 37 50 25 37 50 25 37 50 25 37 50 25 37 50 25 37 50 25 37 50 25 37 50 25 37 50 25 37 50 0 0 0 0 0 0 0 0 0 0 0 0 0 0 0 0 0 0 0 0 0 0 0 0 0 0 0 0 0 0 0 0 0 0 0 0 25 37 50 25 37 50 25 37 50 25 37 50 25 37 50 25 37 50 25 37 50 25 37 50 25 37 50 25 37 50 25 37 50 25 37 50 25 37 50 25 37 50 25 37 50 25 37 50 25 37 50 25 37 50 25 37 50 25 37 50 25 37 50 0 0 0 0 0 0 0 0 0 25 37 50 25 37 50 25 37 50 25 37 50 25 37 50 25 37 50 25 37 50 25 37 50 25 37 50 25 37 50 25 37 50 25 37 50 25 37 50 25 37 50 25 37 50 25 37 50 25 37 50 25 37 50 25 37 50 25 37 50 25 37 50 25 37 50 0 0 0 0 0 0 0 0 0 0 0 0 0 0 0 0 0 0 0 0 0 0 0 0 0 0 0 0 0 0 0 0 0 0 0 0 0 0 0 0 0 0 0 0 0 0 0 0 0 0 0 0 0 0 0 0 0
0 0 0 0 0 0 0 0 0 0 0 0 0 0 0 25 37 50 25 37 50 25 37 50 25 37 50 25 37 50 25 37 50 25 37 50 25 37 50 25 37 50 25 37 50 25 37 50 25 37 50 25 37 50 25 37 50 25 37 50 25 37 50 25 37 50 25 37 50 25 37 50 25 37 50 25 37 50 0 0 0 0 0 0 0 0 0 25 37 50 25 37 50 25 37 50 25 37 50 25 37 50 25 37 50 25 37 50 25 37 50 25 37 50 25 37 50 25 37 50 25 37 50 25 37 50 25 37 50 25 37 50 25 37 50 25 37 50 25 37 50 25 37 50 25 37 50 25 37 50 25 37 50 0 0 0 0 0 0 0 0 0 0 0 0 0 0 0 0 0 0 0 0 0 0 0 0 0 0 0 0 0 0 0 0 0 0 0 0 25 37 50 25 37 50 25 37 50 25 37 50 25 37 50 25 37 50 25 37 50 25 37 50 25 37 50 25 37 50 25 37 50 25 37 50 25 37 50 25 37 50 25 37 50 25 37 50 25 37 50 25 37 50 25 37 50 25 37 50 25 37 50 0 0 0 0 0 0 0 0 0 25 37 50 25 37 50 25 37 50 25 37 50 25 37 50 25 37 50 25 37 50 25 37 50 25 37 50 25 37 50 25 37 50 25 37 50 25 37 50 25 37 50 25 37 50 25 37 50 25 37 50 25 37 50 25 37 50 25 37 50 25 37 50 25 37 50 0 0 0 0 0 0 0 0 0 0 0 0 0 0 0 0 0 0 0 0 0 0 0 0 0 0 0 0 0 0 0 0 0 0 0 0 0 0 0 0 0 0 0 0 0 0 0 0 0 0 0 0 0 0 0 0 0
0 0 0 0 0 0 0 0 0 0 0 0 0 0 0 25 37 50 25 37 50 25 37 50 25 37 50 25 37 50 25 37 50 25 37 50 25 37 50 25 37 50 25 37 50 25 37 50 25 37 50 25 37 50 25 37 50 25 37 50 25 37 50 25 37 50 25 37 50 25 37 50 25 37 50 25 37 50 0 0 0 0 0 0 0 0 0 25 37 50 25 37 50 25 37 50 25 37 50 25 37 50 25 37 50 25 37 50 25 37 50 25 37 50 25 37 50 25 37 50 25 37 50 25 37 50 25 37 50 25 37 50 25 37 50 25 37 50 25 37 50 25 37 50 25 37 50 25 37 50 25 37 50 0 0 0 0 0 0 0 0 0 0 0 0 0 0 0 0 0 0 0 0 0 0 0 0 0 0 0 0 0 0 0 0 0 0 0 0 25 37 50 25 37 50 25 37 50 25 37 50 25 37 50 25 37 50 25 37 50 25 37 50 25 37 50 25 37 50 25 37 50 25 37 50 25 37 50 25 37 50 25 37 50 25 37 50 25 37 50 25 37 50 25 37 50 25 37 50 25 37 50 0 0 0 0 0 0 0 0 0 25 37 50 25 37 50 25 37 50 25 37 50 25 37 50 25 37 50 25 37 50 25 37 50 25 37 50 25 37 50 25 37 50 25 37 50 25 37 50 25 37 50 25 37 50 25 37 50 25 37 50 25 37 50 25 37 50 25 37 50 25 37 50 25 37 50 0 0 0 0 0 0 0 0 0 0 0 0 0 0 0 0 0 0 0 0 0 0 0 0 0 0 0 0 0 0 0 0 0 0 0 0 0 0 0 0 0 0 0 0 0 0 0 0 0 0 0 0 0 0 0 0 0
0 0 0 0 0 0 0 0 0 0 0 0 0 0 0 25 37 50 25 37 50 25 37 50 25 37 50 25 37 50 25 37 50 25 37 50 25 37 50 25 37 50 25 37 50 25 37 50 25 37 50 25 37 50 25 37 50 25 37 50 25 37 50 25 37 50 25 37 50 25 37 50 25 37 50 25 37 50 0 0 0 0 0 0 0 0 0 25 37 50 25 37 50 25 37 50 25 37 50 25 37 50 25 37 50 25 37 50 25 37 50 25 37 50 25 37 50 25 37 50 25 37 50 25 37 50 25 37 50 25 37 50 25 37 50 25 37 50 25 37 50 25 37 50 25 37 50 25 37 50 25 37 50 0 0 0 0 0 0 0 0 0 0 0 0 0 0 0 0 0 0 0 0 0 0 0 0 0 0 0 0 0 0 0 0 0 0 0 0 25 37 50 25 37 50 25 37 50 25 37 50 25 37 50 25 37 50 25 37 50 25 37 50 25 37 50 25 37 50 25 37 50 25 37 50 25 37 50 25 37 50 25 37 50 25 37 50 25 37 50 25 37 50 25 37 50 25 37 50 25 37 50 0 0 0 0 0 0 0 0 0 25 37 50 25 37 50 25 37 50 25 37 50 25 37 50 25 37 50 25 37 50 25 37 50 25 37 50 25 37 50 25 37 50 25 37 50 25 37 50 25 37 50 25 37 50 25 37 50 25 37 50 25 37 50 25 37 50 25 37 50 25 37 50 25 37 50 0 0 0 0 0 0 0 0 0 0 0 0 0 0 0 0 0 0 0 0 0 0 0 0 0 0 0 0 0 0 0 0 0 0 0 0 0 0 0 0 0 0 0 0 0 0 0 0 0 0 0 0 0 0 0 0 0
0 0 0 0 0 0 0 0 0 0 0 0 0 0 0 0 0 0 0 0 0 0 0 0 0 0 0 0 0 0 0 0 0 0 0 0 0 0 0 0 0 0 0 0 0 0 0 0 0 0 0 0 0 0 0 0 0 0 0 0 0 0 0 25 37 50 25 37 50 25 37 50 25 37 50 25 37 50 0 0 0 0 0 0 0 0 0 25 37 50 25 37 50 25 37 50 25 37 50 25 37 50 0 0 0 0 0 0 0 0 0 0 0 0 0 0 0 0 0 0 0 0 0 0 0 0 0 0 0 0 0 0 0 0 0 0 0 0 0 0 0 0 0 0 0 0 0 0 0 0 0 0 0 0 0 0 0 0 0 0 0 0 0 0 0 0 0 0 0 0 0 0 0 0 0 0 0 0 0 0 0 0 0 0 0 0 0 0 0 0 0 0 0 0 0 0 0 0 0 0 0 0 0 0 0 0 0 0 0 0 0 0 0 0 0 0 0 0 0 0 0 0 0 0 0 0 0 0 0 0 0 0 0 0 0 0 0 25 37 50 25 37 50 25 37 50 25 37 50 25 37 50 0 0 0 0 0 0 0 0 0 25 37 50 25 37 50 25 37 50 25 37 50 25 37 50 0 0 0 0 0 0 0 0 0 0 0 0 0 0 0 0 0 0 0 0 0 0 0 0 0 0 0 0 0 0 0 0 0 0 0 0 0 0 0 0 0 0 0 0 0 0 0 0 0 0 0 0 0 0 0 0 0 0 0 0 0 0 0 0 0 0 0 0 0 0 0 0 0 0 0 0 0 0 0 0 0 0 0 0 0 0 0 0 0 0 0 0 0 0 0 0 0 0 0 0 0 0 0 0 0 0 0 0
0 0 0 0 0 0 0 0 0 0 0 0 0 0 0 0 0 0 0 0 0 0 0 0 0 0 0 0 0 0 0 0 0 0 0 0 0 0 0 0 0 0 0 0 0 0 0 0 0 0 0 0 0 0 0 0 0 0 0 0 0 0 0 25 37 50 25 37 50 25 37 50 25 37 50 25 37 50 0 0 0 0 0 0 0 0 0 25 37 50 25 37 50 25 37 50 25 37 50 25 37 50 0 0 0 0 0 0 0 0 0 0 0 0 0 0 0 0 0 0 0 0 0 0 0 0 0 0 0 0 0 0 0 0 0 0 0 0 0 0 0 0 0 0 0 0 0 0 0 0 0 0 0 0 0 0 0 0 0 0 0 0 0 0 0 0 0 0 0 0 0 0 0 0 0 0 0 0 0 0 0 0 0 0 0 0 0 0 0 0 0 0 0 0 0 0 0 0 0 0 0 0 0 0 0 0 0 0 0 0 0 0 0 0 0 0 0 0 0 0 0 0 0 0 0 0 0 0 0 0 0 0 0 0 0 0 0 25 37 50 25 37 50 25 37 50 25 37 50 25 37 50 0 0 0 0 0 0 0 0 0 25 37 50 25 37 50 25 37 50 25 37 50 25 37 50 0 0 0 0 0 0 0 0 0 0 0 0 0 0 0 0 0 0 0 0 0 0 0 0 0 0 0 0 0 0 0 0 0 0 0 0 0 0 0 0 0 0 0 0 0 0 0 0 0 0 0 0 0 0 0 0 0 0 0 0 0 0 0 0 0 0 0 0 0 0 0 0 0 0 0 0 0 0 0 0 0 0 0 0 0 0 0 0 0 0 0 0 0 0 0 0 0 0 0 0 0 0 0 0 0 0 0 0
0 0 0 0 0 0 0 0 0 0 0 0 0 0 0 0 0 0 0 0 0 0 0 0 0 0 0 0 0 0 0 0 0 0 0 0 0 0 0 0 0 0 0 0 0 0 0 0 0 0 0 0 0 0 0 0 0 0 0 0 0 0 0 25 37 50 25 37 50 25 37 50 25 37 50 25 37 50 0 0 0 0 0 0 0 0 0 25 37 50 25 37 50 25 37 50 25 37 50 25 37 50 0 0 0 0 0 0 0 0 0 0 0 0 0 0 0 0 0 0 0 0 0 0 0 0 0 0 0 0 0 0 0 0 0 0 0 0 0 0 0 0 0 0 0 0 0 0 0 0 0 0 0 0 0 0 0 0 0 0 0 0 0 0 0 0 0 0 0 0 0 0 0 0 0 0 0 0 0 0 0 0 0 0 0 0 0 0 0 0 0 0 0 0 0 0 0 0 0 0 0 0 0 0 0 0 0 0 0 0 0 0 0 0 0 0 0 0 0 0 0 0 0 0 0 0 0 0 0 0 0 0 0 0 0 0 0 25 37 50 25 37 50 25 37 50 25 37 50 25 37 50 0 0 0 0 0 0 0 0 0 25 37 50 25 37 50 25 37 50 25 37 50 25 37 50 0 0 0 0 0 0 0 0 0 0 0 0 0 0 0 0 0 0 0 0 0 0 0 0 0 0 0 0 0 0 0 0 0 0 0 0 0 0 0 0 0 0 0 0 0 0 0 0 0 0 0 0 0 0 0 0 0 0 0 0 0 0 0 0 0 0 0 0 0 0 0 0 0 0 0 0 0 0 0 0 0 0 0 0 0 0 0 0 0 0 0 0 0 0 0 0 0 0 0 0 0 0 0 0 0 0 0 0
0 0 0 0 0 0 0 0 0 0 0 0 0 0 0 0 0 0 0 0 0 0 0 0 0 0 0 0 0 0 0 0 0 0 0 0 0 0 0 0 0 0 0 0 0 0 0 0 0 0 0 0 0 0 0 0 0 0 0 0 0 0 0 25 37 50 25 37 50 25 37 50 25 37 50 25 37 50 0 0 0 0 0 0 0 0 0 25 37 50 25 37 50 25 37 50 25 37 50 25 37 50 0 0 0 0 0 0 0 0 0 0 0 0 0 0 0 0 0 0 0 0 0 0 0 0 0 0 0 0 0 0 0 0 0 0 0 0 0 0 0 0 0 0 0 0 0 0 0 0 0 0 0 0 0 0 0 0 0 0 0 0 0 0 0 0 0 0 0 0 0 0 0 0 0 0 0 0 0 0 0 0 0 0 0 0 0 0 0 0 0 0 0 0 0 0 0 0 0 0 0 0 0 0 0 0 0 0 0 0 0 0 0 0 0 0 0 0 0 0 0 0 0 0 0 0 0 0 0 0 0 0 0 0 0 0 0 25 37 50 25 37 50 25 37 50 25 37 50 25 37 50 0 0 0 0 0 0 0 0 0 25 37 50 25 37 50 25 37 50 25 37 50 25 37 50 0 0 0 0 0 0 0 0 0 0 0 0 0 0 0 0 0 0 0 0 0 0 0 0 0 0 0 0 0 0 0 0 0 0 0 0 0 0 0 0 0 0 0 0 0 0 0 0 0 0 0 0 0 0 0 0 0 0 0 0 0 0 0 0 0 0 0 0 0 0 0 0 0 0 0 0 0 0 0 0 0 0 0 0 0 0 0 0 0 0 0 0 0 0 0 0 0 0 0 0 0 0 0 0 0 0 0 0
0 0 0 0 0 0 0 0 0 0 0 0 0 0 0 0 0 0 0 0 0 0 0 0 0 0 0 0 0 0 0 0 0 0 0 0 0 0 0 0 0 0 0 0 0 0 0 0 0 0 0 0 0 0 0 0 0 0 0 0 25 37 50 25 37 50 25 37 50 25 37 50 25 37 50 25 37 50 0 0 0 0 0 0 0 0 0 25 37 50 25 37 50 25 37 50 25 37 50 25 37 50 25 37 50 0 0 0 0 0 0 0 0 0 0 0 0 0 0 0 0 0 0 0 0 0 0 0 0 0 0 0 0 0 0 0 0 0 0 0 0 0 0 0 0 0 0 0 0 0 0 0 0 0 0 0 0 0 0 0 0 0 0 0 0 0 0 0 0 0 0 0 0 0 0 0 0 0 0 0 0 0 0 0 0 0 0 0 0 0 0 0 0 0 0 0 0 0 0 0 0 0 0 0 0 0 0 0 0 0 0 0 0 0 0 0 0 0 0 0 0 0 0 0 0 0 0 0 0 0 0 0 0 0 25 37 50 25 37 50 25 37 50 25 37 50 25 37 50 25 37 50 0 0 0 0 0 0 0 0 0 25 37 50 25 37 50 25 37 50 25 37 50 25 37 50 25 37 50 0 0 0 0 0 0 0 0 0 0 0 0 0 0 0 0 0 0 0 0 0 0 0 0 0 0 0 0 0 0 0 0 0 0 0 0 0 0 0 0 0 0 0 0 0 0 0 0 0 0 0 0 0 0 0 0 0 0 0 0 0 0 0 0 0 0 0 0 0 0 0 0 0 0 0 0 0 0 0 0 0 0 0 0 0 0 0 0 0 0 0 0 0 0 0 0 0 0 0 0 0 0 0 0 0
0 0 0 0 0 0 0 0 0 0 0 0 0 0 0 0 0 0 0 0 0 0 0 0 0 0 0 0 0 0 0 0 0 0 0 0 0 0 0 0 0 0 0 0 0 0 0 0 0 0 0 0 0 0 0 0 0 0 0 0 25 37 50 25 37 50 25 37 50 25 37 50 25 37 50 25 37 50 0 0 0 0 0 0 0 0 0 25 37 50 25 37 50 25 37 50 25 37 50 25 37 50 25 37 50 0 0 0 0 0 0 0 0 0 0 0 0 0 0 0 0 0 0 0 0 0 0 0 0 0 0 0 0 0 0 0 0 0 0 0 0 0 0 0 0 0 0 0 0 0 0 0 0 0 0 0 0 0 0 0 0 0 0 0 0 0 0 0 0 0 0 0 0 0 0 0 0 0 0 0 0 0 0 0 0 0 0 0 0 0 0 0 0 0 0 0 0 0 0 0 0 0 0 0 0 0 0 0 0 0 0 0 0 0 0 0 0 0 0 0 0 0 0 0 0 0 0 0 0 0 0 0 0 0 25 37 50 25 37 50 25 37 50 25 37 50 25 37 50 25 37 50 0 0 0 0 0 0 0 0 0 25 37 50 25 37 50 25 37 50 25 37 50 25 37 50 25 37 50 0 0 0 0 0 0 0 0 0 0 0 0 0 0 0 0 0 0 0 0 0 0 0 0 0 0 0 0 0 0 0 0 0 0 0 0 0 0 0 0 0 0 0 0 0 0 0 0 0 0 0 0 0 0 0 0 0 0 0 0 0 0 0 0 0 0 0 0 0 0 0 0 0 0 0 0 0 0 0 0 0 0 0 0 0 0 0 0 0 0 0 0 0 0 0 0 0 0 0 0 0 0 0 0 0
0 0 0 0 0 0 0 0 0 0 0 0 0 0 0 0 0 0 0 0 0 0 0 0 0 0 0 0 0 0 0 0 0 0 0 0 0 0 0 0 0 0 0 0 0 0 0 0 0 0 0 0 0 0 0 0 0 0 0 0 25 37 50 25 37 50 25 37 50 25 37 50 25 37 50 25 37 50 0 0 0 0 0 0 0 0 0 25 37 50 25 37 50 25 37 50 25 37 50 25 37 50 25 37 50 0 0 0 0 0 0 0 0 0 0 0 0 0 0 0 0 0 0 0 0 0 0 0 0 0 0 0 0 0 0 0 0 0 0 0 0 0 0 0 0 0 0 0 0 0 0 0 0 0 0 0 0 0 0 0 0 0 0 0 0 0 0 0 0 0 0 0 0 0 0 0 0 0 0 0 0 0 0 0 0 0 0 0 0 0 0 0 0 0 0 0 0 0 0 0 0 0 0 0 0 0 0 0 0 0 0 0 0 0 0 0 0 0 0 0 0 0 0 0 0 0 0 0 0 0 0 0 0 0 25 37 50 25 37 50 25 37 50 25 37 50 25 37 50 25 37 50 0 0 0 0 0 0 0 0 0 25 37 50 25 37 50 25 37 50 25 37 50 25 37 50 25 37 50 0 0 0 0 0 0 0 0 0 0 0 0 0 0 0 0 0 0 0 0 0 0 0 0 0 0 0 0 0 0 0 0 0 0 0 0 0 0 0 0 0 0 0 0 0 0 0 0 0 0 0 0 0 0 0 0 0 0 0 0 0 0 0 0 0 0 0 0 0 0 0 0 0 0 0 0 0 0 0 0 0 0 0 0 0 0 0 0 0 0 0 0 0 0 0 0 0 0 0 0 0 0 0 0 0
0 0 0 0 0 0 0 0 0 0 0 0 0 0 0 25 37 50 25 37 50 25 37 50 25 37 50 25 37 50 25 37 50 25 37 50 0 0 0 0 0 0 0 0 0 0 0 0 0 0 0 0 0 0 0 0 0 0 0 0 25 37 50 25 37 50 25 37 50 25 37 50 25 37 50 25 37 50 25 37 50 25 37 50 25 37 50 25 37 50 25 37 50 25 37 50 25 37 50 25 37 50 25 37 50 0 0 0 0 0 0 0 0 0 0 0 0 0 0 0 0 0 0 0 0 0 0 0 0 0 0 0 0 0 0 25 37 50 25 37 50 25 37 50 25 37 50 25 37 50 25 37 50 25 37 50 0 0 0 0 0 0 0 0 0 0 0 0 0 0 0 0 0 0 0 0 0 0 0 0 0 0 0 0 0 0 0 0 0 0 0 0 0 0 0 25 37 50 25 37 50 25 37 50 25 37 50 25 37 50 25 37 50 25 37 50 0 0 0 0 0 0 0 0 0 0 0 0 0 0 0 0 0 0 25 37 50 25 37 50 25 37 50 25 37 50 25 37 50 25 37 50 0 0 0 25 37 50 25 37 50 25 37 50 25 37 50 25 37 50 25 37 50 25 37 50 25 37 50 0 0 0 0 0 0 0 0 0 0 0 0 0 0 0 0 0 0 0 0 0 0 0 0 0 0 0 0 0 0 0 0 0 0 0 0 25 37 50 25 37 50 25 37 50 25 37 50 25 37 50 25 37 50 25 37 50 0 0 0 0 0 0 0 0 0 0 0 0 0 0 0 0 0 0 0 0 0 0 0 0 0 0 0 0 0 0 0 0 0 0 0 0 0 0 0 0 0 0 0 0 0 0 0 0
0 0 0 0 0 0 0 0 0 0 0 0 0 0 0 25 37 50 25 37 50 25 37 50 25 37 50 25 37 50 25 37 50 25 37 50 0 0 0 0 0 0 0 0 0 0 0 0 0 0 0 0 0 0 0 0 0 0 0 0 25 37 50 25 37 50 25 37 50 25 37 50 25 37 50 25 37 50 25 37 50 25 37 50 25 37 50 25 37 50 25 37 50 25 37 50 25 37 50 25 37 50 25 37 50 0 0 0 0 0 0 0 0 0 0 0 0 0 0 0 0 0 0 0 0 0 0 0 0 0 0 0 0 0 0 25 37 50 25 37 50 25 37 50 25 37 50 25 37 50 25 37 50 25 37 50 0 0 0 0 0 0 0 0 0 0 0 0 0 0 0 0 0 0 0 0 0 0 0 0 0 0 0 0 0 0 0 0 0 0 0 0 0 0 0 25 37 50 25 37 50 25 37 50 25 37 50 25 37 50 25 37 50 25 37 50 0 0 0 0 0 0 0 0 0 0 0 0 0 0 0 0 0 0 25 37 50 25 37 50 25 37 50 25 37 50 25 37 50 0 0 0 0 0 0 25 37 50 25 37 50 25 37 50 25 37 50 25 37 50 25 37 50 25 37 50 25 37 50 0 0 0 0 0 0 0 0 0 0 0 0 0 0 0 0 0 0 0 0 0 0 0 0 0 0 0 0 0 0 0 0 0 0 0 0 25 37 50 25 37 50 25 37 50 25 37 50 25 37 50 25 37 50 25 37 50 0 0 0 0 0 0 0 0 0 0 0 0 0 0 0 0 0 0 0 0 0 0 0 0 0 0 0 0 0 0 0 0 0 0 0 0 0 0 0 0 0 0 0 0 0 0 0 0
0 0 0 0 0 0 0 0 0 0 0 0 0 0 0 25 37 50 25 37 50 60 78 94 60 78 94 60 78 94 60 78 94 25 37 50 0 0 0 0 0 0 0 0 0 0 0 0 0 0 0 0 0 0 0 0 0 0 0 0 25 37 50 25 37 50 25 37 50 25 37 50 25 37 50 25 37 50 25 37 50 60 78 94 60 78 94 60 78 94 60 78 94 25 37 50 25 37 50 25 37 50 25 37 50 0 0 0 0 0 0 0 0 0 0 0 0 0 0 0 0 0 0 0 0 0 0 0 0 0 0 0 0 0 0 25 37 50 25 37 50 60 78 94 60 78 94 60 78 94 60 78 94 25 37 50 0 0 0 0 0 0 0 0 0 0 0 0 0 0 0 0 0 0 0 0 0 0 0 0 0 0 0 0 0 0 0 0 0 0 0 0 0 0 0 25 37 50 25 37 50 60 78 94 60 78 94 60 78 94 60 78 94 25 37 50 0 0 0 0 0 0 0 0 0 0 0 0 0 0 0 0 0 0 25 37 50 25 37 50 25 37 50 25 37 50 25 37 50 0 0 0 0 0 0 25 37 50 25 37 50 60 78 94 60 78 94 60 78 94 60 78 94 25 37 50 25 37 50 0 0 0 0 0 0 0 0 0 0 0 0 0 0 0 0 0 0 0 0 0 0 0 0 0 0 0 0 0 0 0 0 0 0 0 0 25 37 50 25 37 50 60 78 94 60 78 94 60 78 94 60 78 94 25 37 50 0 0 0 0 0 0 0 0 0 0 0 0 0 0 0 0 0 0 0 0 0 0 0 0 0 0 0 0 0 0 0 0 0 0 0 0 0 0 0 0 0 0 0 0 0 0 0 0
0 0 0 0 0 0 0 0 0 0 0 0 0 0 0 25 37 50 25 37 50 60 78 94 60 78 94 60 78 94 60 78 94 25 37 50 0 0 0 0 0 0 0 0 0 0 0 0 0 0 0 0 0 0 0 0 0 0 0 0 25 37 50 25 37 50 25 37 50 25 37 50 25 37 50 25 37 50 25 37 50 60 78 94 60 78 94 60 78 94 60 78 94 25 37 50 25 37 50 25 37 50 25 37 50 0 0 0 0 0 0 0 0 0 0 0 0 0 0 0 0 0 0 0 0 0 0 0 0 0 0 0 0 0 0 25 37 50 25 37 50 60 78 94 60 78 94 60 78 94 60 78 94 25 37 50 0 0 0 0 0 0 0 0 0 0 0 0 0 0 0 0 0 0 0 0 0 0 0 0 0 0 0 0 0 0 0 0 0 0 0 0 0 0 0 25 37 50 25 37 50 60 78 94 60 78 94 60 78 94 60 78 94 25 37 50 0 0 0 0 0 0 0 0 0 0 0 0 0 0 0 0 0 0 25 37 50 25 37 50 25 37 50 25 37 50 25 37 50 0 0 0 0 0 0 25 37 50 25 37 50 60 78 94 60 78 94 60 78 94 60 78 94 25 37 50 25 37 50 0 0 0 0 0 0 0 0 0 0 0 0 0 0 0 0 0 0 0 0 0 0 0 0 0 0 0 0 0 0 0 0 0 0 0 0 25 37 50 25 37 50 60 78 94 60 78 94 60 78 94 60 78 94 25 37 50 0 0 0 0 0 0 0 0 0 0 0 0 0 0 0 0 0 0 0 0 0 0 0 0 0 0 0 0 0 0 0 0 0 0 0 0 0 0 0 0 0 0 0 0 0 0 0 0
0 0 0 0 0 0 0 0 0 0 0 0 0 0 0 25 37 50 25 37 50 60 78 94 60 78 94 60 78 94 60 78 94 25 37 50 0 0 0 0 0 0 0 0 0 0 0 0 0 0 0 0 0 0 0 0 0 0 0 0 25 37 50 25 37 50 25 37 50 25 37 50 25 37 50 25 37 50 25 37 50 60 78 94 60 78 94 60 78 94 60 78 94 25 37 50 25 37 50 25 37 50 25 37 50 0 0 0 0 0 0 0 0 0 0 0 0 0 0 0 0 0 0 0 0 0 0 0 0 0 0 0 0 0 0 25 37 50 25 37 50 60 78 94 60 78 94 60 78 94 60 78 94 25 37 50 0 0 0 0 0 0 0 0 0 0 0 0 0 0 0 0 0 0 0 0 0 0 0 0 0 0 0 0 0 0 0 0 0 0 0 0 0 0 0 25 37 50 25 37 50 60 78 94 60 78 94 60 78 94 60 78 94 25 37 50 0 0 0 0 0 0 0 0 0 0 0 0 0 0 0 0 0 0 25 37 50 25 37 50 25 37 50 25 37 50 25 37 50 0 0 0 0 0 0 25 37 50 25 37 50 60 78 94 60 78 94 60 78 94 60 78 94 25 37 50 25 37 50 0 0 0 0 0 0 0 0 0 0 0 0 0 0 0 0 0 0 0 0 0 0 0 0 0 0 0 0 0 0 0 0 0 0 0 0 25 37 50 25 37 50 60 78 94 60 78 94 60 78 94 60 78 94 25 37 50 0 0 0 0 0 0 0 0 0 0 0 0 0 0 0 0 0 0 0 0 0 0 0 0 0 0 0 0 0 0 0 0 0 0 0 0 0 0 0 0 0 0 0 0 0 0 0 0
0 0 0 0 0 0 0 0 0 0 0 0 0 0 0 25 37 50 25 37 50 60 78 94 60 78 94 60 78 94 60 78 94 25 37 50 0 0 0 0 0 0 0 0 0 0 0 0 0 0 0 0 0 0 0 0 0 0 0 0 25 37 50 25 37 50 25 37 50 25 37 50 25 37 50 25 37 50 25 37 50 60 78 94 60 78 94 60 78 94 60 78 94 25 37 50 25 37 50 25 37 50 25 37 50 0 0 0 0 0 0 0 0 0 0 0 0 0 0 0 0 0 0 0 0 0 0 0 0 0 0 0 0 0 0 25 37 50 25 37 50 60 78 94 60 78 94 60 78 94 60 78 94 25 37 50 0 0 0 0 0 0 0 0 0 0 0 0 0 0 0 0 0 0 0 0 0 0 0 0 0 0 0 0 0 0 0 0 0 0 0 0 0 0 0 25 37 50 25 37 50 60 78 94 60 78 94 60 78 94 60 78 94 25 37 50 0 0 0 0 0 0 0 0 0 0 0 0 0 0 0 0 0 0 25 37 50 25 37 50 25 37 50 25 37 50 25 37 50 0 0 0 0 0 0 25 37 50 25 37 50 60 78 94 60 78 94 60 78 94 60 78 94 25 37 50 25 37 50 0 0 0 0 0 0 0 0 0 0 0 0 0 0 0 0 0 0 0 0 0 0 0 0 0 0 0 0 0 0 0 0 0 0 0 0 25 37 50 25 37 50 60 78 94 60 78 94 60 78 94 60 78 94 25 37 50 0 0 0 0 0 0 0 0 0 0 0 0 0 0 0 0 0 0 0 0 0 0 0 0 0 0 0 0 0 0 0 0 0 0 0 0 0 0 0 0 0 0 0 0 0 0 0 0
0 0 0 0 0 0 0 0 0 0 0 0 0 0 0 25 37 50 25 37 50 60 78 94 60 78 94 60 78 94 60 78 94 25 37 50 0 0 0 0 0 0 0 0 0 0 0 0 0 0 0 0 0 0 0 0 0 0 0 0 25 37 50 25 37 50 25 37 50 25 37 50 25 37 50 25 37 50 25 37 50 60 78 94 60 78 94 60 78 94 60 78 94 25 37 50 25 37 50 25 37 50 25 37 50 0 0 0 0 0 0 0 0 0 0 0 0 0 0 0 0 0 0 0 0 0 0 0 0 0 0 0 0 0 0 25 37 50 25 37 50 60 78 94 60 78 94 60 78 94 60 78 94 25 37 50 0 0 0 0 0 0 0 0 0 0 0 0 0 0 0 0 0 0 0 0 0 0 0 0 0 0 0 0 0 0 0 0 0 0 0 0 0 0 0 25 37 50 25 37 50 60 78 94 60 78 94 60 78 94 60 78 94 25 37 50 0 0 0 0 0 0 0 0 0 0 0 0 0 0 0 0 0 0 25 37 50 25 37 50 25 37 50 25 37 50 25 37 50 0 0 0 0 0 0 25 37 50 25 37 50 60 78 94 60 78 94 60 78 94 60 78 94 25 37 50 25 37 50 0 0 0 0 0 0 0 0 0 0 0 0 0 0 0 0 0 0 0 0 0 0 0 0 0 0 0 0 0 0 0 0 0 0 0 0 25 37 50 25 37 50 60 78 94 60 78 94 60 78 94 60 78 94 25 37 50 0 0 0 0 0 0 0 0 0 0 0 0 0 0 0 0 0 0 0 0 0 0 0 0 0 0 0 0 0 0 0 0 0 0 0 0 0 0 0 0 0 0 0 0 0 0 0 0
0 0 0 0 0 0 0 0 0 0 0 0 0 0 0 25 37 50 25 37 50 25 37 50 25 37 50 25 37 50 25 37 50 25 37 50 0 0 0 0 0 0 0 0 0 0 0 0 0 0 0 0 0 0 60 78 94 60 78 94 60 78 94 60 78 94 60 78 94 60 78 94 60 78 94 25 37 50 25 37 50 25 37 50 25 37 50 25 37 50 25 37 50 25 37 50 60 78 94 60 78 94 60 78 94 60 78 94 0 0 0 0 0 0 0 0 0 0 0 0 0 0 0 0 0 0 0 0 0 0 0 0 0 0 0 25 37 50 25 37 50 25 37 50 25 37 50 25 37 50 25 37 50 25 37 50 0 0 0 0 0 0 0 0 0 0 0 0 0 0 0 0 0 0 0 0 0 0 0 0 0 0 0 0 0 0 0 0 0 0 0 0 0 0 0 25 37 50 25 37 50 25 37 50 25 37 50 25 37 50 25 37 50 25 37 50 0 0 0 0 0 0 0 0 0 0 0 0 60 78 94 60 78 94 60 78 94 60 78 94 60 78 94 60 78 94 60 78 94 0 0 0 0 0 0 25 37 50 25 37 50 25 37 50 25 37 50 25 37 50 25 37 50 25 37 50 60 78 94 60 78 94 0 0 0 0 0 0 0 0 0 0 0 0 0 0 0 0 0 0 0 0 0 0 0 0 0 0 0 0 0 0 0 0 0 25 37 50 25 37 50 25 37 50 25 37 50 25 37 50 25 37 50 25 37 50 0 0 0 0 0 0 0 0 0 0 0 0 0 0 0 0 0 0 0 0 0 0 0 0 0 0 0 0 0 0 0 0 0 0 0 0 0 0 0 0 0 0 0 0 0 0 0 0
0 0 0 0 0 0 0 0 0 0 0 0 0 0 0 25 37 50 25 37 50 25 37 50 25 37 50 25 37 50 25 37 50 25 37 50 0 0 0 0 0 0 0 0 0 0 0 0 0 0 0 0 0 0 60 78 94 60 78 94 60 78 94 60 78 94 60 78 94 60 78 94 60 78 94 25 37 50 25 37 50 25 37 50 25 37 50 25 37 50 25 37 50 25 37 50 60 78 94 60 78 94 60 78 94 60 78 94 0 0 0 0 0 0 0 0 0 0 0 0 0 0 0 0 0 0 0 0 0 0 0 0 0 0 0 25 37 50 25 37 50 25 37 50 25 37 50 25 37 50 25 37 50 25 37 50 0 0 0 0 0 0 0 0 0 0 0 0 0 0 0 0 0 0 0 0 0 0 0 0 0 0 0 0 0 0 0 0 0 0 0 0 0 0 0 25 37 50 25 37 50 25 37 50 25 37 50 25 37 50 25 37 50 25 37 50 0 0 0 0 0 0 0 0 0 0 0 0 60 78 94 60 78 94 60 78 94 60 78 94 60 78 94 60 78 94 60 78 94 0 0 0 0 0 0 25 37 50 25 37 50 25 37 50 25 37 50 25 37 50 25 37 50 25 37 50 60 78 94 60 78 94 0 0 0 0 0 0 0 0 0 0 0 0 0 0 0 0 0 0 0 0 0 0 0 0 0 0 0 0 0 0 0 0 0 25 37 50 25 37 50 25 37 50 25 37 50 25 37 50 25 37 50 25 37 50 0 0 0 0 0 0 0 0 0 0 0 0 0 0 0 0 0 0 0 0 0 0 0 0 0 0 0 0 0 0 0 0 0 0 0 0 0 0 0 0 0 0 0 0 0 0 0 0
0 0 0 0 0 0 0 0 0 0 0 0 0 0 0 25 37 50 25 37 50 25 37 50 25 37 50 25 37 50 25 37 50 25 37 50 0 0 0 0 0 0 0 0 0 0 0 0 0 0 0 0 0 0 60 78 94 60 78 94 60 78 94 60 78 94 60 78 94 60 78 94 60 78 94 25 37 50 25 37 50 25 37 50 25 37 50 25 37 50 25 37 50 25 37 50 60 78 94 60 78 94 60 78 94 60 78 94 0 0 0 0 0 0 0 0 0 0 0 0 0 0 0 0 0 0 0 0 0 0 0 0 0 0 0 25 37 50 25 37 50 25 37 50 25 37 50 25 37 50 25 37 50 25 37 50 0 0 0 0 0 0 0 0 0 0 0 0 0 0 0 0 0 0 0 0 0 0 0 0 0 0 0 0 0 0 0 0 0 0 0 0 0 0 0 25 37 50 25 37 50 25 37 50 25 37 50 25 37 50 25 37 50 25 37 50 0 0 0 0 0 0 0 0 0 0 0 0 60 78 94 60 78 94 60 78 94 60 78 94 60 78 94 60 78 94 60 78 94 0 0 0 0 0 0 25 37 50 25 37 50 25 37 50 25 37 50 25 37 50 25 37 50 25 37 50 60 78 94 60 78 94 0 0 0 0 0 0 0 0 0 0 0 0 0 0 0 0 0 0 0 0 0 0 0 0 0 0 0 0 0 0 0 0 0 25 37 50 25 37 50 25 37 50 25 37 50 25 37 50 25 37 50 25 37 50 0 0 0 0 0 0 0 0 0 0 0 0 0 0 0 0 0 0 0 0 0 0 0 0 0 0 0 0 0 0 0 0 0 0 0 0 0 0 0 0 0 0 0 0 0 0 0 0
0 0 0 0 0 0 0 0 0 0 0 0 0 0 0 25 37 50 25 37 50 25 37 50 25 37 50 25 37 50 25 37 50 25 37 50 0 0 0 0 0 0 0 0 0 0 0 0 0 0 0 0 0 0 60 78 94 60 78 94 60 78 94 60 78 94 60 78 94 60 78 94 60 78 94 25 37 50 25 37 50 25 37 50 25 37 50 25 37 50 25 37 50 25 37 50 60 78 94 60 78 94 60 78 94 60 78 94 0 0 0 0 0 0 0 0 0 0 0 0 0 0 0 0 0 0 0 0 0 0 0 0 0 0 0 25 37 50 25 37 50 25 37 50 25 37 50 25 37 50 25 37 50 25 37 50 0 0 0 0 0 0 0 0 0 0 0 0 0 0 0 0 0 0 0 0 0 0 0 0 0 0 0 0 0 0 0 0 0 0 0 0 0 0 0 25 37 50 25 37 50 25 37 50 25 37 50 25 37 50 25 37 50 25 37 50 0 0 0 0 0 0 0 0 0 0 0 0 60 78 94 60 78 94 60 78 94 60 78 94 60 78 94 60 78 94 60 78 94 0 0 0 0 0 0 25 37 50 25 37 50 25 37 50 25 37 50 25 37 50 25 37 50 25 37 50 60 78 94 60 78 94 0 0 0 0 0 0 0 0 0 0 0 0 0 0 0 0 0 0 0 0 0 0 0 0 0 0 0 0 0 0 0 0 0 25 37 50 25 37 50 25 37 50 25 37 50 25 37 50 25 37 50 25 37 50 0 0 0 0 0 0 0 0 0 0 0 0 0 0 0 0 0 0 0 0 0 0 0 0 0 0 0 0 0 0 0 0 0 0 0 0 0 0 0 0 0 0 0 0 0 0 0 0
0 0 0 0 0 0 0 0 0 0 0 0 0 0 0 25 37 50 25 37 50 25 37 50 25 37 50 25 37 50 25 37 50 25 37 50 0 0 0 0 0 0 0 0 0 0 0 0 0 0 0 0 0 0 0 0 0 0 0 0 0 0 0 0 0 0 0 0 0 0 0 0 0 0 0 25 37 50 25 37 50 25 37 50 25 37 50 25 37 50 25 37 50 25 37 50 0 0 0 0 0 0 0 0 0 0 0 0 0 0 0 0 0 0 0 0 0 0 0 0 0 0 0 0 0 0 0 0 0 0 0 0 0 0 0 25 37 50 25 37 50 25 37 50 25 37 50 25 37 50 25 37 50 25 37 50 0 0 0 0 0 0 0 0 0 0 0 0 0 0 0 0 0 0 0 0 0 0 0 0 0 0 0 0 0 0 0 0 0 0 0 0 0 0 0 25 37 50 25 37 50 25 37 50 25 37 50 25 37 50 25 37 50 25 37 50 0 0 0 0 0 0 0 0 0 0 0 0 0 0 0 0 0 0 0 0 0 0 0 0 0 0 0 0 0 0 0 0 0 0 0 0 0 0 0 25 37 50 25 37 50 25 37 50 25 37 50 25 37 50 25 37 50 25 37 50 0 0 0 0 0 0 0 0 0 0 0 0 0 0 0 0 0 0 0 0 0 0 0 0 0 0 0 0 0 0 0 0 0 0 0 0 0 0 0 25 37 50 25 37 50 25 37 50 25 37 50 25 37 50 25 37 50 25 37 50 0 0 0 0 0 0 0 0 0 0 0 0 0 0 0 0 0 0 0 0 0 0 0 0 0 0 0 0 0 0 0 0 0 0 0 0 0 0 0 0 0 0 0 0 0 0 0 0
0 0 0 0 0 0 0 0 0 0 0 0 0 0 0 25 37 50 25 37 50 25 37 50 25 37 50 25 37 50 25 37 50 25 37 50 0 0 0 0 0 0 0 0 0 0 0 0 0 0 0 0 0 0 0 0 0 0 0 0 0 0 0 0 0 0 0 0 0 0 0 0 0 0 0 25 37 50 25 37 50 25 37 50 25 37 50 25 37 50 25 37 50 25 37 50 0 0 0 0 0 0 0 0 0 0 0 0 0 0 0 0 0 0 0 0 0 0 0 0 0 0 0 0 0 0 0 0 0 0 0 0 0 0 0 25 37 50 25 37 50 25 37 50 25 37 50 25 37 50 25 37 50 25 37 50 0 0 0 0 0 0 0 0 0 0 0 0 0 0 0 0 0 0 0 0 0 0 0 0 0 0 0 0 0 0 0 0 0 0 0 0 0 0 0 25 37 50 25 37 50 25 37 50 25 37 50 25 37 50 25 37 50 25 37 50 0 0 0 0 0 0 0 0 0 0 0 0 0 0 0 0 0 0 0 0 0 0 0 0 0 0 0 0 0 0 0 0 0 0 0 0 0 0 0 25 37 50 25 37 50 25 37 50 25 37 50 25 37 50 25 37 50 25 37 50 0 0 0 0 0 0 0 0 0 0 0 0 0 0 0 0 0 0 0 0 0 0 0 0 0 0 0 0 0 0 0 0 0 0 0 0 0 0 0 25 37 50 25 37 50 25 37 50 25 37 50 25 37 50 25 37 50 25 37 50 0 0 0 0 0 0 0 0 0 0 0 0 0 0 0 0 0 0 0 0 0 0 0 0 0 0 0 0 0 0 0 0 0 0 0 0 0 0 0 0 0 0 0 0 0 0 0 0
0 0 0 0 0 0 0 0 0 0 0 0 0 0 0 25 37 50 25 37 50 25 37 50 25 37 50 25 37 50 25 37 50 25 37 50 0 0 0 0 0 0 0 0 0 0 0 0 0 0 0 0 0 0 0 0 0 0 0 0 0 0 0 0 0 0 0 0 0 0 0 0 0 0 0 25 37 50 25 37 50 25 37 50 25 37 50 25 37 50 25 37 50 25 37 50 0 0 0 0 0 0 0 0 0 0 0 0 0 0 0 0 0 0 0 0 0 0 0 0 0 0 0 0 0 0 0 0 0 0 0 0 0 0 0 25 37 50 25 37 50 25 37 50 25 37 50 25 37 50 25 37 50 25 37 50 0 0 0 0 0 0 0 0 0 0 0 0 0 0 0 0 0 0 0 0 0 0 0 0 0 0 0 0 0 0 0 0 0 0 0 0 0 0 0 25 37 50 25 37 50 25 37 50 25 37 50 25 37 50 25 37 50 25 37 50 0 0 0 0 0 0 0 0 0 0 0 0 0 0 0 0 0 0 0 0 0 0 0 0 0 0 0 0 0 0 0 0 0 0 0 0 0 0 0 25 37 50 25 37 50 25 37 50 25 37 50 25 37 50 25 37 50 25 37 50 0 0 0 0 0 0 0 0 0 0 0 0 0 0 0 0 0 0 0 0 0 0 0 0 0 0 0 0 0 0 0 0 0 0 0 0 0 0 0 25 37 50 25 37 50 25 37 50 25 37 50 25 37 50 25 37 50 25 37 50 0 0 0 0 0 0 0 0 0 0 0 0 0 0 0 0 0 0 0 0 0 0 0 0 0 0 0 0 0 0 0 0 0 0 0 0 0 0 0 0 0 0 0 0 0 0 0 0
0 0 0 0 0 0 0 0 0 0 0 0 0 0 0 0 0 0 0 0 0 0 0 0 0 0 0 0 0 0 0 0 0 0 0 0 0 0 0 0 0 0 0 0 0 0 0 0 0 0 0 0 0 0 0 0 0 0 0 0 0 0 0 0 0 0 0 0 0 0 0 0 0 0 0 0 0 0 0 0 0 0 0 0 0 0 0 0 0 0 0 0 0 0 0 0 0 0 0 0 0 0 0 0 0 0 0 0 0 0 0 0 0 0 0 0 0 0 0 0 0 0 0 0 0 0 0 0 0 0 0 0 0 0 0 0 0 0 0 0 0 0 0 0 0 0 0 0 0 0 0 0 0 0 0 0 0 0 0 0 0 0 0 0 0 0 0 0 0 0 0 0 0 0 0 0 0 0 0 0 0 0 0 0 0 0 0 0 0 0 0 0 0 0 0 0 0 0 0 0 0 0 0 0 0 0 0 0 0 0 0 0 0 0 0 0 0 0 0 0 0 0 0 0 0 0 0 0 0 0 0 0 0 0 0 0 0 0 0 0 0 0 0 0 0 0 0 0 0 0 0 0 0 0 0 0 0 0 0 0 0 0 0 0 0 0 0 0 0 0 0 0 0 0 0 0 0 0 0 0 0 0 0 0 0 0 0 0 0 0 0 0 0 0 0 0 0 0 0 0 0 0 0 0 0 0 0 0 0 0 0 0 0 0 0 0 0 0 0 0 0 0 0 0 0 0 0 0 0 0 0 0 0 0 0 0 0 0 0 0 0 0 0 0 0 0 0 0 0 0 0 0 0 0 0 0 0 0 0 0 0 0 0 0 0 0 0 0 0 0 0 0 0 0 0 0 0 0 0 0 0 0 0 0
0 0 0 0 0 0 0 0 0 0 0 0 0 0 0 0 0 0 0 0 0 0 0 0 0 0 0 0 0 0 0 0 0 0 0 0 0 0 0 0 0 0 0 0 0 0 0 0 0 0 0 0 0 0 0 0 0 0 0 0 0 0 0 0 0 0 0 0 0 0 0 0 0 0 0 0 0 0 0 0 0 0 0 0 0 0 0 0 0 0 0 0 0 0 0 0 0 0 0 0 0 0 0 0 0 0 0 0 0 0 0 0 0 0 0 0 0 0 0 0 0 0 0 0 0 0 0 0 0 0 0 0 0 0 0 0 0 0 0 0 0 0 0 0 0 0 0 0 0 0 0 0 0 0 0 0 0 0 0 0 0 0 0 0 0 0 0 0 0 0 0 0 0 0 0 0 0 0 0 0 0 0 0 0 0 0 0 0 0 0 0 0 0 0 0 0 0 0 0 0 0 0 0 0 0 0 0 0 0 0 0 0 0 0 0 0 0 0 0 0 0 0 0 0 0 0 0 0 0 0 0 0 0 0 0 0 0 0 0 0 0 0 0 0 0 0 0 0 0 0 0 0 0 0 0 0 0 0 0 0 0 0 0 0 0 0 0 0 0 0 0 0 0 0 0 0 0 0 0 0 0 0 0 0 0 0 0 0 0 0 0 0 0 0 0 0 0 0 0 0 0 0 0 0 0 0 0 0 0 0 0 0 0 0 0 0 0 0 0 0 0 0 0 0 0 0 0 0 0 0 0 0 0 0 0 0 0 0 0 0 0 0 0 0 0 0 0 0 0 0 0 0 0 0 0 0 0 0 0 0 0 0 0 0 0 0 0 0 0 0 0 0 0 0 0 0 0 0 0 0 0 0 0 0
0 0 0 0 0 0 0 0 0 0 0 0 0 0 0 0 0 0 0 0 0 0 0 0 0 0 0 0 0 0 0 0 0 0 0 0 0 0 0 0 0 0 0 0 0 0 0 0 0 0 0 0 0 0 0 0 0 0 0 0 0 0 0 0 0 0 0 0 0 0 0 0 0 0 0 0 0 0 0 0 0 0 0 0 0 0 0 0 0 0 0 0 0 0 0 0 0 0 0 0 0 0 0 0 0 0 0 0 0 0 0 0 0 0 0 0 0 0 0 0 0 0 0 0 0 0 0 0 0 0 0 0 0 0 0 0 0 0 0 0 0 0 0 0 0 0 0 0 0 0 0 0 0 0 0 0 0 0 0 0 0 0 0 0 0 0 0 0 0 0 0 0 0 0 0 0 0 0 0 0 0 0 0 0 0 0 0 0 0 0 0 0 0 0 0 0 0 0 0 0 0 0 0 0 0 0 0 0 0 0 0 0 0 0 0 0 0 0 0 0 0 0 0 0 0 0 0 0 0 0 0 0 0 0 0 0 0 0 0 0 0 0 0 0 0 0 0 0 0 0 0 0 0 0 0 0 0 0 0 0 0 0 0 0 0 0 0 0 0 0 0 0 0 0 0 0 0 0 0 0 0 0 0 0 0 0 0 0 0 0 0 0 0 0 0 0 0 0 0 0 0 0 0 0 0 0 0 0 0 0 0 0 0 0 0 0 0 0 0 0 0 0 0 0 0 0 0 0 0 0 0 0 0 0 0 0 0 0 0 0 0 0 0 0 0 0 0 0 0 0 0 0 0 0 0 0 0 0 0 0 0 0 0 0 0 0 0 0 0 0 0 0 0 0 0 0 0 0 0 0 0 0 0 0
0 0 0 0 0 0 0 0 0 0 0 0 0 0 0 25 37 50 25 37 50 25 37 50 25 37 50 25 37 50 25 37 50 25 37 50 0 0 0 0 0 0 0 0 0 0 0 0 0 0 0 0 0 0 0 0 0 0 0 0 0 0 0 0 0 0 0 0 0 0 0 0 0 0 0 25 37 50 25 37 50 25 37 50 25 37 50 25 37 50 25 37 50 25 37 50 0 0 0 0 0 0 0 0 0 0 0 0 0 0 0 0 0 0 0 0 0 0 0 0 0 0 0 0 0 0 0 0 0 0 0 0 0 0 0 25 37 50 25 37 50 25 37 50 25 37 50 25 37 50 25 37 50 25 37 50 0 0 0 0 0 0 0 0 0 0 0 0 0 0 0 0 0 0 0 0 0 0 0 0 0 0 0 0 0 0 0 0 0 0 0 0 0 0 0 25 37 50 25 37 50 25 37 50 25 37 50 25 37 50 25 37 50 25 37 50 0 0 0 0 0 0 0 0 0 0 0 0 0 0 0 0 0 0 0 0 0 0 0 0 0 0 0 0 0 0 0 0 0 0 0 0 0 0 0 25 37 50 25 37 50 25 37 50 25 37 50 25 37 50 25 37 50 25 37 50 0 0 0 0 0 0 0 0 0 0 0 0 0 0 0 0 0 0 0 0 0 0 0 0 0 0 0 0 0 0 0 0 0 0 0 0 0 0 0 25 37 50 25 37 50 25 37 50 25 37 50 25 37 50 25 37 50 25 37 50 0 0 0 0 0 0 0 0 0 0 0 0 0 0 0 0 0 0 0 0 0 0 0 0 0 0 0 0 0 0 0 0 0 0 0 0 0 0 0 0 0 0 0 0 0 0 0 0
0 0 0 0 0 0 0 0 0 0 0 0 0 0 0 25 37 50 25 37 50 25 37 50 25 37 50 25 37 50 25 37 50 25 37 50 0 0 0 0 0 0 0 0 0 0 0 0 0 0 0 0 0 0 0 0 0 0 0 0 0 0 0 0 0 0 0 0 0 0 0 0 0 0 0 25 37 50 25 37 50 25 37 50 25 37 50 25 37 50 25 37 50 25 37 50 0 0 0 0 0 0 0 0 0 0 0 0 0 0 0 0 0 0 0 0 0 0 0 0 0 0 0 0 0 0 0 0 0 0 0 0 0 0 0 25 37 50 25 37 50 25 37 50 25 37 50 25 37 50 25 37 50 25 37 50 0 0 0 0 0 0 0 0 0 0 0 0 0 0 0 0 0 0 0 0 0 0 0 0 0 0 0 0 0 0 0 0 0 0 0 0 0 0 0 25 37 50 25 37 50 25 37 50 25 37 50 25 37 50 25 37 50 25 37 50 0 0 0 0 0 0 0 0 0 0 0 0 0 0 0 0 0 0 0 0 0 0 0 0 0 0 0 0 0 0 0 0 0 0 0 0 0 0 0 25 37 50 25 37 50 25 37 50 25 37 50 25 37 50 25 37 50 25 37 50 0 0 0 0 0 0 0 0 0 0 0 0 0 0 0 0 0 0 0 0 0 0 0 0 0 0 0 0 0 0 0 0 0 0 0 0 0 0 0 25 37 50 25 37 50 25 37 50 25 37 50 25 37 50 25 37 50 25 37 50 0 0 0 0 0 0 0 0 0 0 0 0 0 0 0 0 0 0 0 0 0 0 0 0 0 0 0 0 0 0 0 0 0 0 0 0 0 0 0 0 0 0 0 0 0 0 0 0
0 0 0 0 0 0 0 0 0 0 0 0 0 0 0 25 37 50 25 37 50 25 37 50 25 37 50 25 37 50 25 37 50 25 37 50 0 0 0 0 0 0 0 0 0 0 0 0 0 0 0 0 0 0 0 0 0 0 0 0 0 0 0 0 0 0 0 0 0 0 0 0 0 0 0 25 37 50 25 37 50 25 37 50 25 37 50 25 37 50 25 37 50 25 37 50 0 0 0 0 0 0 0 0 0 0 0 0 0 0 0 0 0 0 0 0 0 0 0 0 0 0 0 0 0 0 0 0 0 0 0 0 0 0 0 25 37 50 25 37 50 25 37 50 25 37 50 25 37 50 25 37 50 25 37 50 0 0 0 0 0 0 0 0 0 0 0 0 0 0 0 0 0 0 0 0 0 0 0 0 0 0 0 0 0 0 0 0 0 0 0 0 0 0 0 25 37 50 25 37 50 25 37 50 25 37 50 25 37 50 25 37 50 25 37 50 0 0 0 0 0 0 0 0 0 0 0 0 0 0 0 0 0 0 0 0 0 0 0 0 0 0 0 0 0 0 0 0 0 0 0 0 0 0 0 25 37 50 25 37 50 25 37 50 25 37 50 25 37 50 25 37 50 25 37 50 0 0 0 0 0 0 0 0 0 0 0 0 0 0 0 0 0 0 0 0 0 0 0 0 0 0 0 0 0 0 0 0 0 0 0 0 0 0 0 25 37 50 25 37 50 25 37 50 25 37 50 25 37 50 25 37 50 25 37 50 0 0 0 0 0 0 0 0 0 0 0 0 0 0 0 0 0 0 0 0 0 0 0 0 0 0 0 0 0 0 0 0 0 0 0 0 0 0 0 0 0 0 0 0 0 0 0 0
0 0 0 0 0 0 0 0 0 0 0 0 0 0 0 25 37 50 25 37 50 25 37 50 25 37 50 25 37 50 25 37 50 25 37 50 0 0 0 0 0 0 0 0 0 0 0 0 0 0 0 0 0 0 0 0 0 0 0 0 0 0 0 0 0 0 0 0 0 0 0 0 0 0 0 25 37 50 25 37 50 25 37 50 25 37 50 25 37 50 25 37 50 25 37 50 0 0 0 0 0 0 0 0 0 0 0 0 0 0 0 0 0 0 0 0 0 0 0 0 0 0 0 0 0 0 0 0 0 0 0 0 0 0 0 25 37 50 25 37 50 25 37 50 25 37 50 25 37 50 25 37 50 25 37 50 0 0 0 0 0 0 0 0 0 0 0 0 0 0 0 0 0 0 0 0 0 0 0 0 0 0 0 0 0 0 0 0 0 0 0 0 0 0 0 25 37 50 25 37 50 25 37 50 25 37 50 25 37 50 25 37 50 25 37 50 0 0 0 0 0 0 0 0 0 0 0 0 0 0 0 0 0 0 0 0 0 0 0 0 0 0 0 0 0 0 0 0 0 0 0 0 0 0 0 25 37 50 25 37 50 25 37 50 25 37 50 25 37 50 25 37 50 25 37 50 0 0 0 0 0 0 0 0 0 0 0 0 0 0 0 0 0 0 0 0 0 0 0 0 0 0 0 0 0 0 0 0 0 0 0 0 0 0 0 25 37 50 25 37 50 25 37 50 25 37 50 25 37 50 25 37 50 25 37 50 0 0 0 0 0 0 0 0 0 0 0 0 0 0 0 0 0 0 0 0 0 0 0 0 0 0 0 0 0 0 0 0 0 0 0 0 0 0 0 0 0 0 0 0 0 0 0 0
0 0 0 0 0 0 0 0 0 0 0 0 0 0 0 25 37 50 25 37 50 25 37 50 25 37 50 25 37 50 25 37 50 25 37 50 0 0 0 0 0 0 0 0 0 0 0 0 0 0 0 0 0 0 0 0 0 0 0 0 0 0 0 0 0 0 0 0 0 0 0 0 0 0 0 25 37 50 25 37 50 25 37 50 25 37 50 25 37 50 25 37 50 25 37 50 0 0 0 0 0 0 0 0 0 0 0 0 0 0 0 0 0 0 0 0 0 0 0 0 0 0 0 0 0 0 0 0 0 0 0 0 0 0 0 25 37 50 25 37 50 25 37 50 25 37 50 25 37 50 25 37 50 25 37 50 0 0 0 0 0 0 0 0 0 0 0 0 0 0 0 0 0 0 0 0 0 0 0 0 0 0 0 0 0 0 0 0 0 0 0 0 0 0 0 25 37 50 25 37 50 25 37 50 25 37 50 25 37 50 25 37 50 25 37 50 0 0 0 0 0 0 0 0 0 0 0 0 0 0 0 0 0 0 0 0 0 0 0 0 0 0 0 0 0 0 0 0 0 0 0 0 0 0 0 25 37 50 25 37 50 25 37 50 25 37 50 25 37 50 25 37 50 25 37 50 0 0 0 0 0 0 0 0 0 0 0 0 0 0 0 0 0 0 0 0 0 0 0 0 0 0 0 0 0 0 0 0 0 0 0 0 0 0 0 25 37 50 25 37 50 25 37 50 25 37 50 25 37 50 25 37 50 25 37 50 0 0 0 0 0 0 0 0 0 0 0 0 0 0 0 0 0 0 0 0 0 0 0 0 0 0 0 0 0 0 0 0 0 0 0 0 0 0 0 0 0 0 0 0 0 0 0 0
0 0 0 0 0 0 0 0 0 0 0 0 0 0 0 25 37 50 25 37 50 25 37 50 25 37 50 25 37 50 25 37 50 25 37 50 0 0 0 0 0 0 0 0 0 0 0 0 0 0 0 0 0 0 0 0 0 0 0 0 0 0 0 0 0 0 0 0 0 0 0 0 0 0 0 25 37 50 25 37 50 25 37 50 25 37 50 25 37 50 25 37 50 25 37 50 0 0 0 0 0 0 0 0 0 0 0 0 0 0 0 0 0 0 0 0 0 0 0 0 0 0 0 0 0 0 0 0 0 0 0 0 0 0 0 25 37 50 25 37 50 25 37 50 25 37 50 25 37 50 25 37 50 25 37 50 0 0 0 0 0 0 0 0 0 0 0 0 0 0 0 0 0 0 0 0 0 0 0 0 0 0 0 0 0 0 0 0 0 0 0 0 0 0 0 25 37 50 25 37 50 25 37 50 25 37 50 25 37 50 25 37 50 25 37 50 0 0 0 0 0 0 0 0 0 0 0 0 0 0 0 0 0 0 0 0 0 0 0 0 0 0 0 0 0 0 0 0 0 0 0 0 0 0 0 25 37 50 25 37 50 25 37 50 25 37 50 25 37 50 25 37 50 25 37 50 0 0 0 0 0 0 0 0 0 0 0 0 0 0 0 0 0 0 0 0 0 0 0 0 0 0 0 0 0 0 0 0 0 0 0 0 0 0 0 25 37 50 25 37 50 25 37 50 25 37 50 25 37 50 25 37 50 25 37 50 0 0 0 0 0 0 0 0 0 0 0 0 0 0 0 0 0 0 0 0 0 0 0 0 0 0 0 0 0 0 0 0 0 0 0 0 0 0 0 0 0 0 0 0 0 0 0 0
0 0 0 0 0 0 0 0 0 0 0 0 0 0 0 25 37 50 25 37 50 25 37 50 25 37 50 25 37 50 25 37 50 25 37 50 0 0 0 0 0 0 0 0 0 0 0 0 0 0 0 0 0 0 0 0 0 0 0 0 0 0 0 0 0 0 0 0 0 0 0 0 0 0 0 25 37 50 25 37 50 25 37 50 25 37 50 25 37 50 25 37 50 25 37 50 0 0 0 0 0 0 0 0 0 0 0 0 0 0 0 0 0 0 0 0 0 0 0 0 0 0 0 0 0 0 0 0 0 0 0 0 0 0 0 25 37 50 25 37 50 25 37 50 25 37 50 25 37 50 25 37 50 25 37 50 0 0 0 0 0 0 0 0 0 0 0 0 0 0 0 0 0 0 0 0 0 0 0 0 0 0 0 0 0 0 0 0 0 0 0 0 0 0 0 25 37 50 25 37 50 25 37 50 25 37 50 25 37 50 25 37 50 25 37 50 0 0 0 0 0 0 0 0 0 0 0 0 0 0 0 0 0 0 0 0 0 0 0 0 0 0 0 0 0 0 0 0 0 0 0 0 0 0 0 25 37 50 25 37 50 25 37 50 25 37 50 25 37 50 25 37 50 25 37 50 0 0 0 0 0 0 0 0 0 0 0 0 0 0 0 0 0 0 0 0 0 0 0 0 0 0 0 0 0 0 0 0 0 0 0 0 0 0 0 25 37 50 25 37 50 25 37 50 25 37 50 25 37 50 25 37 50 25 37 50 0 0 0 0 0 0 0 0 0 0 0 0 0 0 0 0 0 0 0 0 0 0 0 0 0 0 0 0 0 0 0 0 0 0 0 0 0 0 0 0 0 0 0 0 0 0 0 0
0 0 0 0 0 0 0 0 0 0 0 0 0 0 0 25 37 50 25 37 50 25 37 50 25 37 50 25 37 50 25 37 50 25 37 50 0 0 0 0 0 0 0 0 0 0 0 0 0 0 0 0 0 0 0 0 0 0 0 0 0 0 0 0 0 0 0 0 0 0 0 0 0 0 0 25 37 50 25 37 50 25 37 50 25 37 50 25 37 50 25 37 50 25 37 50 0 0 0 0 0 0 0 0 0 0 0 0 0 0 0 0 0 0 0 0 0 0 0 0 0 0 0 0 0 0 0 0 0 0 0 0 0 0 0 25 37 50 25 37 50 25 37 50 25 37 50 25 37 50 25 37 50 25 37 50 0 0 0 0 0 0 0 0 0 0 0 0 0 0 0 0 0 0 0 0 0 0 0 0 0 0 0 0 0 0 0 0 0 0 0 0 0 0 0 25 37 50 25 37 50 25 37 50 25 37 50 25 37 50 25 37 50 25 37 50 0 0 0 0 0 0 0 0 0 0 0 0 0 0 0 0 0 0 0 0 0 0 0 0 0 0 0 0 0 0 0 0 0 0 0 0 0 0 0 25 37 50 25 37 50 25 37 50 25 37 50 25 37 50 25 37 50 25 37 50 0 0 0 0 0 0 0 0 0 0 0 0 0 0 0 0 0 0 0 0 0 0 0 0 0 0 0 0 0 0 0 0 0 0 0 0 0 0 0 25 37 50 25 37 50 25 37 50 25 37 50 25 37 50 25 37 50 25 37 50 0 0 0 0 0 0 0 0 0 0 0 0 0 0 0 0 0 0 0 0 0 0 0 0 0 0 0 0 0 0 0 0 0 0 0 0 0 0 0 0 0 0 0 0 0 0 0 0
0 0 0 0 0 0 0 0 0 0 0 0 0 0 0 25 37 50 25 37 50 25 37 50 25 37 50 25 37 50 25 37 50 25 37 50 0 0 0 0 0 0 0 0 0 0 0 0 0 0 0 0 0 0 0 0 0 0 0 0 0 0 0 0 0 0 0 0 0 0 0 0 0 0 0 25 37 50 25 37 50 25 37 50 25 37 50 25 37 50 25 37 50 25 37 50 0 0 0 0 0 0 0 0 0 0 0 0 0 0 0 0 0 0 0 0 0 0 0 0 0 0 0 0 0 0 0 0 0 0 0 0 0 0 0 25 37 50 25 37 50 25 37 50 25 37 50 25 37 50 25 37 50 25 37 50 0 0 0 0 0 0 0 0 0 0 0 0 0 0 0 0 0 0 0 0 0 0 0 0 0 0 0 0 0 0 0 0 0 0 0 0 0 0 0 25 37 50 25 37 50 25 37 50 25 37 50 25 37 50 25 37 50 25 37 50 0 0 0 0 0 0 0 0 0 0 0 0 0 0 0 0 0 0 0 0 0 0 0 0 0 0 0 0 0 0 0 0 0 0 0 0 0 0 0 25 37 50 25 37 50 25 37 50 25 37 50 25 37 50 25 37 50 25 37 50 0 0 0 0 0 0 0 0 0 0 0 0 0 0 0 0 0 0 0 0 0 0 0 0 0 0 0 0 0 0 0 0 0 0 0 0 0 0 0 25 37 50 25 37 50 25 37 50 25 37 50 25 37 50 25 37 50 25 37 50 0 0 0 0 0 0 0 0 0 0 0 0 0 0 0 0 0 0 0 0 0 0 0 0 0 0 0 0 0 0 0 0 0 0 0 0 0 0 0 0 0 0 0 0 0 0 0 0
0 0 0 0 0 0 0 0 0 0 0 0 0 0 0 25 37 50 25 37 50 25 37 50 25 37 50 25 37 50 25 37 50 25 37 50 0 0 0 0 0 0 0 0 0 0 0 0 0 0 0 0 0 0 0 0 0 0 0 0 0 0 0 0 0 0 0 0 0 0 0 0 0 0 0 25 37 50 25 37 50 25 37 50 25 37 50 25 37 50 25 37 50 25 37 50 0 0 0 0 0 0 0 0 0 0 0 0 0 0 0 0 0 0 0 0 0 0 0 0 0 0 0 0 0 0 0 0 0 0 0 0 0 0 0 25 37 50 25 37 50 25 37 50 25 37 50 25 37 50 25 37 50 25 37 50 0 0 0 0 0 0 0 0 0 0 0 0 0 0 0 0 0 0 0 0 0 0 0 0 0 0 0 0 0 0 0 0 0 0 0 0 0 0 0 25 37 50 25 37 50 25 37 50 25 37 50 25 37 50 25 37 50 25 37 50 0 0 0 0 0 0 0 0 0 0 0 0 0 0 0 0 0 0 0 0 0 0 0 0 0 0 0 0 0 0 0 0 0 0 0 0 0 0 0 25 37 50 25 37 50 25 37 50 25 37 50 25 37 50 25 37 50 25 37 50 0 0 0 0 0 0 0 0 0 0 0 0 0 0 0 0 0 0 0 0 0 0 0 0 0 0 0 0 0 0 0 0 0 0 0 0 0 0 0 25 37 50 25 37 50 25 37 50 25 37 50 25 37 50 25 37 50 25 37 50 0 0 0 0 0 0 0 0 0 0 0 0 0 0 0 0 0 0 0 0 0 0 0 0 0 0 0 0 0 0 0 0 0 0 0 0 0 0 0 0 0 0 0 0 0 0 0 0
0 0 0 0 0 0 0 0 0 0 0 0 0 0 0 25 37 50 25 37 50 25 37 50 25 37 50 25 37 50 25 37 50 25 37 50 0 0 0 0 0 0 0 0 0 0 0 0 0 0 0 0 0 0 0 0 0 0 0 0 0 0 0 0 0 0 0 0 0 0 0 0 0 0 0 25 37 50 25 37 50 25 37 50 25 37 50 25 37 50 25 37 50 25 37 50 0 0 0 0 0 0 0 0 0 0 0 0 0 0 0 0 0 0 0 0 0 0 0 0 0 0 0 0 0 0 0 0 0 0 0 0 0 0 0 25 37 50 25 37 50 25 37 50 25 37 50 25 37 50 25 37 50 25 37 50 0 0 0 0 0 0 0 0 0 0 0 0 0 0 0 0 0 0 0 0 0 0 0 0 0 0 0 0 0 0 0 0 0 0 0 0 0 0 0 25 37 50 25 37 50 25 37 50 25 37 50 25 37 50 25 37 50 25 37 50 0 0 0 0 0 0 0 0 0 0 0 0 0 0 0 0 0 0 0 0 0 0 0 0 0 0 0 0 0 0 0 0 0 0 0 0 0 0 0 25 37 50 25 37 50 25 37 50 25 37 50 25 37 50 25 37 50 25 37 50 0 0 0 0 0 0 0 0 0 0 0 0 0 0 0 0 0 0 0 0 0 0 0 0 0 0 0 0 0 0 0 0 0 0 0 0 0 0 0 25 37 50 25 37 50 25 37 50 25 37 50 25 37 50 25 37 50 25 37 50 0 0 0 0 0 0 0 0 0 0 0 0 0 0 0 0 0 0 0 0 0 0 0 0 0 0 0 0 0 0 0 0 0 0 0 0 0 0 0 0 0 0 0 0 0 0 0 0
0 0 0 0 0 0 0 0 0 0 0 0 0 0 0 25 37 50 25 37 50 25 37 50 25 37 50 25 37 50 25 37 50 25 37 50 0 0 0 0 0 0 0 0 0 0 0 0 0 0 0 0 0 0 0 0 0 0 0 0 0 0 0 0 0 0 0 0 0 0 0 0 0 0 0 25 37 50 25 37 50 25 37 50 25 37 50 25 37 50 25 37 50 25 37 50 0 0 0 0 0 0 0 0 0 0 0 0 0 0 0 0 0 0 0 0 0 0 0 0 0 0 0 0 0 0 0 0 0 0 0 0 0 0 0 25 37 50 25 37 50 25 37 50 25 37 50 25 37 50 25 37 50 25 37 50 0 0 0 0 0 0 0 0 0 0 0 0 0 0 0 0 0 0 0 0 0 0 0 0 0 0 0 0 0 0 0 0 0 0 0 0 0 0 0 25 37 50 25 37 50 25 37 50 25 37 50 25 37 50 25 37 50 25 37 50 0 0 0 0 0 0 0 0 0 0 0 0 0 0 0 0 0 0 0 0 0 0 0 0 0 0 0 0 0 0 0 0 0 0 0 0 0 0 0 25 37 50 25 37 50 25 37 50 25 37 50 25 37 50 25 37 50 25 37 50 0 0 0 0 0 0 0 0 0 0 0 0 0 0 0 0 0 0 0 0 0 0 0 0 0 0 0 0 0 0 0 0 0 0 0 0 0 0 0 25 37 50 25 37 50 25 37 50 25 37 50 25 37 50 25 37 50 25 37 50 0 0 0 0 0 0 0 0 0 0 0 0 0 0 0 0 0 0 0 0 0 0 0 0 0 0 0 0 0 0 0 0 0 0 0 0 0 0 0 0 0 0 0 0 0 0 0 0
0 0 0 0 0 0 0 0 0 0 0 0 0 0 0 25 37 50 25 37 50 25 37 50 25 37 50 25 37 50 25 37 50 25 37 50 0 0 0 0 0 0 0 0 0 0 0 0 0 0 0 0 0 0 0 0 0 0 0 0 0 0 0 0 0 0 0 0 0 0 0 0 0 0 0 25 37 50 25 37 50 25 37 50 25 37 50 25 37 50 25 37 50 25 37 50 0 0 0 0 0 0 0 0 0 0 0 0 0 0 0 0 0 0 0 0 0 0 0 0 0 0 0 0 0 0 0 0 0 0 0 0 0 0 0 25 37 50 25 37 50 25 37 50 25 37 50 25 37 50 25 37 50 25 37 50 0 0 0 0 0 0 0 0 0 0 0 0 0 0 0 0 0 0 0 0 0 0 0 0 0 0 0 0 0 0 0 0 0 0 0 0 0 0 0 25 37 50 25 37 50 25 37 50 25 37 50 25 37 50 25 37 50 25 37 50 0 0 0 0 0 0 0 0 0 0 0 0 0 0 0 0 0 0 0 0 0 0 0 0 0 0 0 0 0 0 0 0 0 0 0 0 0 0 0 25 37 50 25 37 50 25 37 50 25 37 50 25 37 50 25 37 50 25 37 50 0 0 0 0 0 0 0 0 0 0 0 0 0 0 0 0 0 0 0 0 0 0 0 0 0 0 0 0 0 0 0 0 0 0 0 0 0 0 0 25 37 50 25 37 50 25 37 50 25 37 50 25 37 50 25 37 50 25 37 50 0 0 0 0 0 0 0 0 0 0 0 0 0 0 0 0 0 0 0 0 0 0 0 0 0 0 0 0 0 0 0 0 0 0 0 0 0 0 0 0 0 0 0 0 0 0 0 0
0 0 0 0 0 0 0 0 0 0 0 0 60 78 94 60 78 94 60 78 94 60 78 94 60 78 94 60 78 94 60 78 94 60 78 94 60 78 94 60 78 94 60 78 94 0 0 0 0 0 0 0 0 0 0 0 0 0 0 0 0 0 0 0 0 0 0 0 0 0 0 0 60 78 94 60 78 94 60 78 94 60 78 94 60 78 94 60 78 94 60 78 94 60 78 94 60 78 94 60 78 94 60 78 94 0 0 0 0 0 0 0 0 0 0 0 0 0 0 0 0 0 0 0 0 0 0 0 0 0 0 0 60 78 94 60 78 94 60 78 94 60 78 94 60 78 94 60 78 94 60 78 94 60 78 94 60 78 94 60 78 94 60 78 94 0 0 0 0 0 0 0 0 0 0 0 0 0 0 0 0 0 0 0 0 0 0 0 0 0 0 0 60 78 94 60 78 94 60 78 94 60 78 94 60 78 94 60 78 94 60 78 94 60 78 94 60 78 94 60 78 94 60 78 94 0 0 0 0 0 0 0 0 0 0 0 0 0 0 0 0 0 0 0 0 0 0 0 0 0 0 0 60 78 94 60 78 94 60 78 94 60 78 94 60 78 94 60 78 94 60 78 94 60 78 94 60 78 94 60 78 94 60 78 94 0 0 0 0 0 0 0 0 0 0 0 0 0 0 0 0 0 0 0 0 0 0 0 0 0 0 0 60 78 94 60 78 94 60 78 94 60 78 94 60 78 94 60 78 94 60 78 94 60 78 94 60 78 94 60 78 94 60 78 94 0 0 0 0 0 0 0 0 0 0 0 0 0 0 0 0 0 0 0 0 0 0 0 0 0 0 0 0 0 0 0 0 0 0 0 0 0 0 0
0 0 0 0 0 0 0 0 0 0 0 0 60 78 94 60 78 94 60 78 94 60 78 94 60 78 94 60 78 94 60 78 94 60 78 94 60 78 94 60 78 94 60 78 94 0 0 0 0 0 0 0 0 0 0 0 0 0 0 0 0 0 0 0 0 0 0 0 0 0 0 0 60 78 94 60 78 94 60 78 94 60 78 94 60 78 94 60 78 94 60 78 94 60 78 94 60 78 94 60 78 94 60 78 94 0 0 0 0 0 0 0 0 0 0 0 0 0 0 0 0 0 0 0 0 0 0 0 0 0 0 0 60 78 94 60 78 94 60 78 94 60 78 94 60 78 94 60 78 94 60 78 94 60 78 94 60 78 94 60 78 94 60 78 94 0 0 0 0 0 0 0 0 0 0 0 0 0 0 0 0 0 0 0 0 0 0 0 0 0 0 0 60 78 94 60 78 94 60 78 94 60 78 94 60 78 94 60 78 94 60 78 94 60 78 94 60 78 94 60 78 94 60 78 94 0 0 0 0 0 0 0 0 0 0 0 0 0 0 0 0 0 0 0 0 0 0 0 0 0 0 0 60 78 94 60 78 94 60 78 94 60 78 94 60 78 94 60 78 94 60 78 94 60 78 94 60 78 94 60 78 94 60 78 94 0 0 0 0 0 0 0 0 0 0 0 0 0 0 0 0 0 0 0 0 0 0 0 0 0 0 0 60 78 94 60 78 94 60 78 94 60 78 94 60 78 94 60 78 94 60 78 94 60 78 94 60 78 94 60 78 94 60 78 94 0 0 0 0 0 0 0 0 0 0 0 0 0 0 0 0 0 0 0 0 0 0 0 0 0 0 0 0 0 0 0 0 0 0 0 0 0 0 0
0 0 0 0 0 0 0 0 0 0 0 0 60 78 94 60 78 94 60 78 94 60 78 94 60 78 94 60 78 94 60 78 94 60 78 94 60 78 94 60 78 94 60 78 94 0 0 0 0 0 0 0 0 0 0 0 0 0 0 0 0 0 0 0 0 0 0 0 0 0 0 0 60 78 94 60 78 94 60 78 94 60 78 94 60 78 94 60 78 94 60 78 94 60 78 94 60 78 94 60 78 94 60 78 94 0 0 0 0 0 0 0 0 0 0 0 0 0 0 0 0 0 0 0 0 0 0 0 0 0 0 0 60 78 94 60 78 94 60 78 94 60 78 94 60 78 94 60 78 94 60 78 94 60 78 94 60 78 94 60 78 94 60 78 94 0 0 0 0 0 0 0 0 0 0 0 0 0 0 0 0 0 0 0 0 0 0 0 0 0 0 0 60 78 94 60 78 94 60 78 94 60 78 94 60 78 94 60 78 94 60 78 94 60 78 94 60 78 94 60 78 94 60 78 94 0 0 0 0 0 0 0 0 0 0 0 0 0 0 0 0 0 0 0 0 0 0 0 0 0 0 0 60 78 94 60 78 94 60 78 94 60 78 94 60 78 94 60 78 94 60 78 94 60 78 94 60 78 94 60 78 94 60 78 94 0 0 0 0 0 0 0 0 0 0 0 0 0 0 0 0 0 0 0 0 0 0 0 0 0 0 0 60 78 94 60 78 94 60 78 94 60 78 94 60 78 94 60 78 94 60 78 94 60 78 94 60 78 94 60 78 94 60 78 94 0 0 0 0 0 0 0 0 0 0 0 0 0 0 0 0 0 0 0 0 0 0 0 0 0 0 0 0 0 0 0 0 0 0 0 0 0 0 0
0 0 0 0 0 0 0 0 0 0 0 0 60 78 94 25 37 50 25 37 50 25 37 50 25 37 50 25 37 50 25 37 50 25 37 50 25 37 50 25 37 50 25 37 50 25 37 50 25 37 50 25 37 50 25 37 50 25 37 50 25 37 50 25 37 50 25 37 50 25 37 50 25 37 50 25 37 50 25 37 50 25 37 50 25 37 50 25 37 50 60 78 94 60 78 94 60 78 94 60 78 94 60 78 94 0 0 0 0 0 0 0 0 0 0 0 0 0 0 0 0 0 0 0 0 0 0 0 0 0 0 0 60 78 94 60 78 94 60 78 94 60 78 94 60 78 94 60 78 94 60 78 94 60 78 94 60 78 94 60 78 94 60 78 94 0 0 0 0 0 0 0 0 0 0 0 0 0 0 0 0 0 0 0 0 0 0 0 0 0 0 0 60 78 94 60 78 94 60 78 94 60 78 94 60 78 94 60 78 94 60 78 94 60 78 94 60 78 94 60 78 94 60 78 94 0 0 0 0 0 0 0 0 0 0 0 0 0 0 0 0 0 0 0 0 0 0 0 0 0 0 0 60 78 94 60 78 94 60 78 94 60 78 94 60 78 94 60 78 94 60 78 94 60 78 94 60 78 94 60 78 94 60 78 94 0 0 0 0 0 0 0 0 0 0 0 0 0 0 0 0 0 0 0 0 0 0 0 0 0 0 0 60 78 94 60 78 94 60 78 94 60 78 94 60 78 94 60 78 94 60 78 94 60 78 94 60 78 94 60 78 94 60 78 94 0 0 0 0 0 0 0 0 0 0 0 0 0 0 0 0 0 0 0 0 0 0 0 0 0 0 0 0 0 0 0 0 0 0 0 0 0 0 0
0 0 0 0 0 0 0 0 0 0 0 0 60 78 94 25 37 50 25 37 50 25 37 50 25 37 50 25 37 50 25 37 50 25 37 50 25 37 50 25 37 50 25 37 50 25 37 50 25 37 50 25 37 50 25 37 50 25 37 50 25 37 50 25 37 50 25 37 50 25 37 50 25 37 50 25 37 50 25 37 50 25 37 50 25 37 50 25 37 50 60 78 94 60 78 94 60 78 94 60 78 94 60 78 94 25 37 50 25 37 50 25 37 50 25 37 50 25 37 50 25 37 50 25 37 50 25 37 50 25 37 50 25 37 50 25 37 50 25 37 50 25 37 50 25 37 50 25 37 50 25 37 50 25 37 50 25 37 50 25 37 50 25 37 50 0 0 0 0 0 0 0 0 0 0 0 0 0 0 0 0 0 0 0 0 0 0 0 0 0 0 0 60 78 94 60 78 94 60 78 94 60 78 94 60 78 94 60 78 94 60 78 94 60 78 94 60 78 94 60 78 94 60 78 94 0 0 0 0 0 0 0 0 0 0 0 0 0 0 0 0 0 0 0 0 0 0 0 0 0 0 0 60 78 94 60 78 94 60 78 94 60 78 94 60 78 94 60 78 94 60 78 94 60 78 94 60 78 94 60 78 94 60 78 94 0 0 0 0 0 0 0 0 0 0 0 0 0 0 0 0 0 0 0 0 0 0 0 0 0 0 0 60 78 94 60 78 94 60 78 94 60 78 94 60 78 94 60 78 94 60 78 94 60 78 94 60 78 94 60 78 94 60 78 94 0 0 0 0 0 0 0 0 0 0 0 0 0 0 0 0 0 0 0 0 0 0 0 0 0 0 0 0 0 0 0 0 0 0 0 0 0 0 0
0 0 0 0 0 0 0 0 0 0 0 0 0 0 0 25 37 50 25 37 50 25 37 50 25 37 50 25 37 50 25 37 50 25 37 50 25 37 50 25 37 50 25 37 50 25 37 50 25 37 50 25 37 50 25 37 50 25 37 50 25 37 50 25 37 50 25 37 50 25 37 50 25 37 50 25 37 50 25 37 50 25 37 50 25 37 50 25 37 50 0 0 0 0 0 0 0 0 0 0 0 0 0 0 0 25 37 50 25 37 50 25 37 50 25 37 50 25 37 50 25 37 50 25 37 50 25 37 50 25 37 50 25 37 50 25 37 50 25 37 50 25 37 50 25 37 50 25 37 50 25 37 50 25 37 50 25 37 50 25 37 50 25 37 50 0 0 0 0 0 0 0 0 0 0 0 0 0 0 0 0 0 0 0 0 0 0 0 0 0 0 0 0 0 0 25 37 50 25 37 50 25 37 50 25 37 50 25 37 50 25 37 50 25 37 50 25 37 50 25 37 50 25 37 50 25 37 50 25 37 50 25 37 50 25 37 50 25 37 50 25 37 50 0 0 0 0 0 0 0 0 0 0 0 0 0 0 0 0 0 0 0 0 0 0 0 0 0 0 0 0 0 0 0 0 0 0 0 0 0 0 0 0 0 0 0 0 0 0 0 0 0 0 0 0 0 0 0 0 0 0 0 0 0 0 0 0 0 0 0 0 0 0 0 0 0 0 0 0 0 0 0 0 0 0 0 0 0 0 0 0 0 0 0 0 0 0 0 0 0 0 0 0 0 0 0 0 0 0 0 0 0 0 0 0 0 0 0 0 0 0 0 0 0 0 0 0 0 0 0 0 0 0 0 0 0 0 0 0 0 0 0 0 0
0 0 0 0 0 0 0 0 0 0 0 0 0 0 0 25 37 50 25 37 50 25 37 50 25 37 50 25 37 50 25 37 50 25 37 50 25 37 50 25 37 50 25 37 50 25 37 50 25 37 50 25 37 50 25 37 50 25 37 50 25 37 50 25 37 50 25 37 50 25 37 50 25 37 50 25 37 50 25 37 50 25 37 50 25 37 50 25 37 50 0 0 0 0 0 0 0 0 0 0 0 0 0 0 0 25 37 50 25 37 50 25 37 50 25 37 50 25 37 50 25 37 50 25 37 50 25 37 50 25 37 50 25 37 50 25 37 50 25 37 50 25 37 50 25 37 50 25 37 50 25 37 50 25 37 50 25 37 50 25 37 50 25 37 50 0 0 0 0 0 0 0 0 0 0 0 0 0 0 0 0 0 0 0 0 0 0 0 0 0 0 0 0 0 0 25 37 50 25 37 50 25 37 50 25 37 50 25 37 50 25 37 50 25 37 50 25 37 50 25 37 50 25 37 50 25 37 50 25 37 50 25 37 50 25 37 50 25 37 50 25 37 50 0 0 0 0 0 0 0 0 0 0 0 0 0 0 0 0 0 0 0 0 0 0 0 0 0 0 0 0 0 0 0 0 0 0 0 0 0 0 0 0 0 0 25 37 50 25 37 50 25 37 50 25 37 50 25 37 50 25 37 50 25 37 50 25 37 50 25 37 50 25 37 50 25 37 50 25 37 50 0 0 0 0 0 0 0 0 0 0 0 0 0 0 0 0 0 0 0 0 0 0 0 0 0 0 0 0 0 0 0 0 0 0 0 0 0 0 0 0 0 0 0 0 0 0 0 0 0 0 0 0 0 0 0 0 0 0 0 0 0 0 0
0 0 0 0 0 0 0 0 0 0 0 0 0 0 0 25 37 50 25 37 50 25 37 50 25 37 50 25 37 50 25 37 50 25 37 50 25 37 50 25 37 50 25 37 50 25 37 50 25 37 50 25 37 50 25 37 50 25 37 50 25 37 50 25 37 50 25 37 50 25 37 50 25 37 50 25 37 50 25 37 50 25 37 50 25 37 50 25 37 50 0 0 0 0 0 0 0 0 0 0 0 0 0 0 0 25 37 50 25 37 50 25 37 50 25 37 50 25 37 50 25 37 50 25 37 50 25 37 50 25 37 50 25 37 50 25 37 50 25 37 50 25 37 50 25 37 50 25 37 50 25 37 50 25 37 50 25 37 50 25 37 50 25 37 50 0 0 0 0 0 0 0 0 0 0 0 0 0 0 0 0 0 0 0 0 0 0 0 0 0 0 0 0 0 0 25 37 50 25 37 50 25 37 50 25 37 50 25 37 50 25 37 50 25 37 50 25 37 50 25 37 50 25 37 50 25 37 50 25 37 50 25 37 50 25 37 50 25 37 50 25 37 50 0 0 0 0 0 0 0 0 0 0 0 0 0 0 0 0 0 0 0 0 0 0 0 0 0 0 0 0 0 0 0 0 0 0 0 0 0 0 0 0 0 0 25 37 50 25 37 50 25 37 50 25 37 50 25 37 50 25 37 50 25 37 50 25 37 50 25 37 50 25 37 50 25 37 50 25 37 50 0 0 0 0 0 0 0 0 0 0 0 0 0 0 0 0 0 0 0 0 0 0 0 0 0 0 0 0 0 0 0 0 0 0 0 0 0 0 0 0 0 0 0 0 0 0 0 0 0 0 0 0 0 0 0 0 0 0 0 0 0 0 0
0 0 0 0 0 0 0 0 0 0 0 0 0 0 0 25 37 50 25 37 50 25 37 50 25 37 50 25 37 50 25 37 50 25 37 50 25 37 50 25 37 50 25 37 50 25 37 50 25 37 50 25 37 50 25 37 50 25 37 50 25 37 50 25 37 50 25 37 50 25 37 50 25 37 50 25 37 50 25 37 50 25 37 50 25 37 50 25 37 50 0 0 0 0 0 0 0 0 0 0 0 0 0 0 0 25 37 50 25 37 50 25 37 50 25 37 50 25 37 50 25 37 50 25 37 50 25 37 50 25 37 50 25 37 50 25 37 50 25 37 50 25 37 50 25 37 50 25 37 50 25 37 50 25 37 50 25 37 50 25 37 50 25 37 50 0 0 0 0 0 0 0 0 0 0 0 0 0 0 0 0 0 0 0 0 0 0 0 0 0 0 0 0 0 0 25 37 50 25 37 50 25 37 50 25 37 50 25 37 50 25 37 50 25 37 50 25 37 50 25 37 50 25 37 50 25 37 50 25 37 50 25 37 50 25 37 50 25 37 50 25 37 50 0 0 0 0 0 0 0 0 0 0 0 0 0 0 0 0 0 0 0 0 0 0 0 0 0 0 0 0 0 0 0 0 0 0 0 0 0 0 0 0 0 0 25 37 50 25 37 50 25 37 50 25 37 50 25 37 50 25 37 50 25 37 50 25 37 50 25 37 50 25 37 50 25 37 50 25 37 50 0 0 0 0 0 0 0 0 0 0 0 0 0 0 0 0 0 0 0 0 0 0 0 0 0 0 0 0 0 0 0 0 0 0 0 0 0 0 0 0 0 0 0 0 0 0 0 0 0 0 0 0 0 0 0 0 0 0 0 0 0 0 0
0 0 0 0 0 0 0 0 0 0 0 0 0 0 0 25 37 50 25 37 50 36 255 96 36 255 96 36 255 96 36 255 96 36 255 96 36 255 96 36 255 96 36 255 96 36 255 96 36 255 96 36 255 96 36 255 96 36 255 96 36 255 96 36 255 96 36 255 96 36 255 96 36 255 96 36 255 96 36 255 96 36 255 96 25 37 50 25 37 50 0 0 0 0 0 0 0 0 0 0 0 0 0 0 0 25 37 50 25 37 50 36 255 96 36 255 96 36 255 96 36 255 96 36 255 96 36 255 96 36 255 96 36 255 96 36 255 96 36 255 96 36 255 96 36 255 96 36 255 96 36 255 96 36 255 96 36 255 96 25 37 50 25 37 50 0 0 0 0 0 0 0 0 0 0 0 0 0 0 0 0 0 0 0 0 0 0 0 0 0 0 0 0 0 0 25 37 50 25 37 50 36 255 96 36 255 96 36 255 96 36 255 96 36 255 96 36 255 96 36 255 96 36 255 96 36 255 96 36 255 96 36 255 96 36 255 96 25 37 50 25 37 50 0 0 0 0 0 0 0 0 0 0 0 0 0 0 0 0 0 0 0 0 0 0 0 0 0 0 0 0 0 0 0 0 0 0 0 0 0 0 0 0 0 0 25 37 50 25 37 50 36 255 96 36 255 96 36 255 96 36 255 96 36 255 96 36 255 96 36 255 96 36 255 96 25 37 50 25 37 50 0 0 0 0 0 0 0 0 0 0 0 0 0 0 0 0 0 0 0 0 0 0 0 0 0 0 0 0 0 0 0 0 0 0 0 0 0 0 0 0 0 0 0 0 0 0 0 0 0 0 0 0 0 0 0 0 0 0 0 0 0 0 0
0 0 0 0 0 0 0 0 0 0 0 0 0 0 0 25 37 50 25 37 50 25 37 50 25 37 50 25 37 50 25 37 50 25 37 50 25 37 50 25 37 50 25 37 50 25 37 50 25 37 50 25 37 50 25 37 50 25 37 50 25 37 50 25 37 50 25 37 50 25 37 50 25 37 50 25 37 50 25 37 50 25 37 50 25 37 50 25 37 50 0 0 0 0 0 0 0 0 0 0 0 0 0 0 0 25 37 50 25 37 50 25 37 50 25 37 50 25 37 50 25 37 50 25 37 50 25 37 50 25 37 50 25 37 50 25 37 50 25 37 50 25 37 50 25 37 50 25 37 50 25 37 50 25 37 50 25 37 50 25 37 50 25 37 50 0 0 0 0 0 0 0 0 0 0 0 0 0 0 0 0 0 0 0 0 0 0 0 0 0 0 0 0 0 0 25 37 50 25 37 50 25 37 50 25 37 50 25 37 50 25 37 50 25 37 50 25 37 50 25 37 50 25 37 50 25 37 50 25 37 50 25 37 50 25 37 50 25 37 50 25 37 50 0 0 0 0 0 0 0 0 0 0 0 0 0 0 0 0 0 0 0 0 0 0 0 0 0 0 0 0 0 0 0 0 0 0 0 0 0 0 0 0 0 0 25 37 50 25 37 50 25 37 50 25 37 50 25 37 50 25 37 50 25 37 50 25 37 50 25 37 50 25 37 50 25 37 50 25 37 50 0 0 0 0 0 0 0 0 0 0 0 0 0 0 0 0 0 0 0 0 0 0 0 0 0 0 0 0 0 0 0 0 0 0 0 0 0 0 0 0 0 0 0 0 0 0 0 0 0 0 0 0 0 0 0 0 0 0 0 0 0 0 0
0 0 0 0 0 0 0 0 0 0 0 0 0 0 0 25 37 50 25 37 50 25 37 50 25 37 50 25 37 50 25 37 50 25 37 50 25 37 50 25 37 50 25 37 50 25 37 50 25 37 50 25 37 50 25 37 50 25 37 50 25 37 50 25 37 50 25 37 50 25 37 50 25 37 50 25 37 50 25 37 50 25 37 50 25 37 50 25 37 50 0 0 0 0 0 0 0 0 0 0 0 0 0 0 0 25 37 50 25 37 50 25 37 50 25 37 50 25 37 50 25 37 50 25 37 50 25 37 50 25 37 50 25 37 50 25 37 50 25 37 50 25 37 50 25 37 50 25 37 50 25 37 50 25 37 50 25 37 50 25 37 50 25 37 50 0 0 0 0 0 0 0 0 0 0 0 0 0 0 0 0 0 0 0 0 0 0 0 0 0 0 0 0 0 0 25 37 50 25 37 50 25 37 50 25 37 50 25 37 50 25 37 50 25 37 50 25 37 50 25 37 50 25 37 50 25 37 50 25 37 50 25 37 50 25 37 50 25 37 50 25 37 50 0 0 0 0 0 0 0 0 0 0 0 0 0 0 0 0 0 0 0 0 0 0 0 0 0 0 0 0 0 0 0 0 0 0 0 0 0 0 0 0 0 0 25 37 50 25 37 50 25 37 50 25 37 50 25 37 50 25 37 50 25 37 50 25 37 50 25 37 50 25 37 50 25 37 50 25 37 50 0 0 0 0 0 0 0 0 0 0 0 0 0 0 0 0 0 0 0 0 0 0 0 0 0 0 0 0 0 0 0 0 0 0 0 0 0 0 0 0 0 0 0 0 0 0 0 0 0 0 0 0 0 0 0 0 0 0 0 0 0 0 0
0 0 0 0 0 0 0 0 0 0 0 0 0 0 0 0 0 0 0 0 0 0 0 0 0 0 0 0 0 0 0 0 0 0 0 0 0 0 0 0 0 0 0 0 0 0 0 0 0 0 0 0 0 0 0 0 0 0 0 0 0 0 0 0 0 0 0 0 0 0 0 0 0 0 0 0 0 0 0 0 0 0 0 0 0 0 0 0 0 0 0 0 0 0 0 0 0 0 0 0 0 0 0 0 0 0 0 0 0 0 0 0 0 0 0 0 0 0 0 0 0 0 0 0 0 0 0 0 0 0 0 0 0 0 0 0 0 0 0 0 0 0 0 0 0 0 0 0 0 0 0 0 0 0 0 0 0 0 0 0 0 0 0 0 0 0 0 0 0 0 0 0 0 0 0 0 0 0 0 0 0 0 0 0 0 0 0 0 0 0 0 0 0 0 0 0 0 0 0 0 0 0 0 0 0 0 0 0 0 0 0 0 0 0 0 0 0 0 0 0 0 0 0 0 0 0 0 0 0 0 0 0 0 0 0 0 0 0 0 0 0 0 0 0 0 0 0 0 0 0 0 0 0 0 0 0 0 0 0 0 0 0 0 0 0 0 0 0 0 0 0 0 0 0 0 0 0 0 0 0 0 0 0 0 0 0 0 0 0 0 0 0 0 0 0 0 0 0 0 0 0 0 0 0 0 0 0 0 0 0 0 0 0 0 0 0 0 0 0 0 0 0 0 0 0 0 0 0 0 0 0 0 0 0 0 0 0 0 0 0 0 0 0 0 0 0 0 0 0 0 0 0 0 0 0 0 0 0 0 0 0 0 0 0 0 0 0 0 0 0 0 0 0 0 0 0 0 0 0 0 0 0 0 0
