P3
96 56
255
255 0 255 255 0 255 255 0 255 255 0 255 255 0 255 255 0 255 255 0 255 255 0 255 255 0 255 255 0 255 255 0 255 255 0 255
255 0 255 255 0 255 255 0 255 255 0 255 255 0 255 255 0 255 255 0 255 255 0 255 255 0 255 255 0 255 255 0 255 255 0 255
255 0 255 255 0 255 255 0 255 255 0 255 255 0 255 255 0 255 255 0 255 255 0 255 255 0 255 255 0 255 255 0 255 255 0 255
255 0 255 255 0 255 255 0 255 255 0 255 255 0 255 255 0 255 255 0 255 255 0 255 255 0 255 255 0 255 255 0 255 255 0 255
255 0 255 255 0 255 255 0 255 255 0 255 255 0 255 255 0 255 255 0 255 255 0 255 255 0 255 255 0 255 255 0 255 255 0 255
255 0 255 255 0 255 255 0 255 255 0 255 255 0 255 255 0 255 255 0 255 255 0 255 255 0 255 255 0 255 255 0 255 255 0 255
255 0 255 255 0 255 255 0 255 255 0 255 255 0 255 255 0 255 255 0 255 255 0 255 255 0 255 255 0 255 255 0 255 255 0 255
255 0 255 255 0 255 255 0 255 255 0 255 255 0 255 255 0 255 255 0 255 255 0 255 255 0 255 255 0 255 255 0 255 255 0 255
255 0 255 255 0 255 255 0 255 255 0 255 255 0 255 255 0 255 255 0 255 255 0 255 255 0 255 255 0 255 255 0 255 255 0 255
255 0 255 255 0 255 255 0 255 255 0 255 255 0 255 255 0 255 255 0 255 255 0 255 255 0 255 255 0 255 255 0 255 255 0 255
255 0 255 255 0 255 255 0 255 255 0 255 255 0 255 255 0 255 255 0 255 255 0 255 255 0 255 255 0 255 255 0 255 255 0 255
255 0 255 255 0 255 255 0 255 255 0 255 255 0 255 255 0 255 255 0 255 255 0 255 255 0 255 255 0 255 255 0 255 255 0 255
255 0 255 255 0 255 255 0 255 255 0 255 255 0 255 255 0 255 255 0 255 255 0 255 255 0 255 255 0 255 255 0 255 255 0 255
255 0 255 255 0 255 255 0 255 255 0 255 255 0 255 255 0 255 255 0 255 255 0 255 255 0 255 255 0 255 255 0 255 255 0 255
255 0 255 255 0 255 255 0 255 255 0 255 255 0 255 255 0 255 255 0 255 255 0 255 255 0 255 255 0 255 255 0 255 255 0 255
255 0 255 255 0 255 255 0 255 255 0 255 255 0 255 255 0 255 255 0 255 255 0 255 255 0 255 255 0 255 255 0 255 255 0 255
255 0 255 255 0 255 255 0 255 255 0 255 255 0 255 255 0 255 255 0 255 255 0 255 255 0 255 255 0 255 255 0 255 255 0 255
255 0 255 255 0 255 255 0 255 255 0 255 255 0 255 255 0 255 255 0 255 255 0 255 255 0 255 255 0 255 255 0 255 255 0 255
255 0 255 255 0 255 255 0 255 255 0 255 255 0 255 255 0 255 255 0 255 255 0 255 255 0 255 255 0 255 255 0 255 255 0 255
255 0 255 255 0 255 255 0 255 255 0 255 255 0 255 255 0 255 255 0 255 255 0 255 255 0 255 255 0 255 255 0 255 255 0 255
255 0 255 255 0 255 255 0 255 255 0 255 255 0 255 255 0 255 255 0 255 255 0 255 255 0 255 255 0 255 255 0 255 255 0 255
255 0 255 255 0 255 255 0 255 255 0 255 255 0 255 255 0 255 255 0 255 255 0 255 255 0 255 255 0 255 255 0 255 255 0 255
255 0 255 255 0 255 255 0 255 255 0 255 255 0 255 255 0 255 255 0 255 255 0 255 255 0 255 255 0 255 255 0 255 255 0 255
255 0 255 255 0 255 255 0 255 255 0 255 255 0 255 255 0 255 255 0 255 255 0 255 255 0 255 255 0 255 255 0 255 255 0 255
255 0 255 255 0 255 255 0 255 255 0 255 255 0 255 255 0 255 255 0 255 255 0 255 255 0 255 255 0 255 255 0 255 255 0 255
255 0 255 255 0 255 255 0 255 255 0 255 255 0 255 255 0 255 255 0 255 255 0 255 255 0 255 255 0 255 255 0 255 255 0 255
255 0 255 255 0 255 255 0 255 255 0 255 255 0 255 255 0 255 255 0 255 255 0 255 255 0 255 255 0 255 255 0 255 255 0 255
255 0 255 255 0 255 255 0 255 255 0 255 255 0 255 255 0 255 255 0 255 255 0 255 255 0 255 255 0 255 255 0 255 255 0 255
255 0 255 255 0 255 255 0 255 255 0 255 255 0 255 255 0 255 255 0 255 255 0 255 255 0 255 255 0 255 255 0 255 255 0 255
255 0 255 255 0 255 255 0 255 255 0 255 255 0 255 255 0 255 255 0 255 255 0 255 255 0 255 255 0 255 255 0 255 255 0 255
255 0 255 255 0 255 255 0 255 255 0 255 255 0 255 255 0 255 255 0 255 255 0 255 255 0 255 255 0 255 255 0 255 255 0 255
255 0 255 255 0 255 255 0 255 255 0 255 255 0 255 255 0 255 255 0 255 255 0 255 255 0 255 255 0 255 255 0 255 255 0 255
255 0 255 255 0 255 255 0 255 255 0 255 255 0 255 255 0 255 255 0 255 255 0 255 255 0 255 255 0 255 255 0 255 255 0 255
255 0 255 255 0 255 255 0 255 255 0 255 255 0 255 255 0 255 255 0 255 255 0 255 255 0 255 255 0 255 255 0 255 255 0 255
255 0 255 255 0 255 255 0 255 255 0 255 255 0 255 255 0 255 255 0 255 255 0 255 255 0 255 255 0 255 255 0 255 255 0 255
255 0 255 255 0 255 255 0 255 255 0 255 255 0 255 255 0 255 255 0 255 255 0 255 255 0 255 255 0 255 255 0 255 255 0 255
255 0 255 255 0 255 255 0 255 255 0 255 255 0 255 255 0 255 255 0 255 255 0 255 255 0 255 255 0 255 255 0 255 255 0 255
255 0 255 255 0 255 255 0 255 255 0 255 255 0 255 255 0 255 255 0 255 255 0 255 255 0 255 255 0 255 255 0 255 255 0 255
255 0 255 255 0 255 255 0 255 255 0 255 255 0 255 255 0 255 255 0 255 255 0 255 255 0 255 255 0 255 255 0 255 255 0 255
255 0 255 255 0 255 255 0 255 255 0 255 255 0 255 255 0 255 255 0 255 255 0 255 255 0 255 255 0 255 255 0 255 255 0 255
255 0 255 255 0 255 255 0 255 255 0 255 255 0 255 255 0 255 255 0 255 255 0 255 255 0 255 255 0 255 255 0 255 255 0 255
255 0 255 255 0 255 255 0 255 255 0 255 255 0 255 255 0 255 255 0 255 255 0 255 255 0 255 255 0 255 255 0 255 255 0 255
255 0 255 255 0 255 255 0 255 255 0 255 255 0 255 255 0 255 255 0 255 255 0 255 255 0 255 255 0 255 255 0 255 255 0 255
255 0 255 255 0 255 255 0 255 255 0 255 255 0 255 255 0 255 255 0 255 255 0 255 255 0 255 255 0 255 255 0 255 255 0 255
255 0 255 255 0 255 255 0 255 255 0 255 255 0 255 255 0 255 255 0 255 255 0 255 255 0 255 255 0 255 255 0 255 255 0 255
255 0 255 255 0 255 255 0 255 255 0 255 255 0 255 255 0 255 255 0 255 255 0 255 255 0 255 255 0 255 255 0 255 255 0 255
255 0 255 255 0 255 255 0 255 255 0 255 255 0 255 255 0 255 255 0 255 255 0 255 255 0 255 255 0 255 255 0 255 255 0 255
255 0 255 255 0 255 255 0 255 255 0 255 255 0 255 255 0 255 255 0 255 255 0 255 255 0 255 255 0 255 255 0 255 255 0 255
255 0 255 255 0 255 255 0 255 255 0 255 255 0 255 255 0 255 255 0 255 255 0 255 255 0 255 255 0 255 255 0 255 255 0 255
255 0 255 255 0 255 255 0 255 255 0 255 255 0 255 255 0 255 255 0 255 255 0 255 255 0 255 255 0 255 255 0 255 255 0 255
255 0 255 255 0 255 255 0 255 255 0 255 255 0 255 255 0 255 255 0 255 255 0 255 255 0 255 255 0 255 255 0 255 255 0 255
255 0 255 255 0 255 255 0 255 255 0 255 255 0 255 159 154 146 181 175 167 190 185 175 234 231 225 153 149 142 41 46 50 64 75 84
69 79 86 55 61 68 175 172 167 224 217 206 195 186 175 197 190 180 207 202 195 191 186 176 255 0 255 255 0 255 255 0 255 255 0 255
255 0 255 255 0 255 255 0 255 255 0 255 255 0 255 255 0 255 255 0 255 255 0 255 255 0 255 255 0 255 255 0 255 255 0 255
255 0 255 255 0 255 255 0 255 255 0 255 255 0 255 255 0 255 255 0 255 255 0 255 255 0 255 255 0 255 255 0 255 255 0 255
255 0 255 255 0 255 255 0 255 255 0 255 255 0 255 255 0 255 255 0 255 255 0 255 255 0 255 255 0 255 255 0 255 255 0 255
255 0 255 255 0 255 255 0 255 255 0 255 255 0 255 255 0 255 255 0 255 255 0 255 255 0 255 255 0 255 255 0 255 255 0 255
255 0 255 255 0 255 255 0 255 255 0 255 255 0 255 255 0 255 255 0 255 255 0 255 255 0 255 255 0 255 255 0 255 255 0 255
255 0 255 255 0 255 255 0 255 255 0 255 255 0 255 255 0 255 255 0 255 255 0 255 255 0 255 255 0 255 255 0 255 255 0 255
255 0 255 162 158 152 187 183 174 217 212 204 240 233 220 241 232 216 248 239 225 244 237 223 250 242 230 218 215 209 154 154 150 164 163 158
159 159 157 196 196 194 255 250 241 250 244 233 254 248 235 255 251 236 255 254 243 255 251 243 251 247 240 252 246 237 216 210 197 208 202 190
195 189 180 184 179 175 255 0 255 255 0 255 255 0 255 255 0 255 255 0 255 255 0 255 255 0 255 255 0 255 255 0 255 255 0 255
255 0 255 255 0 255 255 0 255 255 0 255 255 0 255 255 0 255 255 0 255 255 0 255 255 0 255 255 0 255 255 0 255 255 0 255
255 0 255 255 0 255 255 0 255 255 0 255 255 0 255 255 0 255 255 0 255 255 0 255 255 0 255 255 0 255 255 0 255 255 0 255
255 0 255 255 0 255 255 0 255 255 0 255 255 0 255 255 0 255 255 0 255 255 0 255 255 0 255 255 0 255 255 0 255 255 0 255
255 0 255 255 0 255 255 0 255 255 0 255 255 0 255 255 0 255 255 0 255 255 0 255 255 0 255 255 0 255 255 0 255 255 0 255
255 0 255 255 0 255 255 0 255 255 0 255 255 0 255 255 0 255 255 0 255 255 0 255 255 0 255 255 0 255 255 0 255 149 142 130
223 214 198 233 224 210 238 231 219 233 224 211 235 227 213 240 232 220 241 234 220 241 233 219 241 233 217 251 242 226 255 254 237 255 252 236
255 253 238 255 247 232 244 234 219 243 236 222 244 236 223 243 235 221 244 235 219 245 237 222 248 241 226 248 239 223 250 242 225 251 244 227
254 249 237 255 251 242 244 239 228 195 190 183 167 162 154 160 160 157 255 0 255 255 0 255 255 0 255 255 0 255 255 0 255 255 0 255
255 0 255 255 0 255 255 0 255 255 0 255 255 0 255 255 0 255 255 0 255 255 0 255 255 0 255 255 0 255 255 0 255 255 0 255
255 0 255 255 0 255 255 0 255 255 0 255 255 0 255 255 0 255 255 0 255 255 0 255 255 0 255 255 0 255 255 0 255 255 0 255
255 0 255 255 0 255 255 0 255 255 0 255 255 0 255 255 0 255 255 0 255 255 0 255 255 0 255 255 0 255 255 0 255 255 0 255
255 0 255 255 0 255 255 0 255 255 0 255 255 0 255 255 0 255 255 0 255 255 0 255 255 0 255 255 0 255 255 0 255 255 0 255
255 0 255 255 0 255 255 0 255 255 0 255 161 158 153 175 172 166 181 175 166 192 187 175 200 197 190 138 132 122 42 43 45 70 70 66
201 192 177 229 222 208 225 218 206 230 222 211 245 237 223 249 243 229 249 243 232 249 242 230 246 238 224 242 233 218 235 227 211 237 230 217
244 239 228 243 238 227 248 241 228 249 242 229 250 243 229 249 241 226 248 239 224 248 240 225 247 239 224 246 240 225 245 238 224 244 236 222
241 234 219 248 240 224 157 150 136 78 72 64 101 95 85 104 99 93 62 62 65 150 147 144 188 181 175 255 0 255 255 0 255 255 0 255
255 0 255 255 0 255 255 0 255 255 0 255 255 0 255 255 0 255 255 0 255 255 0 255 255 0 255 255 0 255 255 0 255 255 0 255
255 0 255 255 0 255 255 0 255 255 0 255 255 0 255 255 0 255 255 0 255 255 0 255 255 0 255 255 0 255 255 0 255 255 0 255
255 0 255 255 0 255 255 0 255 255 0 255 255 0 255 255 0 255 255 0 255 255 0 255 255 0 255 255 0 255 255 0 255 255 0 255
255 0 255 255 0 255 255 0 255 255 0 255 255 0 255 255 0 255 255 0 255 255 0 255 255 0 255 255 0 255 255 0 255 255 0 255
166 159 151 181 176 168 206 199 186 222 215 204 238 231 218 246 239 226 236 227 210 245 237 223 226 220 208 97 89 78 52 58 68 38 46 54
183 176 164 243 238 226 154 150 140 156 150 140 241 235 223 240 234 222 241 235 223 243 236 225 244 237 226 242 236 224 238 232 219 240 233 217
242 236 223 238 234 225 236 230 219 223 216 206 228 219 207 235 227 215 241 233 219 247 241 226 252 246 234 255 250 237 252 247 235 249 244 233
244 239 225 249 242 226 72 69 66 26 31 37 78 83 87 62 65 69 46 48 51 157 150 138 214 205 192 237 231 222 198 192 186 167 160 151
255 0 255 255 0 255 255 0 255 255 0 255 255 0 255 255 0 255 255 0 255 255 0 255 255 0 255 255 0 255 255 0 255 255 0 255
255 0 255 255 0 255 255 0 255 255 0 255 255 0 255 255 0 255 255 0 255 255 0 255 255 0 255 255 0 255 255 0 255 255 0 255
255 0 255 255 0 255 255 0 255 255 0 255 255 0 255 255 0 255 255 0 255 255 0 255 255 0 255 255 0 255 255 0 255 255 0 255
255 0 255 255 0 255 255 0 255 255 0 255 255 0 255 255 0 255 255 0 255 255 0 255 255 0 255 161 155 146 187 181 171 223 217 205
239 233 220 244 238 225 242 234 219 235 227 210 234 226 211 230 224 210 232 226 214 223 217 203 102 95 83 31 41 51 72 85 98 41 46 51
160 152 139 240 229 211 214 204 186 219 214 199 247 239 226 239 231 218 236 227 210 232 222 206 235 226 210 235 226 210 237 228 212 237 229 213
239 231 216 241 234 219 239 230 214 238 230 215 234 227 213 229 222 210 221 214 205 226 219 210 227 221 212 234 228 220 245 239 231 248 243 231
249 242 226 253 246 229 193 189 179 70 75 76 75 82 86 110 113 115 97 100 102 79 82 82 61 58 53 143 138 129 255 252 241 245 237 222
208 200 188 170 165 160 255 0 255 255 0 255 255 0 255 255 0 255 255 0 255 255 0 255 255 0 255 255 0 255 255 0 255 255 0 255
255 0 255 255 0 255 255 0 255 255 0 255 255 0 255 255 0 255 255 0 255 255 0 255 255 0 255 255 0 255 255 0 255 255 0 255
255 0 255 255 0 255 255 0 255 255 0 255 255 0 255 255 0 255 255 0 255 255 0 255 255 0 255 255 0 255 255 0 255 255 0 255
255 0 255 255 0 255 255 0 255 255 0 255 255 0 255 255 0 255 255 0 255 138 133 127 212 207 194 242 236 220 213 205 192 205 198 186
212 205 192 176 168 157 161 153 142 135 129 117 129 122 110 129 120 108 134 126 116 118 112 102 40 42 43 39 49 59 61 72 84 40 42 47
47 46 43 108 100 90 110 101 91 164 155 142 170 162 149 205 197 180 214 204 186 238 229 213 246 238 223 252 244 228 248 240 225 248 241 227
242 235 220 236 228 212 237 228 213 239 230 213 242 234 219 244 236 223 244 239 226 241 236 225 238 232 220 232 225 217 228 220 214 223 215 205
225 217 202 233 225 210 255 252 240 234 233 228 124 126 125 22 26 32 57 61 63 72 81 87 29 38 50 97 97 98 248 242 226 240 231 214
248 239 223 255 248 236 223 219 210 187 183 176 255 0 255 255 0 255 255 0 255 255 0 255 255 0 255 255 0 255 255 0 255 255 0 255
255 0 255 255 0 255 255 0 255 255 0 255 255 0 255 255 0 255 255 0 255 255 0 255 255 0 255 255 0 255 255 0 255 255 0 255
255 0 255 255 0 255 255 0 255 255 0 255 255 0 255 255 0 255 255 0 255 255 0 255 255 0 255 255 0 255 255 0 255 255 0 255
255 0 255 255 0 255 255 0 255 255 0 255 255 0 255 255 0 255 40 35 31 127 117 105 140 130 117 107 98 88 129 122 112 113 107 99
67 61 56 42 38 37 30 28 29 16 16 18 35 40 46 38 42 46 33 35 35 43 46 49 88 102 112 53 60 62 133 127 117 228 225 218
224 223 218 156 154 146 138 135 127 137 134 127 86 85 84 79 75 70 62 57 51 79 72 64 102 97 89 120 114 103 161 154 140 196 187 173
219 210 193 241 233 215 239 232 217 229 220 205 234 226 211 241 233 218 241 232 218 239 230 215 240 232 217 243 235 221 243 236 223 242 235 222
234 228 215 226 219 208 213 204 192 237 230 217 171 164 152 162 160 152 219 219 212 153 152 147 179 177 171 248 244 233 248 241 231 242 235 220
238 229 213 241 233 218 249 242 228 255 249 236 223 217 207 176 170 160 255 0 255 255 0 255 255 0 255 255 0 255 255 0 255 255 0 255
255 0 255 255 0 255 255 0 255 255 0 255 255 0 255 255 0 255 255 0 255 255 0 255 255 0 255 255 0 255 255 0 255 255 0 255
255 0 255 255 0 255 255 0 255 255 0 255 255 0 255 255 0 255 255 0 255 255 0 255 255 0 255 255 0 255 255 0 255 255 0 255
255 0 255 255 0 255 134 129 125 129 124 117 110 107 103 99 95 92 138 135 130 146 141 136 188 185 176 200 193 180 233 228 212 239 233 220
68 66 65 41 47 52 90 90 90 94 87 78 69 79 87 61 69 74 97 92 80 92 99 104 57 70 82 150 146 137 242 232 216 189 181 169
209 202 191 253 244 227 250 242 225 247 241 229 249 245 236 224 219 208 200 197 188 139 139 139 87 87 89 26 28 30 14 17 21 16 20 25
49 49 50 99 94 85 195 188 171 241 232 215 229 220 206 226 218 205 230 222 209 236 228 213 238 230 215 239 231 217 240 232 218 240 232 217
242 234 219 242 236 223 241 235 223 231 222 209 142 136 128 235 230 221 233 227 217 255 250 236 255 252 235 250 242 227 250 245 234 249 244 233
246 240 229 241 233 219 242 235 222 242 235 221 246 238 223 253 247 234 218 213 204 177 170 163 255 0 255 255 0 255 255 0 255 255 0 255
255 0 255 255 0 255 255 0 255 255 0 255 255 0 255 255 0 255 255 0 255 255 0 255 255 0 255 255 0 255 255 0 255 255 0 255
255 0 255 255 0 255 255 0 255 255 0 255 255 0 255 255 0 255 255 0 255 255 0 255 255 0 255 255 0 255 255 0 255 255 0 255
68 67 67 118 114 109 168 163 156 180 175 166 203 196 185 226 218 205 236 228 215 227 219 207 232 224 211 201 193 179 216 206 192 238 229 212
165 160 152 15 18 20 44 49 52 48 52 55 36 43 50 36 44 51 42 51 61 23 32 44 139 137 131 238 227 208 220 213 202 192 186 176
186 181 170 187 177 162 219 208 189 228 218 202 232 223 207 241 232 216 248 240 225 255 252 240 255 249 238 235 230 216 190 189 184 141 142 144
83 88 96 10 16 23 29 30 30 179 172 160 250 240 223 220 210 194 214 206 191 236 229 215 243 236 223 239 230 216 238 229 214 239 232 217
240 232 219 239 231 218 248 240 226 201 194 183 179 174 166 248 240 226 227 218 204 215 204 189 215 205 190 231 223 211 244 238 227 252 248 237
250 244 234 244 237 224 244 236 222 241 233 220 241 233 219 233 226 212 236 229 216 242 233 218 197 189 179 255 0 255 255 0 255 255 0 255
255 0 255 255 0 255 255 0 255 255 0 255 255 0 255 255 0 255 255 0 255 255 0 255 255 0 255 255 0 255 255 0 255 255 0 255
255 0 255 255 0 255 255 0 255 255 0 255 255 0 255 255 0 255 255 0 255 255 0 255 255 0 255 255 0 255 255 0 255 128 125 121
165 160 152 201 194 181 221 214 201 224 216 202 217 206 190 212 201 184 218 208 192 226 218 204 236 228 215 214 208 195 206 199 186 239 230 215
241 232 216 162 160 151 135 136 133 149 151 150 148 150 149 145 146 145 78 80 81 173 172 169 253 246 232 239 231 217 239 231 217 239 231 217
226 219 206 228 220 205 233 224 208 235 227 213 237 229 217 237 229 216 234 225 211 231 223 207 232 224 209 240 232 218 253 246 233 255 249 237
254 248 236 172 169 162 36 45 49 43 51 55 156 142 127 210 192 170 233 224 209 230 221 207 217 208 195 245 238 224 245 240 225 239 232 218
236 228 214 224 215 199 242 234 217 168 161 151 211 204 193 246 236 219 241 232 217 242 234 219 240 232 218 233 226 216 222 215 205 223 216 205
236 228 214 248 241 226 247 239 223 255 247 228 252 246 231 240 235 224 240 233 220 233 224 209 229 221 206 227 220 209 167 164 156 255 0 255
255 0 255 255 0 255 255 0 255 255 0 255 255 0 255 255 0 255 255 0 255 255 0 255 255 0 255 255 0 255 255 0 255 255 0 255
255 0 255 255 0 255 255 0 255 255 0 255 255 0 255 255 0 255 255 0 255 255 0 255 255 0 255 150 146 139 197 191 181 224 216 202
223 214 199 196 187 174 220 212 199 223 214 201 227 218 204 232 223 208 231 223 208 237 229 215 239 232 216 241 233 216 220 213 199 219 212 199
232 225 211 248 241 226 249 239 223 252 243 227 253 244 229 247 241 228 163 160 153 244 238 226 236 229 217 239 232 219 238 230 215 238 230 214
240 233 218 241 233 219 241 234 219 240 233 220 244 237 224 243 236 222 243 236 223 242 236 223 240 233 220 238 229 215 235 227 213 235 227 211
233 224 208 255 255 244 183 183 179 7 19 26 0 20 33 38 52 61 86 81 74 70 61 52 29 26 24 121 113 104 183 173 160 223 215 200
235 227 212 232 225 213 233 226 213 161 157 151 243 238 228 241 234 220 241 233 220 239 232 218 240 233 218 243 237 224 243 237 224 228 221 205
213 204 189 215 207 192 226 219 204 136 130 119 192 180 167 255 245 231 251 246 234 226 218 202 216 208 193 219 209 193 236 228 211 167 165 160
255 0 255 255 0 255 255 0 255 255 0 255 255 0 255 255 0 255 255 0 255 255 0 255 255 0 255 255 0 255 255 0 255 255 0 255
255 0 255 255 0 255 255 0 255 255 0 255 255 0 255 255 0 255 255 0 255 154 151 145 202 194 181 217 208 191 204 193 177 206 195 180
217 207 191 227 219 203 232 224 211 233 225 211 233 225 211 231 223 210 236 229 215 243 235 221 248 241 227 247 241 227 255 251 237 221 216 205
188 181 171 199 192 182 180 173 161 184 175 159 236 228 213 205 201 194 183 179 174 253 245 233 212 202 185 226 217 199 241 232 216 237 228 213
236 228 213 243 236 222 249 244 232 251 246 235 248 242 228 247 241 227 246 239 224 242 235 220 244 238 224 242 234 218 241 233 217 240 232 217
240 232 219 237 229 217 255 250 238 183 180 175 84 100 106 19 68 97 0 46 74 25 40 48 66 74 78 38 49 56 32 32 30 68 60 52
139 129 117 208 201 188 132 125 115 169 162 153 249 244 229 229 220 204 238 229 214 240 233 218 240 233 218 239 232 218 239 231 216 240 232 216
237 230 216 235 230 216 187 176 166 24 88 115 73 161 184 127 142 144 213 199 184 245 233 212 228 221 208 225 218 205 193 184 170 131 122 114
87 83 85 255 0 255 255 0 255 255 0 255 255 0 255 255 0 255 255 0 255 255 0 255 255 0 255 255 0 255 255 0 255 255 0 255
255 0 255 255 0 255 255 0 255 255 0 255 255 0 255 255 0 255 89 86 82 193 184 172 215 205 190 200 191 176 216 207 192 225 216 200
225 216 200 227 219 204 232 225 210 231 222 207 231 223 208 240 233 220 244 237 224 243 236 221 241 235 222 246 239 226 231 223 207 228 220 205
240 233 220 236 229 218 237 231 219 220 212 198 240 232 217 164 160 152 153 148 141 231 223 206 210 202 184 222 214 197 238 231 215 251 244 230
244 237 223 235 228 214 235 228 213 236 227 211 244 237 221 252 247 235 248 242 228 243 235 220 239 230 213 244 237 224 245 238 225 244 238 226
237 228 213 242 233 216 165 158 144 217 210 197 255 245 230 208 200 186 122 128 129 59 82 91 75 101 112 67 80 86 94 101 103 52 68 79
20 21 22 35 34 31 10 13 15 96 88 81 231 225 212 223 215 202 229 220 206 240 233 219 240 234 220 240 234 220 241 233 219 237 228 214
234 226 212 238 232 219 244 236 226 183 214 220 114 203 223 84 187 208 78 143 162 155 163 159 237 228 212 209 202 189 59 54 49 39 35 33
255 0 255 255 0 255 255 0 255 255 0 255 255 0 255 255 0 255 255 0 255 255 0 255 255 0 255 255 0 255 255 0 255 255 0 255
255 0 255 255 0 255 255 0 255 255 0 255 255 0 255 255 0 255 255 0 255 97 89 79 215 208 193 201 192 178 227 219 205 229 220 207
224 215 200 229 220 205 233 225 209 229 220 205 232 223 207 241 233 217 235 227 212 233 225 211 236 229 216 231 223 211 193 185 173 230 222 206
232 224 208 235 227 212 240 232 219 213 206 194 168 161 150 82 78 71 19 17 13 56 53 48 47 45 40 64 59 52 101 95 86 163 157 149
218 214 205 248 242 228 237 227 210 229 219 201 229 219 200 247 240 225 249 244 232 251 246 235 249 243 231 246 240 228 244 237 223 243 236 221
239 230 214 240 232 214 201 196 186 215 210 200 176 168 154 205 196 181 255 255 255 173 173 167 70 77 80 94 98 97 39 42 42 50 65 72
35 40 43 81 80 79 76 79 79 34 37 39 138 131 121 240 232 217 236 227 213 230 221 208 232 224 210 234 225 211 234 225 211 233 225 211
235 227 213 233 225 211 231 223 207 241 227 206 228 219 206 158 203 211 105 205 225 32 119 157 73 67 63 75 69 62 8 12 16 34 40 45
80 86 91 76 80 85 255 0 255 255 0 255 255 0 255 255 0 255 255 0 255 255 0 255 255 0 255 255 0 255 255 0 255 255 0 255
255 0 255 255 0 255 255 0 255 255 0 255 255 0 255 255 0 255 81 89 95 40 41 42 187 179 164 211 206 196 226 220 209 222 214 200
225 217 201 236 229 213 241 234 221 237 230 217 237 229 212 237 228 210 235 226 210 236 228 213 237 228 213 195 188 177 219 212 199 237 230 216
238 232 218 229 221 207 160 150 139 70 65 58 30 28 26 37 41 43 52 62 69 38 42 45 42 46 48 62 73 81 34 40 45 23 23 22
47 43 38 138 134 123 243 236 221 254 248 236 231 222 206 239 230 215 255 255 247 254 249 239 251 245 234 250 244 231 249 243 229 248 243 230
248 243 232 245 239 226 251 244 230 247 240 228 228 223 213 226 220 210 242 236 224 168 163 153 241 234 226 248 243 233 166 166 164 69 68 67
36 41 46 101 110 116 134 135 131 90 92 91 35 38 38 88 82 73 189 179 165 242 235 222 235 227 214 230 222 208 232 224 210 233 225 211
233 225 210 233 224 209 233 224 209 230 222 208 230 219 202 232 216 198 205 215 210 102 135 147 6 12 21 15 28 41 46 58 69 86 107 127
93 114 133 103 118 129 87 96 105 255 0 255 255 0 255 255 0 255 255 0 255 255 0 255 255 0 255 255 0 255 255 0 255 255 0 255
255 0 255 255 0 255 255 0 255 255 0 255 255 0 255 255 0 255 68 76 85 54 60 67 162 153 138 184 175 160 175 166 151 174 164 150
195 180 163 209 193 176 208 195 182 213 202 190 197 189 177 211 202 188 236 230 220 235 230 220 227 222 209 223 217 203 239 230 216 238 232 219
231 225 212 130 123 113 32 27 26 33 37 41 55 64 72 78 90 102 85 94 100 85 83 81 102 115 121 91 109 122 98 114 126 95 109 121
70 79 86 26 27 27 86 83 79 233 229 221 255 252 245 235 230 219 177 171 162 237 232 222 253 247 233 251 246 234 252 247 236 251 247 237
252 248 239 252 248 239 246 241 229 245 238 224 243 236 223 252 244 229 201 192 179 175 169 158 243 232 214 234 223 206 254 246 231 248 244 236
204 203 200 106 111 115 45 54 63 85 87 92 41 45 50 3 7 9 43 40 34 136 128 114 224 217 204 244 236 222 232 224 209 235 227 212
235 226 212 232 224 209 233 225 211 222 213 197 211 201 183 217 208 191 215 202 182 243 229 213 142 143 141 30 46 61 85 101 115 81 102 121
90 107 120 92 99 105 34 48 63 59 64 71 255 0 255 255 0 255 255 0 255 255 0 255 255 0 255 255 0 255 255 0 255 255 0 255
255 0 255 255 0 255 255 0 255 255 0 255 255 0 255 255 0 255 72 78 85 49 54 60 165 155 141 181 172 158 178 166 152 187 171 154
163 172 166 140 167 167 144 168 166 135 151 149 176 161 146 184 175 161 187 178 164 178 168 155 190 183 171 189 182 172 208 201 189 218 211 197
133 126 114 22 21 20 47 52 59 69 78 89 89 95 97 111 117 117 86 87 87 119 123 123 123 132 136 105 118 127 92 107 120 107 122 133
148 153 154 107 110 113 32 35 39 79 76 71 234 230 220 233 229 217 157 150 139 190 183 173 255 252 240 248 242 230 252 247 238 251 247 237
251 246 235 251 246 236 249 243 230 247 241 228 245 239 226 244 237 222 168 160 149 234 227 212 241 231 214 237 228 214 233 225 211 240 232 220
233 227 215 219 211 195 163 161 153 34 38 41 12 19 27 88 96 104 49 53 58 12 15 19 74 71 67 188 179 166 244 237 224 228 221 207
196 187 170 215 206 190 226 218 204 227 220 206 225 217 202 221 213 198 205 198 183 215 209 195 148 142 130 21 27 34 84 97 107 94 112 126
120 134 144 48 57 66 13 15 17 50 59 67 255 0 255 255 0 255 255 0 255 255 0 255 255 0 255 255 0 255 255 0 255 255 0 255
255 0 255 255 0 255 255 0 255 255 0 255 255 0 255 255 0 255 81 86 93 37 43 51 134 124 111 182 167 150 151 151 141 89 115 118
187 198 192 147 196 201 136 189 193 153 170 165 194 179 161 190 181 168 191 181 166 190 179 164 196 187 172 175 168 157 172 164 150 141 133 120
27 24 21 38 42 45 73 77 84 96 97 96 87 87 80 59 59 57 34 35 35 43 48 51 58 61 62 102 107 108 151 159 164 179 180 175
93 101 104 109 123 133 132 143 148 29 31 33 86 80 71 236 231 216 209 204 195 231 228 223 251 250 243 252 246 236 255 250 239 254 248 235
251 245 232 248 243 231 248 241 229 247 241 228 255 249 234 213 206 192 201 193 182 255 249 233 245 239 226 244 238 226 240 233 220 247 239 226
186 178 164 190 183 168 210 204 190 191 188 183 113 115 118 35 42 51 59 66 73 76 84 91 0 1 3 32 31 29 142 133 120 218 209 194
214 206 191 223 216 201 226 219 207 205 199 187 213 205 192 207 199 185 205 195 180 214 206 190 90 85 78 46 53 58 77 83 86 55 63 69
113 121 126 21 29 34 17 17 21 40 49 59 86 92 95 255 0 255 255 0 255 255 0 255 255 0 255 255 0 255 255 0 255 255 0 255
255 0 255 255 0 255 255 0 255 255 0 255 255 0 255 255 0 255 80 85 92 28 37 47 107 100 88 188 168 148 144 168 165 50 156 178
197 174 155 198 180 162 195 175 155 188 173 155 182 173 159 186 176 162 184 174 160 184 174 159 184 174 160 201 193 180 194 187 174 73 68 61
32 33 35 86 91 92 82 83 81 35 35 34 39 38 36 66 69 69 75 83 86 75 81 84 65 71 74 34 40 43 68 76 80 162 163 159
110 124 131 102 118 129 102 118 130 87 103 115 22 25 30 148 137 122 218 209 196 210 201 188 209 200 189 213 205 195 220 213 199 234 228 216
246 242 233 255 252 245 254 249 239 253 245 230 249 242 226 176 166 154 245 241 230 253 249 238 252 249 241 251 249 241 250 244 231 244 235 217
244 235 216 222 216 203 197 191 180 243 237 225 254 248 234 173 167 157 60 63 66 20 25 31 74 77 79 40 46 51 0 0 0 102 94 83
211 201 185 214 204 189 205 195 179 142 135 123 171 163 152 210 200 185 202 192 176 199 189 174 57 56 57 86 104 116 146 158 163 140 151 156
98 105 109 11 15 19 27 28 32 43 49 56 59 65 70 255 0 255 255 0 255 255 0 255 255 0 255 255 0 255 255 0 255 255 0 255
255 0 255 255 0 255 255 0 255 255 0 255 255 0 255 255 0 255 70 75 81 40 49 62 65 63 60 158 147 130 166 170 161 82 150 164
184 168 151 179 172 158 180 171 157 182 174 159 186 176 161 188 178 163 188 178 163 188 178 163 185 176 161 194 185 170 160 152 139 20 20 19
54 60 66 77 78 77 27 27 26 54 55 53 95 98 100 91 99 104 103 111 115 128 136 140 118 132 140 121 132 139 67 73 77 55 65 73
151 158 162 97 116 128 87 107 120 74 90 102 43 57 71 57 56 55 217 207 191 209 199 182 211 200 185 211 201 186 210 201 188 209 201 190
206 198 186 211 205 196 216 209 197 237 233 223 210 204 193 203 196 185 255 255 243 254 249 238 255 252 245 255 252 245 252 249 239 251 247 235
248 244 231 251 247 234 255 248 236 242 234 219 231 222 205 244 235 216 229 222 208 118 117 117 42 47 54 18 22 28 52 59 67 19 25 29
89 82 73 210 202 187 223 214 199 195 187 173 189 181 167 216 206 192 223 215 200 171 161 148 30 30 31 65 82 95 74 93 109 107 123 136
77 89 101 18 20 25 29 27 30 33 36 42 42 49 57 255 0 255 255 0 255 255 0 255 255 0 255 255 0 255 255 0 255 255 0 255
255 0 255 255 0 255 255 0 255 255 0 255 255 0 255 255 0 255 69 71 77 57 66 78 43 49 55 48 49 48 96 85 74 84 82 74
172 163 148 173 162 148 187 176 163 184 174 160 183 173 159 185 175 160 186 176 161 187 177 162 186 175 160 195 185 169 93 85 73 12 15 20
73 81 88 40 39 40 50 50 51 88 98 103 70 74 76 43 44 46 31 34 35 52 56 58 118 123 125 149 156 161 138 152 161 53 61 67
74 86 97 106 120 129 59 72 81 64 77 86 77 96 110 7 14 23 147 140 129 220 209 192 204 194 179 210 200 185 213 204 190 217 208 194
219 210 197 213 204 189 205 195 178 202 193 179 146 138 127 209 201 190 225 219 209 234 229 220 246 240 232 249 242 229 255 250 240 255 253 244
249 243 231 246 240 226 244 237 222 244 237 223 243 237 224 234 227 214 235 227 213 253 247 238 172 170 165 43 46 50 76 90 105 58 66 73
7 7 7 113 107 98 184 176 162 179 170 156 171 161 145 172 163 149 142 136 126 52 48 46 20 22 26 80 100 117 71 93 112 108 124 137
51 59 71 12 11 14 26 30 36 29 36 43 44 50 58 255 0 255 255 0 255 255 0 255 255 0 255 255 0 255 255 0 255 255 0 255
255 0 255 255 0 255 255 0 255 255 0 255 255 0 255 255 0 255 255 0 255 57 67 78 56 65 74 32 33 35 16 19 23 21 25 31
112 107 98 165 155 142 172 162 149 190 179 164 188 178 163 188 178 164 187 178 163 185 175 160 178 169 154 206 198 183 72 67 59 31 38 46
62 69 75 29 28 28 70 77 83 53 55 56 16 15 17 4 5 6 12 14 16 12 13 15 31 37 42 132 137 141 115 129 140 71 90 103
37 44 51 85 93 101 74 88 101 79 98 112 84 101 112 29 38 50 71 68 64 223 215 200 208 199 185 208 199 184 209 200 184 210 201 185
212 202 187 212 203 189 220 211 195 190 180 167 165 158 152 228 221 207 217 211 198 212 205 194 211 202 190 211 202 189 223 217 208 224 217 207
241 235 224 240 233 220 246 240 227 248 241 226 246 240 226 247 240 228 240 232 219 229 220 204 250 241 224 223 220 209 66 69 73 41 50 58
49 55 62 14 15 18 39 35 31 29 27 26 26 25 23 26 24 22 14 17 23 21 28 38 45 52 61 79 92 102 81 92 98 90 106 119
36 43 51 26 26 28 38 43 48 33 38 43 51 58 64 255 0 255 255 0 255 255 0 255 255 0 255 255 0 255 255 0 255 255 0 255
255 0 255 255 0 255 255 0 255 255 0 255 255 0 255 255 0 255 255 0 255 53 62 71 50 59 70 40 40 43 26 30 36 30 40 50
26 24 24 125 118 108 152 144 132 143 135 124 158 150 137 170 163 149 174 166 153 171 163 149 191 184 169 175 168 154 25 23 21 39 46 54
49 55 60 38 44 49 64 70 74 14 11 11 10 11 14 19 21 24 43 48 53 43 48 53 12 12 14 41 51 60 114 126 136 84 106 123
38 47 55 70 80 88 79 95 107 60 77 90 69 82 93 53 63 75 37 37 39 209 200 186 213 203 187 214 203 187 210 200 185 212 203 187
211 203 188 211 201 186 220 210 192 167 159 150 207 200 190 219 209 192 213 204 189 217 208 193 218 210 195 215 205 190 210 200 183 208 199 183
215 208 196 195 188 176 214 206 193 210 202 189 215 207 194 235 230 221 232 226 214 235 227 212 225 217 200 248 242 231 221 217 212 44 45 46
37 41 45 100 108 113 44 53 60 16 22 28 34 44 56 20 26 34 71 75 79 51 55 58 42 51 61 82 96 109 73 84 94 84 97 107
35 41 49 24 25 27 45 50 56 38 45 54 55 63 71 255 0 255 255 0 255 255 0 255 255 0 255 255 0 255 255 0 255 255 0 255
255 0 255 255 0 255 255 0 255 255 0 255 255 0 255 255 0 255 255 0 255 51 55 58 45 53 65 44 46 50 33 33 31 58 63 67
20 23 28 67 63 58 173 165 152 143 135 125 152 142 130 152 144 131 163 155 145 124 118 109 171 164 150 155 147 134 9 9 12 46 54 62
33 35 39 52 62 69 56 60 62 20 19 22 23 24 27 40 45 51 24 25 29 90 91 93 59 67 73 10 14 18 92 104 116 79 98 113
35 46 56 44 52 60 82 99 112 65 82 98 67 76 83 64 73 83 20 23 28 170 161 148 179 170 155 150 144 132 214 203 187 209 200 185
220 211 197 223 213 199 199 189 175 165 158 150 222 213 197 211 202 186 213 204 188 211 201 185 211 201 185 211 202 186 211 202 186 214 205 190
224 215 201 225 216 201 205 195 179 207 196 179 200 189 174 203 195 182 200 191 177 197 188 173 195 185 172 190 183 172 197 188 177 45 43 42
63 71 80 119 131 140 127 138 145 44 47 51 67 75 82 80 85 86 111 111 109 46 53 59 32 38 45 63 77 94 55 69 84 81 89 95
35 41 48 30 37 44 50 60 70 46 56 70 58 68 77 255 0 255 255 0 255 255 0 255 255 0 255 255 0 255 255 0 255 255 0 255
255 0 255 255 0 255 255 0 255 255 0 255 255 0 255 255 0 255 255 0 255 255 0 255 50 58 67 38 42 49 38 38 37 66 68 69
48 55 60 17 17 18 98 92 82 148 139 125 153 143 129 167 156 143 169 158 144 157 149 137 143 136 126 161 153 141 22 23 26 55 65 75
41 41 45 50 56 61 47 52 54 17 15 17 38 45 52 39 42 47 18 24 30 30 32 36 55 63 71 17 19 22 62 73 84 68 87 102
36 49 59 37 45 55 72 91 108 65 75 84 72 79 79 63 73 82 13 17 21 154 145 135 229 219 205 210 203 189 221 211 196 226 218 203
167 160 149 205 196 182 173 165 153 199 193 182 215 206 189 211 202 187 212 203 188 211 202 186 211 201 185 211 202 186 211 202 187 224 216 200
122 117 109 110 107 100 221 211 193 170 162 148 191 182 168 205 195 178 200 188 171 200 189 173 199 189 174 203 194 179 188 178 164 40 42 44
46 60 73 55 65 73 86 94 100 33 40 47 55 62 67 82 88 92 65 72 81 44 50 58 27 31 38 46 59 71 41 51 63 67 76 84
38 44 50 42 46 51 56 63 69 55 65 77 58 67 78 255 0 255 255 0 255 255 0 255 255 0 255 255 0 255 255 0 255 255 0 255
255 0 255 255 0 255 255 0 255 255 0 255 255 0 255 255 0 255 255 0 255 255 0 255 78 84 90 50 61 74 37 42 46 56 54 52
84 84 83 25 28 32 22 21 22 35 35 33 78 73 66 102 94 85 109 103 93 123 117 107 154 145 134 105 97 87 18 17 20 50 56 63
39 41 44 44 48 54 53 56 60 27 30 34 35 40 46 81 88 94 45 50 55 23 26 30 32 37 43 19 19 21 70 79 86 59 72 85
34 44 54 39 50 60 68 88 103 56 65 76 49 60 72 49 59 72 17 20 23 52 47 42 128 121 108 144 135 121 176 164 149 198 185 169
194 184 169 176 167 153 146 138 128 217 208 195 211 202 187 211 202 187 212 202 187 211 202 186 212 202 187 211 202 186 210 201 184 222 212 195
46 44 45 77 76 73 215 205 187 13 12 15 147 139 129 174 164 150 51 48 44 193 184 168 199 189 175 201 192 176 187 177 161 46 47 49
53 69 83 61 68 73 71 81 87 30 39 47 39 44 49 68 67 68 53 52 52 30 32 33 27 32 37 46 57 68 44 52 61 64 73 83
36 40 45 46 48 51 44 47 52 55 65 78 63 68 72 255 0 255 255 0 255 255 0 255 255 0 255 255 0 255 255 0 255 255 0 255
255 0 255 255 0 255 255 0 255 255 0 255 255 0 255 255 0 255 255 0 255 255 0 255 255 0 255 75 82 90 41 55 68 43 45 49
43 44 47 34 38 42 36 39 42 27 32 39 17 21 26 24 24 29 28 28 30 19 18 17 45 42 38 19 16 15 11 10 11 39 45 51
47 53 58 33 36 42 87 87 87 60 66 69 32 34 35 47 55 64 58 65 72 42 46 51 15 16 18 22 22 22 90 92 94 56 70 84
34 42 50 49 58 68 60 77 94 55 65 76 49 55 61 41 52 65 18 19 22 37 35 34 106 96 87 38 51 56 49 89 105 62 91 102
60 61 58 93 87 79 205 195 181 208 197 180 209 199 184 210 201 186 211 202 187 212 203 187 211 202 186 209 200 184 214 204 185 184 176 161
20 23 30 168 163 152 165 159 147 14 18 26 207 198 184 121 117 109 37 37 39 206 197 181 195 186 170 208 198 183 170 160 146 44 49 52
54 67 82 66 77 89 83 95 103 34 44 51 30 32 34 38 42 47 39 46 55 23 28 33 27 28 30 60 66 73 50 56 64 60 67 76
38 43 49 26 28 31 32 38 43 50 63 75 255 0 255 255 0 255 255 0 255 255 0 255 255 0 255 255 0 255 255 0 255 255 0 255
255 0 255 255 0 255 255 0 255 255 0 255 255 0 255 255 0 255 255 0 255 255 0 255 255 0 255 255 0 255 36 40 43 21 23 26
26 27 29 14 14 15 55 58 62 86 85 81 46 49 50 31 36 44 35 44 54 14 14 17 18 21 24 29 36 43 13 17 21 29 34 41
66 70 74 35 37 41 86 85 86 97 99 98 38 41 43 21 21 22 25 30 34 29 30 33 18 17 17 59 62 65 71 76 81 42 54 66
29 34 39 62 72 80 43 55 68 40 50 61 49 49 46 42 46 50 1 3 6 149 142 132 225 216 204 149 150 145 139 156 162 124 149 160
71 77 78 125 120 111 210 199 183 196 187 171 208 198 183 209 199 183 209 201 184 211 201 185 212 202 186 206 198 182 223 214 196 150 147 138
21 28 34 194 184 169 105 102 96 40 43 46 213 203 188 70 68 67 101 99 97 218 209 193 197 188 174 214 205 189 136 129 118 25 35 41
56 70 86 75 85 97 69 77 81 32 38 44 71 85 100 49 58 68 39 47 57 21 24 29 20 19 19 48 51 52 42 42 43 51 58 64
51 59 68 12 13 15 36 41 47 56 67 79 255 0 255 255 0 255 255 0 255 255 0 255 255 0 255 255 0 255 255 0 255 255 0 255
255 0 255 255 0 255 255 0 255 255 0 255 255 0 255 255 0 255 255 0 255 255 0 255 255 0 255 255 0 255 50 58 65 31 38 44
24 24 24 19 19 20 44 52 61 47 53 60 71 69 65 71 70 68 58 60 62 43 41 41 31 33 37 50 58 66 18 20 25 12 13 16
63 66 70 42 45 46 37 43 48 92 94 96 70 71 71 50 49 48 19 19 18 30 28 28 63 64 65 67 71 73 42 47 52 33 39 45
30 32 36 59 67 74 33 41 51 33 42 54 47 52 57 43 44 46 8 9 12 141 132 120 192 180 162 178 168 154 211 198 183 206 194 178
211 202 187 192 184 173 153 146 134 196 186 171 195 185 170 201 191 175 203 193 177 205 195 180 211 201 186 203 195 181 213 203 186 87 87 82
41 48 54 209 197 181 54 53 52 96 96 95 203 193 180 22 22 26 151 147 140 216 206 190 172 165 153 195 187 172 103 97 89 20 27 35
57 74 89 85 90 93 64 69 72 37 44 52 62 77 92 28 31 36 10 14 17 29 29 28 20 21 22 34 43 55 38 45 56 41 47 55
47 54 61 23 26 30 54 62 70 53 61 68 255 0 255 255 0 255 255 0 255 255 0 255 255 0 255 255 0 255 255 0 255 255 0 255
255 0 255 255 0 255 255 0 255 255 0 255 255 0 255 255 0 255 255 0 255 255 0 255 255 0 255 255 0 255 76 78 78 65 72 79
66 71 77 40 42 44 33 35 39 38 46 57 34 40 47 47 49 51 52 55 58 69 71 69 24 24 26 23 26 28 20 19 21 19 19 22
43 48 53 75 78 78 31 33 34 30 37 43 55 60 65 80 80 80 69 72 75 77 78 80 68 70 71 36 41 46 31 38 44 12 16 19
54 60 66 39 44 50 30 36 43 33 40 50 38 47 60 27 31 38 41 40 39 190 181 165 186 175 160 186 177 161 181 173 158 185 177 162
181 171 156 195 185 169 151 143 131 180 172 157 193 183 169 193 184 170 195 185 172 193 184 171 189 180 167 186 176 162 192 181 165 59 60 59
112 113 109 192 182 166 33 34 36 160 155 146 164 155 143 40 39 40 181 174 162 186 177 163 157 152 143 139 133 122 45 45 43 34 41 48
56 67 77 73 76 74 36 39 41 35 37 42 31 34 37 25 25 25 132 129 123 199 191 178 91 87 80 17 23 31 39 46 56 27 33 39
43 54 65 29 34 40 52 60 69 51 56 64 255 0 255 255 0 255 255 0 255 255 0 255 255 0 255 255 0 255 255 0 255 255 0 255
255 0 255 255 0 255 255 0 255 255 0 255 255 0 255 255 0 255 255 0 255 255 0 255 255 0 255 255 0 255 255 0 255 71 77 81
53 61 70 48 52 55 36 38 38 24 24 26 37 42 47 45 50 57 50 56 63 57 64 71 42 37 35 39 42 44 66 72 77 31 37 43
23 24 26 50 52 56 64 66 66 21 23 24 27 32 37 40 46 52 51 59 66 48 54 59 38 43 47 27 30 34 13 14 16 44 48 51
44 49 54 32 41 52 38 45 53 40 43 48 38 39 43 4 5 6 94 92 88 205 195 180 183 174 161 184 175 160 186 176 161 186 176 161
184 175 160 188 178 162 160 152 139 194 186 173 192 183 169 190 181 166 190 180 165 189 179 165 188 178 164 185 176 161 187 177 162 198 192 180
197 189 177 185 175 158 174 167 154 193 183 167 186 177 162 186 180 170 180 172 158 175 167 154 165 156 143 55 51 45 9 11 13 57 65 71
72 75 75 55 55 52 28 30 33 40 46 56 9 13 18 87 82 74 218 211 196 156 148 136 109 102 93 18 20 24 25 26 30 23 22 21
40 46 53 54 69 86 50 61 74 62 62 66 255 0 255 255 0 255 255 0 255 255 0 255 255 0 255 255 0 255 255 0 255 255 0 255
255 0 255 255 0 255 255 0 255 255 0 255 255 0 255 255 0 255 255 0 255 255 0 255 255 0 255 255 0 255 255 0 255 255 0 255
58 66 73 41 48 56 46 51 56 52 53 54 45 46 47 38 41 44 35 42 48 50 60 69 24 21 22 28 32 37 47 49 52 54 59 63
15 18 21 27 33 41 35 40 46 59 62 62 52 55 57 33 37 39 26 29 32 17 20 22 20 23 25 30 32 33 56 60 62 59 63 65
23 27 33 32 35 39 33 39 47 39 45 53 23 25 29 13 15 15 168 159 145 189 177 161 185 175 161 185 175 161 186 176 161 183 174 159
192 183 168 166 157 143 172 166 155 199 190 176 186 176 162 187 177 162 188 178 163 188 178 164 187 178 164 186 177 163 185 176 161 189 179 164
189 180 165 188 178 164 188 177 160 178 167 151 171 161 146 167 158 145 175 167 155 149 140 127 48 45 41 16 24 33 34 37 40 32 33 33
63 69 74 40 45 52 29 32 36 24 28 34 23 21 20 166 157 141 144 136 122 117 111 101 115 109 101 18 19 21 35 49 63 39 49 62
46 56 69 59 72 86 67 71 77 255 0 255 255 0 255 255 0 255 255 0 255 255 0 255 255 0 255 255 0 255 255 0 255 255 0 255
255 0 255 255 0 255 255 0 255 255 0 255 255 0 255 255 0 255 255 0 255 255 0 255 255 0 255 255 0 255 255 0 255 255 0 255
255 0 255 66 72 77 55 64 73 51 59 70 52 55 60 46 47 52 29 25 28 26 23 27 17 15 15 38 41 44 40 45 50 56 56 55
41 48 55 18 22 27 20 25 33 47 47 49 55 58 62 49 58 62 34 38 42 38 44 50 47 55 62 55 60 64 48 50 51 34 39 44
34 43 53 36 40 46 33 37 42 22 23 26 7 12 19 125 123 117 195 183 167 162 152 137 177 166 151 182 172 158 185 175 161 190 181 166
187 178 163 154 147 137 191 181 167 183 173 156 186 176 161 187 178 163 188 179 165 187 177 163 187 177 162 186 176 161 187 177 162 186 177 161
182 172 157 177 168 153 169 161 148 164 155 143 162 152 139 167 159 146 147 138 125 54 51 47 24 32 42 37 46 58 89 89 88 56 57 58
5 6 8 15 16 18 26 30 34 14 17 21 117 112 103 178 170 157 116 111 101 101 97 90 124 119 112 63 62 60 37 45 54 35 42 51
31 39 47 62 65 69 255 0 255 255 0 255 255 0 255 255 0 255 255 0 255 255 0 255 255 0 255 255 0 255 255 0 255 255 0 255
255 0 255 255 0 255 255 0 255 255 0 255 255 0 255 255 0 255 255 0 255 255 0 255 255 0 255 255 0 255 255 0 255 255 0 255
255 0 255 255 0 255 56 60 66 51 59 67 26 33 40 23 66 82 58 119 140 45 82 100 32 48 58 30 29 31 46 54 61 30 35 40
28 32 37 31 38 47 24 28 34 31 32 36 35 38 44 32 36 42 27 30 35 34 36 41 38 44 51 30 36 45 31 39 47 36 40 44
35 43 53 39 48 57 15 16 19 0 0 0 100 96 87 197 188 171 171 161 147 181 173 158 175 166 153 188 178 165 184 174 160 158 150 136
129 123 113 150 142 132 201 189 173 188 179 165 189 179 165 189 179 165 187 177 162 182 172 157 178 168 152 182 172 156 178 169 155 172 163 149
163 153 139 163 153 139 171 162 148 175 167 154 170 163 150 131 123 111 32 30 27 22 28 36 41 50 64 77 75 69 59 60 60 39 45 54
22 22 23 43 52 60 28 36 45 90 86 80 193 186 173 139 133 123 128 123 114 130 126 120 102 100 95 255 0 255 255 0 255 255 0 255
255 0 255 255 0 255 255 0 255 255 0 255 255 0 255 255 0 255 255 0 255 255 0 255 255 0 255 255 0 255 255 0 255 255 0 255
255 0 255 255 0 255 255 0 255 255 0 255 255 0 255 255 0 255 255 0 255 255 0 255 255 0 255 255 0 255 255 0 255 255 0 255
255 0 255 255 0 255 255 0 255 255 0 255 46 54 59 46 63 71 37 91 108 41 128 151 33 78 99 21 20 26 30 40 48 24 29 33
47 46 46 53 62 73 39 48 58 21 26 32 16 19 22 27 31 35 32 40 51 28 34 43 33 40 49 33 40 48 35 43 54 27 34 42
19 22 25 17 18 18 12 11 11 121 115 105 181 170 153 154 144 130 159 149 135 170 160 147 178 168 155 162 153 140 148 141 131 160 152 140
181 171 158 167 159 148 152 144 132 186 176 161 183 173 159 174 164 150 171 160 146 168 159 146 166 157 144 164 155 141 163 152 137 168 155 140
172 161 145 172 164 149 151 145 134 106 104 97 71 67 63 36 36 35 23 28 34 44 50 59 77 75 66 66 65 59 35 43 53 28 31 35
32 32 34 34 43 51 64 61 57 175 165 149 149 141 131 134 127 119 139 138 135 123 122 120 98 98 97 255 0 255 255 0 255 255 0 255
255 0 255 255 0 255 255 0 255 255 0 255 255 0 255 255 0 255 255 0 255 255 0 255 255 0 255 255 0 255 255 0 255 255 0 255
255 0 255 255 0 255 255 0 255 255 0 255 255 0 255 255 0 255 255 0 255 255 0 255 255 0 255 255 0 255 255 0 255 255 0 255
255 0 255 255 0 255 255 0 255 255 0 255 255 0 255 255 0 255 255 0 255 23 25 31 42 49 58 48 59 70 23 30 37 37 42 48
53 51 52 39 42 43 52 61 69 48 57 67 38 46 54 28 30 32 20 22 21 20 23 25 17 18 20 17 18 20 18 18 19 11 10 10
13 14 15 26 32 40 36 37 40 149 141 129 145 137 125 140 131 120 155 146 134 161 150 137 134 127 114 138 130 118 173 162 149 176 166 151
169 159 145 174 164 150 170 162 150 142 134 122 150 141 128 167 158 144 166 156 142 172 161 145 175 165 151 173 165 150 162 155 141 136 135 126
102 101 99 58 68 80 32 51 66 13 26 38 18 24 33 14 21 28 46 51 57 77 78 76 67 70 71 38 44 54 23 24 26 36 43 49
8 12 18 49 46 42 183 175 159 160 153 144 126 116 103 118 122 123 103 118 127 95 95 95 255 0 255 255 0 255 255 0 255 255 0 255
255 0 255 255 0 255 255 0 255 255 0 255 255 0 255 255 0 255 255 0 255 255 0 255 255 0 255 255 0 255 255 0 255 255 0 255
255 0 255 255 0 255 255 0 255 255 0 255 255 0 255 255 0 255 255 0 255 255 0 255 255 0 255 255 0 255 255 0 255 255 0 255
255 0 255 255 0 255 255 0 255 255 0 255 255 0 255 255 0 255 255 0 255 255 0 255 255 0 255 255 0 255 41 45 46 58 63 68
40 51 63 33 39 46 35 39 42 51 54 56 63 72 82 54 64 78 45 54 64 33 39 46 28 33 38 9 11 12 4 4 3 25 27 31
42 45 49 51 51 50 25 28 30 38 36 35 136 128 117 152 142 130 117 110 101 129 122 110 167 158 144 180 169 154 168 157 143 167 158 144
171 162 148 167 157 143 170 159 144 174 166 152 139 133 123 142 134 121 160 152 139 127 125 120 114 112 108 82 84 89 50 73 90 22 65 89
28 78 102 39 138 159 38 159 184 22 56 82 46 53 65 63 59 51 79 75 69 51 58 63 38 43 51 36 38 41 36 40 46 20 25 32
40 38 36 170 161 144 161 153 142 128 120 109 112 120 120 100 117 126 99 99 100 255 0 255 255 0 255 255 0 255 255 0 255 255 0 255
255 0 255 255 0 255 255 0 255 255 0 255 255 0 255 255 0 255 255 0 255 255 0 255 255 0 255 255 0 255 255 0 255 255 0 255
255 0 255 255 0 255 255 0 255 255 0 255 255 0 255 255 0 255 255 0 255 255 0 255 255 0 255 255 0 255 255 0 255 255 0 255
255 0 255 255 0 255 255 0 255 255 0 255 255 0 255 255 0 255 255 0 255 255 0 255 255 0 255 255 0 255 255 0 255 255 0 255
53 59 64 52 65 81 51 60 75 34 39 43 43 47 50 40 45 51 46 54 64 46 56 65 48 57 67 58 67 75 53 62 72 22 23 27
37 39 42 56 52 47 52 52 51 25 32 40 43 43 41 104 97 88 116 110 101 123 115 106 127 120 111 153 145 134 163 154 141 161 152 140
160 150 136 162 152 138 160 151 138 143 134 124 159 151 137 136 129 115 75 72 67 17 29 40 15 67 92 24 118 145 50 164 192 58 193 219
77 196 225 56 160 191 37 105 130 49 65 74 70 66 60 62 62 62 37 40 46 27 29 32 33 36 38 24 28 33 20 25 31 93 91 84
169 162 148 129 121 107 120 114 107 126 119 109 112 141 154 75 89 95 255 0 255 255 0 255 255 0 255 255 0 255 255 0 255 255 0 255
255 0 255 255 0 255 255 0 255 255 0 255 255 0 255 255 0 255 255 0 255 255 0 255 255 0 255 255 0 255 255 0 255 255 0 255
255 0 255 255 0 255 255 0 255 255 0 255 255 0 255 255 0 255 255 0 255 255 0 255 255 0 255 255 0 255 255 0 255 255 0 255
255 0 255 255 0 255 255 0 255 255 0 255 255 0 255 255 0 255 255 0 255 255 0 255 255 0 255 255 0 255 255 0 255 255 0 255
255 0 255 60 66 71 50 62 75 48 59 73 43 53 64 35 41 47 29 34 39 32 37 41 42 46 52 49 55 60 96 103 112 36 39 43
20 23 27 38 47 59 30 32 33 12 12 12 7 8 9 15 15 16 106 97 89 143 135 125 135 129 120 141 134 124 135 128 119 129 122 114
132 124 115 122 116 107 114 109 101 136 128 117 133 124 112 78 74 69 22 24 27 12 22 34 11 91 121 44 171 192 44 129 153 51 114 135
48 96 121 59 70 84 57 60 65 41 48 52 33 41 49 35 42 49 24 25 27 16 19 21 23 30 38 43 43 41 126 117 103 163 154 138
124 117 107 80 75 70 86 83 78 89 89 86 103 105 105 255 0 255 255 0 255 255 0 255 255 0 255 255 0 255 255 0 255 255 0 255
255 0 255 255 0 255 255 0 255 255 0 255 255 0 255 255 0 255 255 0 255 255 0 255 255 0 255 255 0 255 255 0 255 255 0 255
255 0 255 255 0 255 255 0 255 255 0 255 255 0 255 255 0 255 255 0 255 255 0 255 255 0 255 255 0 255 255 0 255 255 0 255
255 0 255 255 0 255 255 0 255 255 0 255 255 0 255 255 0 255 255 0 255 255 0 255 255 0 255 255 0 255 255 0 255 255 0 255
255 0 255 255 0 255 69 72 75 45 52 58 47 57 66 49 58 69 48 56 67 49 57 69 48 55 62 35 38 40 43 45 48 58 65 73
25 28 32 8 9 10 13 14 15 41 44 48 43 49 57 34 41 50 19 23 28 70 66 61 83 77 70 108 101 93 113 106 97 137 128 118
144 135 125 141 133 124 138 130 120 136 127 115 63 59 55 17 18 21 43 48 55 51 59 68 51 64 76 45 57 75 46 56 68 53 54 61
46 48 53 42 49 56 40 49 59 40 46 55 36 41 46 22 24 27 0 1 3 33 32 31 108 101 87 153 142 127 144 135 124 119 113 106
116 111 105 106 103 98 91 89 88 255 0 255 255 0 255 255 0 255 255 0 255 255 0 255 255 0 255 255 0 255 255 0 255 255 0 255
255 0 255 255 0 255 255 0 255 255 0 255 255 0 255 255 0 255 255 0 255 255 0 255 255 0 255 255 0 255 255 0 255 255 0 255
255 0 255 255 0 255 255 0 255 255 0 255 255 0 255 255 0 255 255 0 255 255 0 255 255 0 255 255 0 255 255 0 255 255 0 255
255 0 255 255 0 255 255 0 255 255 0 255 255 0 255 255 0 255 255 0 255 255 0 255 255 0 255 255 0 255 255 0 255 255 0 255
255 0 255 255 0 255 255 0 255 255 0 255 75 77 77 53 59 64 53 62 72 49 59 70 43 52 63 49 57 67 39 44 52 41 46 51
47 54 64 15 16 19 18 18 21 39 49 60 45 49 56 50 54 57 46 48 49 22 27 33 19 24 29 20 24 28 18 18 18 53 52 51
49 46 42 41 40 37 45 43 40 33 30 28 16 16 18 41 50 59 41 48 55 47 53 60 51 62 72 38 47 56 35 43 52 30 37 46
30 37 44 26 30 36 27 30 33 27 30 32 30 32 34 7 8 9 61 56 50 152 142 126 146 139 128 117 112 107 115 110 104 115 111 106
97 96 92 80 80 80 255 0 255 255 0 255 255 0 255 255 0 255 255 0 255 255 0 255 255 0 255 255 0 255 255 0 255 255 0 255
255 0 255 255 0 255 255 0 255 255 0 255 255 0 255 255 0 255 255 0 255 255 0 255 255 0 255 255 0 255 255 0 255 255 0 255
255 0 255 255 0 255 255 0 255 255 0 255 255 0 255 255 0 255 255 0 255 255 0 255 255 0 255 255 0 255 255 0 255 255 0 255
255 0 255 255 0 255 255 0 255 255 0 255 255 0 255 255 0 255 255 0 255 255 0 255 255 0 255 255 0 255 255 0 255 255 0 255
255 0 255 255 0 255 255 0 255 255 0 255 255 0 255 255 0 255 255 0 255 255 0 255 56 59 64 51 59 67 47 56 65 45 55 64
48 60 71 52 63 76 29 34 39 24 28 31 30 35 41 31 37 46 40 46 53 47 52 60 50 53 58 45 52 61 29 30 33 31 36 43
32 40 48 26 30 35 23 27 32 31 36 43 22 20 21 26 30 36 40 48 56 39 43 48 31 39 47 29 38 47 29 36 44 25 29 34
23 27 30 18 22 25 33 37 40 39 45 54 39 49 61 19 23 29 95 89 80 131 125 117 98 95 93 94 91 88 94 93 92 255 0 255
255 0 255 255 0 255 255 0 255 255 0 255 255 0 255 255 0 255 255 0 255 255 0 255 255 0 255 255 0 255 255 0 255 255 0 255
255 0 255 255 0 255 255 0 255 255 0 255 255 0 255 255 0 255 255 0 255 255 0 255 255 0 255 255 0 255 255 0 255 255 0 255
255 0 255 255 0 255 255 0 255 255 0 255 255 0 255 255 0 255 255 0 255 255 0 255 255 0 255 255 0 255 255 0 255 255 0 255
255 0 255 255 0 255 255 0 255 255 0 255 255 0 255 255 0 255 255 0 255 255 0 255 255 0 255 255 0 255 255 0 255 255 0 255
255 0 255 255 0 255 255 0 255 255 0 255 255 0 255 255 0 255 255 0 255 255 0 255 255 0 255 255 0 255 255 0 255 255 0 255
66 70 75 29 36 42 34 39 40 255 0 255 255 0 255 68 71 74 40 44 50 31 36 45 34 38 46 33 39 48 34 41 50 33 34 36
37 42 48 36 41 48 36 38 41 42 52 63 34 41 50 30 35 42 36 44 53 34 40 48 33 38 44 37 43 50 40 49 60 36 38 41
40 47 57 36 46 58 40 46 55 40 45 55 37 43 53 44 48 51 63 63 63 102 102 99 105 105 105 255 0 255 255 0 255 255 0 255
255 0 255 255 0 255 255 0 255 255 0 255 255 0 255 255 0 255 255 0 255 255 0 255 255 0 255 255 0 255 255 0 255 255 0 255
255 0 255 255 0 255 255 0 255 255 0 255 255 0 255 255 0 255 255 0 255 255 0 255 255 0 255 255 0 255 255 0 255 255 0 255
255 0 255 255 0 255 255 0 255 255 0 255 255 0 255 255 0 255 255 0 255 255 0 255 255 0 255 255 0 255 255 0 255 255 0 255
255 0 255 255 0 255 255 0 255 255 0 255 255 0 255 255 0 255 255 0 255 255 0 255 255 0 255 255 0 255 255 0 255 255 0 255
255 0 255 255 0 255 255 0 255 255 0 255 255 0 255 255 0 255 255 0 255 255 0 255 255 0 255 255 0 255 255 0 255 255 0 255
255 0 255 255 0 255 255 0 255 255 0 255 255 0 255 255 0 255 255 0 255 255 0 255 255 0 255 255 0 255 255 0 255 255 0 255
40 43 43 13 18 23 13 18 20 26 29 31 62 66 68 62 69 71 69 74 78 65 69 73 21 25 28 18 22 25 22 25 32 18 20 22
65 67 70 70 74 77 65 67 67 255 0 255 255 0 255 255 0 255 255 0 255 255 0 255 255 0 255 255 0 255 255 0 255 255 0 255
255 0 255 255 0 255 255 0 255 255 0 255 255 0 255 255 0 255 255 0 255 255 0 255 255 0 255 255 0 255 255 0 255 255 0 255
255 0 255 255 0 255 255 0 255 255 0 255 255 0 255 255 0 255 255 0 255 255 0 255 255 0 255 255 0 255 255 0 255 255 0 255
255 0 255 255 0 255 255 0 255 255 0 255 255 0 255 255 0 255 255 0 255 255 0 255 255 0 255 255 0 255 255 0 255 255 0 255
255 0 255 255 0 255 255 0 255 255 0 255 255 0 255 255 0 255 255 0 255 255 0 255 255 0 255 255 0 255 255 0 255 255 0 255
255 0 255 255 0 255 255 0 255 255 0 255 255 0 255 255 0 255 255 0 255 255 0 255 255 0 255 255 0 255 255 0 255 255 0 255
255 0 255 255 0 255 255 0 255 255 0 255 255 0 255 255 0 255 255 0 255 255 0 255 255 0 255 255 0 255 255 0 255 255 0 255
255 0 255 255 0 255 255 0 255 255 0 255 255 0 255 255 0 255 255 0 255 255 0 255 255 0 255 255 0 255 255 0 255 255 0 255
255 0 255 255 0 255 255 0 255 255 0 255 255 0 255 255 0 255 255 0 255 255 0 255 255 0 255 255 0 255 255 0 255 255 0 255
255 0 255 255 0 255 255 0 255 255 0 255 255 0 255 255 0 255 255 0 255 255 0 255 255 0 255 255 0 255 255 0 255 255 0 255
255 0 255 255 0 255 255 0 255 255 0 255 255 0 255 255 0 255 255 0 255 255 0 255 255 0 255 255 0 255 255 0 255 255 0 255
255 0 255 255 0 255 255 0 255 255 0 255 255 0 255 255 0 255 255 0 255 255 0 255 255 0 255 255 0 255 255 0 255 255 0 255
255 0 255 255 0 255 255 0 255 255 0 255 255 0 255 255 0 255 255 0 255 255 0 255 255 0 255 255 0 255 255 0 255 255 0 255
255 0 255 255 0 255 255 0 255 255 0 255 255 0 255 255 0 255 255 0 255 255 0 255 255 0 255 255 0 255 255 0 255 255 0 255
255 0 255 255 0 255 255 0 255 255 0 255 255 0 255 255 0 255 255 0 255 255 0 255 255 0 255 255 0 255 255 0 255 255 0 255
255 0 255 255 0 255 255 0 255 255 0 255 255 0 255 255 0 255 255 0 255 255 0 255 255 0 255 255 0 255 255 0 255 255 0 255
255 0 255 255 0 255 255 0 255 255 0 255 255 0 255 255 0 255 255 0 255 255 0 255 255 0 255 255 0 255 255 0 255 255 0 255
255 0 255 255 0 255 255 0 255 255 0 255 255 0 255 255 0 255 255 0 255 255 0 255 255 0 255 255 0 255 255 0 255 255 0 255
255 0 255 255 0 255 255 0 255 255 0 255 255 0 255 255 0 255 255 0 255 255 0 255 255 0 255 255 0 255 255 0 255 255 0 255
255 0 255 255 0 255 255 0 255 255 0 255 255 0 255 255 0 255 255 0 255 255 0 255 255 0 255 255 0 255 255 0 255 255 0 255
255 0 255 255 0 255 255 0 255 255 0 255 255 0 255 255 0 255 255 0 255 255 0 255 255 0 255 255 0 255 255 0 255 255 0 255
255 0 255 255 0 255 255 0 255 255 0 255 255 0 255 255 0 255 255 0 255 255 0 255 255 0 255 255 0 255 255 0 255 255 0 255
255 0 255 255 0 255 255 0 255 255 0 255 255 0 255 255 0 255 255 0 255 255 0 255 255 0 255 255 0 255 255 0 255 255 0 255
255 0 255 255 0 255 255 0 255 255 0 255 255 0 255 255 0 255 255 0 255 255 0 255 255 0 255 255 0 255 255 0 255 255 0 255
255 0 255 255 0 255 255 0 255 255 0 255 255 0 255 255 0 255 255 0 255 255 0 255 255 0 255 255 0 255 255 0 255 255 0 255
255 0 255 255 0 255 255 0 255 255 0 255 255 0 255 255 0 255 255 0 255 255 0 255 255 0 255 255 0 255 255 0 255 255 0 255
255 0 255 255 0 255 255 0 255 255 0 255 255 0 255 255 0 255 255 0 255 255 0 255 255 0 255 255 0 255 255 0 255 255 0 255
255 0 255 255 0 255 255 0 255 255 0 255 255 0 255 255 0 255 255 0 255 255 0 255 255 0 255 255 0 255 255 0 255 255 0 255
255 0 255 255 0 255 255 0 255 255 0 255 255 0 255 255 0 255 255 0 255 255 0 255 255 0 255 255 0 255 255 0 255 255 0 255
255 0 255 255 0 255 255 0 255 255 0 255 255 0 255 255 0 255 255 0 255 255 0 255 255 0 255 255 0 255 255 0 255 255 0 255
255 0 255 255 0 255 255 0 255 255 0 255 255 0 255 255 0 255 255 0 255 255 0 255 255 0 255 255 0 255 255 0 255 255 0 255
255 0 255 255 0 255 255 0 255 255 0 255 255 0 255 255 0 255 255 0 255 255 0 255 255 0 255 255 0 255 255 0 255 255 0 255
255 0 255 255 0 255 255 0 255 255 0 255 255 0 255 255 0 255 255 0 255 255 0 255 255 0 255 255 0 255 255 0 255 255 0 255
255 0 255 255 0 255 255 0 255 255 0 255 255 0 255 255 0 255 255 0 255 255 0 255 255 0 255 255 0 255 255 0 255 255 0 255
255 0 255 255 0 255 255 0 255 255 0 255 255 0 255 255 0 255 255 0 255 255 0 255 255 0 255 255 0 255 255 0 255 255 0 255
255 0 255 255 0 255 255 0 255 255 0 255 255 0 255 255 0 255 255 0 255 255 0 255 255 0 255 255 0 255 255 0 255 255 0 255
255 0 255 255 0 255 255 0 255 255 0 255 255 0 255 255 0 255 255 0 255 255 0 255 255 0 255 255 0 255 255 0 255 255 0 255
255 0 255 255 0 255 255 0 255 255 0 255 255 0 255 255 0 255 255 0 255 255 0 255 255 0 255 255 0 255 255 0 255 255 0 255
255 0 255 255 0 255 255 0 255 255 0 255 255 0 255 255 0 255 255 0 255 255 0 255 255 0 255 255 0 255 255 0 255 255 0 255
255 0 255 255 0 255 255 0 255 255 0 255 255 0 255 255 0 255 255 0 255 255 0 255 255 0 255 255 0 255 255 0 255 255 0 255
255 0 255 255 0 255 255 0 255 255 0 255 255 0 255 255 0 255 255 0 255 255 0 255 255 0 255 255 0 255 255 0 255 255 0 255
255 0 255 255 0 255 255 0 255 255 0 255 255 0 255 255 0 255 255 0 255 255 0 255 255 0 255 255 0 255 255 0 255 255 0 255
255 0 255 255 0 255 255 0 255 255 0 255 255 0 255 255 0 255 255 0 255 255 0 255 255 0 255 255 0 255 255 0 255 255 0 255
