P3
60 48
255
255 0 255 255 0 255 255 0 255 255 0 255 255 0 255 255 0 255 255 0 255 255 0 255 255 0 255 255 0 255 255 0 255 255 0 255
255 0 255 255 0 255 255 0 255 255 0 255 255 0 255 255 0 255 255 0 255 255 0 255 255 0 255 255 0 255 255 0 255 255 0 255
255 0 255 255 0 255 255 0 255 255 0 255 255 0 255 255 0 255 255 0 255 255 0 255 255 0 255 255 0 255 255 0 255 255 0 255
255 0 255 255 0 255 255 0 255 255 0 255 255 0 255 255 0 255 255 0 255 255 0 255 255 0 255 255 0 255 255 0 255 255 0 255
255 0 255 255 0 255 255 0 255 255 0 255 255 0 255 255 0 255 255 0 255 255 0 255 255 0 255 255 0 255 255 0 255 255 0 255
255 0 255 255 0 255 255 0 255 255 0 255 255 0 255 255 0 255 255 0 255 255 0 255 255 0 255 255 0 255 255 0 255 255 0 255
255 0 255 255 0 255 255 0 255 255 0 255 255 0 255 255 0 255 255 0 255 107 85 84 148 64 53 198 114 96 186 114 100 172 108 97
255 0 255 255 0 255 255 0 255 255 0 255 255 0 255 255 0 255 255 0 255 255 0 255 255 0 255 255 0 255 255 0 255 255 0 255
255 0 255 255 0 255 255 0 255 255 0 255 255 0 255 255 0 255 255 0 255 255 0 255 255 0 255 255 0 255 255 0 255 255 0 255
255 0 255 255 0 255 255 0 255 255 0 255 255 0 255 255 0 255 255 0 255 255 0 255 255 0 255 255 0 255 255 0 255 255 0 255
255 0 255 255 0 255 255 0 255 255 0 255 255 0 255 255 0 255 255 0 255 255 0 255 255 0 255 255 0 255 255 0 255 255 0 255
255 0 255 255 0 255 255 0 255 255 0 255 255 0 255 255 0 255 255 0 255 99 82 79 137 38 29 196 76 59 207 104 85 217 123 104
203 122 104 187 116 100 255 0 255 255 0 255 255 0 255 255 0 255 255 0 255 255 0 255 255 0 255 255 0 255 255 0 255 255 0 255
255 0 255 255 0 255 255 0 255 255 0 255 255 0 255 255 0 255 255 0 255 255 0 255 255 0 255 255 0 255 255 0 255 255 0 255
255 0 255 255 0 255 255 0 255 255 0 255 255 0 255 255 0 255 255 0 255 255 0 255 255 0 255 255 0 255 255 0 255 255 0 255
255 0 255 255 0 255 255 0 255 255 0 255 255 0 255 255 0 255 255 0 255 255 0 255 255 0 255 255 0 255 114 62 58 192 84 70
197 98 83 205 105 88 205 109 90 194 111 94 177 118 103 160 108 99 255 0 255 255 0 255 94 51 48 151 44 35 174 64 51 156 57 44
171 74 58 216 121 96 222 129 104 174 97 83 255 0 255 255 0 255 255 0 255 255 0 255 144 84 76 172 115 102 255 0 255 255 0 255
255 0 255 255 0 255 255 0 255 255 0 255 255 0 255 255 0 255 255 0 255 255 0 255 255 0 255 255 0 255 255 0 255 255 0 255
255 0 255 255 0 255 255 0 255 255 0 255 255 0 255 255 0 255 255 0 255 255 0 255 255 0 255 255 0 255 255 0 255 255 0 255
255 0 255 255 0 255 255 0 255 255 0 255 255 0 255 255 0 255 255 0 255 255 0 255 255 0 255 255 0 255 89 54 52 129 36 30
154 50 41 160 51 42 172 60 48 192 81 65 214 113 95 220 123 105 165 83 70 137 88 83 94 96 93 83 20 20 154 52 42 169 71 56
179 70 57 180 67 52 202 102 82 225 135 111 185 92 76 132 79 77 255 0 255 95 66 66 161 57 47 222 119 97 197 117 98 184 120 106
255 0 255 255 0 255 255 0 255 255 0 255 255 0 255 255 0 255 255 0 255 255 0 255 255 0 255 255 0 255 255 0 255 255 0 255
255 0 255 255 0 255 255 0 255 255 0 255 255 0 255 255 0 255 255 0 255 255 0 255 255 0 255 255 0 255 255 0 255 255 0 255
255 0 255 255 0 255 255 0 255 255 0 255 255 0 255 255 0 255 255 0 255 255 0 255 255 0 255 255 0 255 255 0 255 85 44 42
138 40 34 175 62 49 172 60 48 174 58 48 165 51 41 165 62 52 185 84 69 182 71 55 132 54 41 83 31 27 134 43 34 186 69 54
174 65 51 176 65 50 176 62 48 168 69 56 164 68 56 174 79 69 125 78 78 51 59 59 117 31 26 178 58 45 185 75 58 225 133 110
205 129 109 161 96 90 255 0 255 255 0 255 255 0 255 255 0 255 255 0 255 255 0 255 255 0 255 255 0 255 255 0 255 255 0 255
255 0 255 255 0 255 255 0 255 255 0 255 255 0 255 255 0 255 255 0 255 255 0 255 255 0 255 255 0 255 255 0 255 255 0 255
255 0 255 255 0 255 255 0 255 255 0 255 255 0 255 255 0 255 255 0 255 255 0 255 255 0 255 255 0 255 255 0 255 255 0 255
62 34 34 116 28 22 151 45 37 151 46 38 150 49 40 152 45 38 151 50 41 164 58 49 182 76 63 183 83 70 160 60 51 155 53 42
170 58 47 162 58 48 172 64 51 145 46 37 165 57 49 196 93 77 175 73 57 91 30 22 113 34 26 173 62 49 184 70 56 170 58 46
196 101 84 215 124 101 146 73 65 255 0 255 255 0 255 255 0 255 255 0 255 255 0 255 255 0 255 255 0 255 255 0 255 255 0 255
255 0 255 255 0 255 255 0 255 255 0 255 255 0 255 255 0 255 255 0 255 255 0 255 255 0 255 255 0 255 255 0 255 255 0 255
255 0 255 255 0 255 255 0 255 255 0 255 255 0 255 255 0 255 255 0 255 103 60 57 154 70 62 161 78 68 170 95 80 142 68 57
111 49 41 97 31 27 129 40 35 134 43 37 144 43 36 170 52 44 173 55 46 159 52 44 145 47 41 151 48 42 160 54 46 129 51 42
141 48 42 170 55 46 164 55 44 163 54 45 185 63 53 180 61 49 187 76 64 188 80 66 170 68 55 133 46 36 171 65 51 176 65 52
174 60 46 183 91 71 207 108 86 131 65 57 255 0 255 255 0 255 255 0 255 255 0 255 255 0 255 255 0 255 255 0 255 255 0 255
255 0 255 255 0 255 255 0 255 255 0 255 255 0 255 255 0 255 255 0 255 255 0 255 255 0 255 255 0 255 255 0 255 255 0 255
255 0 255 255 0 255 255 0 255 255 0 255 255 0 255 255 0 255 255 0 255 96 51 47 142 36 28 155 53 43 169 59 51 175 65 56
174 61 52 167 60 53 157 49 43 160 52 44 149 50 42 133 44 37 148 45 38 146 44 38 130 42 34 147 42 34 150 40 33 153 40 32
110 26 19 132 33 26 161 42 34 156 43 34 152 47 39 158 52 45 159 52 45 165 57 49 165 58 48 173 62 50 171 66 52 172 65 52
188 69 55 164 59 47 176 80 66 162 62 51 107 62 64 255 0 255 109 90 86 163 79 67 193 120 107 161 121 116 255 0 255 255 0 255
255 0 255 255 0 255 255 0 255 255 0 255 255 0 255 255 0 255 255 0 255 255 0 255 255 0 255 255 0 255 255 0 255 255 0 255
255 0 255 255 0 255 255 0 255 255 0 255 255 0 255 255 0 255 255 0 255 255 0 255 93 39 37 109 28 25 112 30 27 119 37 33
122 38 33 143 43 37 151 46 38 151 44 36 122 27 21 84 11 9 68 9 9 87 24 22 82 25 22 103 51 47 108 55 52 107 57 54
101 54 51 75 45 43 95 49 46 103 53 50 82 25 23 100 30 29 116 36 30 122 28 21 127 28 21 156 42 35 140 47 37 156 57 49
158 59 49 169 58 49 178 61 51 169 71 56 122 42 36 88 57 54 99 39 34 184 56 43 207 106 89 206 118 98 143 88 82 255 0 255
255 0 255 255 0 255 255 0 255 255 0 255 255 0 255 255 0 255 255 0 255 255 0 255 255 0 255 255 0 255 255 0 255 255 0 255
255 0 255 255 0 255 255 0 255 255 0 255 255 0 255 255 0 255 255 0 255 255 0 255 255 0 255 95 64 61 94 42 38 111 39 35
110 28 24 102 19 16 83 15 13 63 16 13 105 74 67 149 129 120 169 160 150 195 189 179 192 188 177 216 211 195 221 217 201 227 226 212
234 232 220 234 230 218 231 229 217 232 231 221 202 198 192 204 200 193 186 179 168 155 139 130 131 102 95 104 67 64 89 36 34 108 22 21
113 21 17 158 43 37 166 54 46 115 41 33 172 75 63 164 62 51 158 53 45 182 68 57 174 57 46 206 108 88 192 97 79 125 80 78
255 0 255 255 0 255 255 0 255 255 0 255 255 0 255 255 0 255 255 0 255 255 0 255 255 0 255 255 0 255 255 0 255 255 0 255
255 0 255 255 0 255 255 0 255 255 0 255 255 0 255 255 0 255 255 0 255 255 0 255 255 0 255 255 0 255 255 0 255 255 0 255
86 65 63 105 81 73 113 100 91 54 54 52 140 138 129 220 214 200 238 231 218 244 236 221 246 236 219 242 231 213 246 236 219 248 238 223
251 242 228 251 243 230 252 244 231 251 244 231 255 249 236 254 246 231 254 245 229 255 250 235 251 248 235 240 239 227 219 216 206 170 162 153
120 91 87 99 43 41 86 15 12 95 20 15 161 48 40 172 60 51 172 62 52 182 78 64 163 61 49 173 62 51 200 96 75 153 75 65
255 0 255 255 0 255 255 0 255 255 0 255 255 0 255 255 0 255 255 0 255 255 0 255 255 0 255 255 0 255 255 0 255 255 0 255
255 0 255 255 0 255 255 0 255 255 0 255 255 0 255 255 0 255 255 0 255 255 0 255 255 0 255 255 0 255 255 0 255 147 142 134
176 170 156 200 193 176 217 209 195 234 226 215 230 223 212 220 211 198 206 198 186 217 208 194 238 230 215 247 241 230 247 241 230 244 237 226
243 236 222 243 236 220 243 235 220 247 240 226 251 246 235 253 248 238 254 249 238 254 250 238 253 247 235 252 246 233 252 243 228 251 242 225
248 245 229 223 223 215 173 163 158 120 87 81 91 28 25 118 24 19 161 50 41 154 56 45 127 43 35 164 50 44 175 72 60 166 72 59
119 78 76 255 0 255 255 0 255 255 0 255 255 0 255 255 0 255 255 0 255 255 0 255 255 0 255 255 0 255 255 0 255 255 0 255
255 0 255 255 0 255 255 0 255 255 0 255 255 0 255 255 0 255 255 0 255 255 0 255 255 0 255 140 135 125 184 173 160 201 189 172
198 186 170 213 203 187 240 231 218 242 234 221 246 239 226 248 241 227 251 246 233 235 232 224 182 174 164 200 192 183 220 214 204 226 221 211
225 219 209 225 219 210 223 218 211 235 230 224 233 226 219 236 230 224 232 225 213 238 231 219 245 239 228 249 245 235 252 248 237 252 246 233
244 236 222 247 238 223 249 241 225 239 234 217 191 186 173 120 97 90 102 31 27 113 22 16 141 42 37 149 46 41 140 44 38 177 71 57
125 58 52 255 0 255 255 0 255 255 0 255 255 0 255 255 0 255 255 0 255 255 0 255 255 0 255 255 0 255 255 0 255 255 0 255
255 0 255 255 0 255 255 0 255 255 0 255 255 0 255 255 0 255 255 0 255 113 110 106 174 166 153 206 194 178 204 195 179 208 200 187
219 211 198 235 227 212 244 235 220 247 239 223 243 235 219 248 242 226 227 220 208 211 204 193 229 223 211 242 236 222 242 236 223 243 237 223
241 234 219 241 234 220 243 236 222 242 235 222 242 237 227 241 235 224 236 229 216 233 225 210 232 225 213 234 227 217 231 225 214 231 224 212
239 233 221 247 239 227 246 238 223 245 236 222 234 226 213 204 201 192 200 196 189 115 79 73 92 18 14 127 36 31 139 48 40 176 60 49
112 46 43 255 0 255 255 0 255 255 0 255 255 0 255 255 0 255 255 0 255 255 0 255 255 0 255 255 0 255 255 0 255 255 0 255
255 0 255 255 0 255 255 0 255 255 0 255 255 0 255 255 0 255 255 0 255 65 60 55 87 80 71 127 120 109 172 164 150 213 204 189
242 233 218 237 229 217 228 220 207 222 215 201 238 231 216 202 194 179 211 203 189 239 231 216 241 232 217 238 230 215 239 231 217 239 230 216
238 230 215 238 230 215 238 229 214 234 226 210 239 232 218 253 247 234 255 248 231 250 242 225 252 245 231 253 247 233 254 246 233 241 232 217
230 221 207 220 212 199 227 219 207 244 239 228 248 242 231 249 240 228 232 224 211 204 202 190 145 128 121 88 29 27 111 23 21 77 3 3
92 73 71 169 163 158 255 0 255 255 0 255 255 0 255 255 0 255 255 0 255 255 0 255 255 0 255 255 0 255 255 0 255 255 0 255
255 0 255 255 0 255 255 0 255 255 0 255 255 0 255 107 105 103 154 149 141 154 147 137 94 89 80 75 72 66 62 59 56 75 71 65
118 113 103 181 174 162 209 201 188 218 210 195 191 185 173 195 189 178 219 208 193 236 226 210 236 228 213 237 229 214 237 230 215 238 230 216
239 231 217 236 228 212 235 227 211 246 239 224 237 230 216 190 184 173 133 128 118 105 101 92 113 109 101 115 110 99 135 129 119 179 170 157
229 221 206 248 241 229 231 224 212 219 212 199 225 217 202 234 224 206 238 229 211 236 226 210 205 197 183 147 143 134 162 150 145 105 95 89
185 179 165 212 203 188 129 127 123 255 0 255 255 0 255 255 0 255 255 0 255 255 0 255 255 0 255 255 0 255 255 0 255 255 0 255
255 0 255 255 0 255 255 0 255 255 0 255 255 0 255 147 140 129 181 170 155 189 179 164 215 205 189 233 225 210 212 208 199 173 172 168
140 139 137 77 75 72 91 85 78 86 79 69 127 120 108 252 242 225 165 155 142 193 184 171 238 231 217 236 229 214 239 231 217 238 230 216
239 232 218 236 229 215 238 231 215 193 183 167 77 72 65 18 18 17 21 23 27 33 37 40 38 41 45 47 49 54 36 40 44 34 37 42
52 50 49 123 115 102 223 214 198 231 221 205 214 204 188 211 201 187 216 206 192 223 216 203 245 238 228 210 202 189 194 187 173 242 235 218
196 186 169 195 185 165 147 141 129 255 0 255 255 0 255 255 0 255 255 0 255 255 0 255 255 0 255 255 0 255 255 0 255 255 0 255
255 0 255 255 0 255 255 0 255 255 0 255 141 136 129 179 169 155 175 167 153 190 181 168 210 201 188 208 199 187 209 200 185 238 230 215
250 242 227 239 233 218 205 203 196 142 143 143 86 85 82 118 110 100 200 193 180 227 220 207 237 229 216 229 221 207 229 220 205 232 224 208
228 219 202 240 233 218 173 165 155 37 34 33 17 20 24 56 62 68 59 64 67 34 40 45 34 55 73 30 73 98 28 55 74 38 48 58
35 46 57 13 20 29 67 63 56 207 200 185 216 207 192 211 201 186 214 203 188 200 189 172 216 208 193 175 170 161 59 53 46 95 92 84
55 56 55 29 31 37 29 29 32 95 98 106 255 0 255 255 0 255 255 0 255 255 0 255 255 0 255 255 0 255 255 0 255 255 0 255
255 0 255 255 0 255 255 0 255 129 124 119 189 172 155 192 177 160 195 186 171 208 199 183 208 197 181 207 196 180 223 214 197 223 214 197
220 211 194 222 214 198 232 225 209 252 247 237 246 244 239 193 191 187 130 126 120 130 123 115 192 183 168 226 217 201 234 225 209 210 200 184
210 200 183 215 205 188 73 69 63 21 24 30 64 68 71 76 82 85 28 29 33 41 98 128 29 148 190 97 186 214 69 165 199 16 103 143
34 53 68 56 69 82 15 23 32 92 87 78 221 213 199 204 194 181 186 177 164 200 191 177 207 197 183 57 54 48 22 32 41 78 85 91
51 59 68 103 88 66 164 123 58 170 132 73 255 0 255 255 0 255 255 0 255 255 0 255 255 0 255 255 0 255 255 0 255 255 0 255
255 0 255 255 0 255 255 0 255 70 66 64 63 89 98 122 134 133 173 152 140 214 198 180 206 196 180 209 200 185 230 221 206 224 215 200
224 216 201 232 225 211 233 226 211 218 210 194 223 213 197 238 230 214 248 244 230 169 164 159 106 100 95 147 138 127 178 167 151 193 183 168
222 213 200 220 214 200 43 42 43 37 42 48 77 81 84 42 48 51 61 69 79 31 125 164 65 235 246 193 255 255 159 255 255 32 178 219
49 99 127 29 30 35 50 61 71 15 14 12 176 167 154 225 216 201 157 150 136 197 187 170 161 153 139 29 33 36 66 88 110 55 69 80
119 76 31 210 157 81 237 194 121 255 213 136 235 194 122 192 152 93 255 0 255 255 0 255 255 0 255 255 0 255 255 0 255 255 0 255
255 0 255 255 0 255 255 0 255 99 94 89 43 130 151 28 158 188 18 145 167 27 68 80 157 144 134 223 213 197 219 210 195 220 211 197
230 222 208 198 188 174 174 164 150 229 220 205 221 212 196 225 214 196 190 179 162 140 131 121 228 221 209 223 220 215 168 163 157 129 121 111
158 149 136 116 107 96 14 14 16 37 43 48 54 58 62 65 69 73 40 48 52 44 114 147 40 192 229 69 231 248 62 217 240 32 159 210
55 89 107 49 52 57 63 72 81 6 8 9 41 35 31 113 105 94 140 131 119 108 101 90 50 52 50 36 46 52 18 34 53 49 46 38
195 137 61 95 75 48 41 32 25 144 118 79 247 204 128 246 205 132 232 182 100 173 140 89 255 0 255 255 0 255 255 0 255 255 0 255
255 0 255 255 0 255 118 114 109 171 163 151 172 158 143 184 179 169 138 191 193 70 94 100 172 160 150 220 211 196 206 197 182 218 208 191
186 176 163 29 49 61 26 69 89 114 110 106 233 224 209 230 222 206 166 159 148 188 182 172 219 209 194 215 205 189 230 222 208 216 210 198
170 164 155 156 154 150 77 76 75 18 23 29 48 53 59 89 94 97 72 74 75 54 67 75 51 90 113 46 104 129 43 99 125 46 77 93
58 60 64 73 84 94 27 30 36 33 33 32 62 64 63 40 44 47 46 52 57 34 45 59 44 61 79 54 62 68 109 85 48 180 123 52
200 140 64 210 157 85 182 142 84 183 139 74 206 143 59 210 155 75 230 186 111 246 199 115 193 149 85 255 0 255 255 0 255 255 0 255
255 0 255 255 0 255 121 117 111 146 138 127 138 132 122 188 178 164 205 183 167 205 189 172 181 172 157 208 197 182 206 195 179 207 196 179
208 199 187 108 126 133 57 89 101 146 143 135 216 205 188 226 217 200 173 165 153 225 218 206 232 222 207 172 166 154 148 143 134 233 224 210
233 224 211 244 236 222 239 234 222 108 110 110 29 34 39 34 38 44 68 73 78 75 75 75 72 69 65 65 61 59 68 65 64 69 68 70
65 72 79 23 28 35 35 36 36 92 99 101 81 89 92 83 90 93 76 84 92 72 68 60 109 80 41 162 113 42 180 122 49 157 106 47
147 100 43 148 98 39 161 108 42 166 113 44 170 118 51 186 128 53 197 137 58 201 144 68 225 170 83 172 135 79 255 0 255 255 0 255
255 0 255 255 0 255 128 122 115 155 146 134 147 139 128 180 171 157 175 166 152 179 169 154 187 178 162 177 166 150 204 194 178 209 199 184
209 199 183 215 203 186 202 191 174 221 212 195 210 200 184 186 176 159 112 106 95 124 117 107 187 178 162 217 209 195 224 216 203 226 217 204
217 208 194 212 201 186 220 211 197 248 244 236 179 178 174 86 88 87 29 32 33 18 23 27 34 42 50 39 47 54 33 41 48 32 37 43
46 48 48 78 77 77 68 74 80 64 75 83 56 65 70 36 42 48 19 17 13 81 49 10 122 77 25 105 69 28 91 58 24 113 77 32
112 78 34 113 76 33 92 62 26 81 53 22 104 67 28 100 62 23 109 70 25 118 76 27 149 99 42 200 141 59 139 108 70 255 0 255
255 0 255 255 0 255 107 102 97 146 137 123 147 137 124 167 158 143 186 176 161 177 166 152 184 174 160 182 172 157 173 163 148 187 177 162
201 192 177 208 199 184 210 202 186 188 179 164 112 104 94 40 36 33 18 18 19 9 10 12 31 33 33 88 85 79 161 153 142 212 202 186
227 217 201 219 211 196 212 203 189 211 202 187 245 237 224 221 214 201 200 196 186 173 171 163 155 155 150 164 164 163 163 164 164 199 198 195
214 209 200 220 214 205 173 165 155 47 46 42 28 32 36 51 58 66 59 67 78 53 51 54 96 63 26 147 93 33 151 94 36 139 85 34
136 84 35 130 79 33 128 78 32 119 77 38 98 65 37 91 66 45 89 67 47 74 66 61 70 63 60 99 73 45 94 67 37 255 0 255
255 0 255 255 0 255 84 84 82 125 118 109 100 95 88 115 109 99 164 154 139 177 165 149 185 174 159 185 175 161 180 171 156 177 167 153
159 151 139 172 162 150 154 146 134 73 70 66 7 8 11 10 10 11 56 62 70 89 94 102 76 81 87 6 9 14 17 18 19 51 51 48
133 125 113 210 201 186 229 221 207 214 206 192 187 179 166 172 164 152 208 197 181 221 211 194 225 216 199 225 217 203 224 217 206 215 208 195
189 182 171 148 145 137 202 196 186 175 170 158 38 41 44 45 55 69 36 48 60 35 43 53 27 22 29 42 26 11 76 49 25 58 35 18
57 38 27 70 54 42 255 0 255 255 0 255 255 0 255 255 0 255 255 0 255 255 0 255 255 0 255 255 0 255 255 0 255 255 0 255
255 0 255 255 0 255 255 0 255 108 104 99 95 87 81 34 33 29 37 35 33 80 74 68 123 114 102 149 139 124 178 167 153 161 151 136
61 57 50 16 16 15 13 12 10 21 23 26 42 52 61 30 32 33 60 69 80 74 80 86 56 54 51 62 67 70 64 76 85 15 25 35
22 25 30 59 55 51 155 147 135 189 180 164 159 152 138 166 161 151 202 193 179 204 194 180 199 189 174 199 189 173 198 188 172 197 187 173
195 186 172 181 174 162 171 163 150 87 82 74 36 39 45 31 43 53 39 23 26 70 18 14 121 41 34 73 21 21 11 20 20 42 9 11
66 46 49 255 0 255 255 0 255 255 0 255 255 0 255 255 0 255 255 0 255 255 0 255 255 0 255 255 0 255 255 0 255 255 0 255
255 0 255 255 0 255 255 0 255 255 0 255 111 106 100 46 45 42 1 5 10 15 23 33 13 19 27 33 34 37 49 46 43 28 26 24
20 23 30 35 41 49 14 18 23 29 34 39 40 41 43 13 11 11 46 53 61 53 62 74 72 76 78 64 68 69 45 49 50 28 30 31
57 63 68 20 23 28 21 19 17 171 163 150 203 194 179 180 171 157 201 191 176 198 189 174 200 191 176 204 195 180 203 193 179 188 178 164
186 177 162 148 139 126 38 35 31 19 25 32 27 35 44 61 21 20 123 30 23 102 24 19 121 42 37 163 66 54 41 12 9 90 22 21
93 29 27 255 0 255 255 0 255 255 0 255 255 0 255 255 0 255 255 0 255 255 0 255 255 0 255 255 0 255 255 0 255 255 0 255
255 0 255 255 0 255 255 0 255 255 0 255 102 102 102 113 108 103 111 104 97 77 74 70 47 48 48 28 33 38 17 23 30 4 5 9
53 62 72 56 62 69 50 52 55 56 59 61 31 39 47 30 38 43 12 12 13 32 36 40 43 51 61 62 70 77 81 85 89 115 115 110
76 77 77 62 71 80 46 47 48 141 133 123 204 195 182 164 156 145 180 171 156 193 183 167 187 177 162 181 171 156 174 165 153 168 160 147
117 108 96 37 33 32 23 26 34 14 21 23 61 16 16 131 35 29 111 30 25 141 47 39 155 45 38 207 105 86 105 49 39 67 14 13
112 30 27 86 56 54 255 0 255 255 0 255 255 0 255 255 0 255 255 0 255 255 0 255 255 0 255 255 0 255 255 0 255 255 0 255
255 0 255 255 0 255 255 0 255 255 0 255 91 88 85 142 133 122 150 141 129 172 161 149 184 175 162 187 181 169 159 157 150 119 117 112
38 41 42 25 28 31 58 63 68 65 62 57 70 71 68 45 50 53 13 12 12 11 9 8 27 29 30 36 39 43 53 59 65 67 77 83
59 71 82 38 47 56 39 36 35 167 158 143 175 164 148 143 134 121 123 116 104 135 127 116 159 148 135 156 146 132 160 149 134 106 98 88
40 39 39 43 37 40 20 25 27 51 18 15 131 38 32 157 47 39 120 35 28 166 54 45 162 49 39 186 81 66 157 83 67 62 12 11
103 30 26 117 44 37 255 0 255 255 0 255 255 0 255 255 0 255 255 0 255 255 0 255 255 0 255 255 0 255 255 0 255 255 0 255
255 0 255 255 0 255 255 0 255 255 0 255 101 100 96 147 139 129 141 133 122 162 151 139 167 157 145 196 186 171 201 191 176 242 236 222
149 141 128 18 19 19 54 64 72 55 59 63 96 95 88 44 45 45 19 20 21 27 25 25 59 64 70 23 25 31 28 30 35 25 27 31
26 29 33 16 18 19 8 7 7 50 46 42 105 98 86 143 134 119 153 144 130 152 142 130 162 154 139 131 123 111 64 61 58 30 36 43
45 53 63 43 51 61 29 19 21 107 31 24 144 44 36 161 49 41 143 44 36 160 53 43 166 55 44 169 59 47 199 93 73 63 21 19
90 26 24 147 41 34 121 93 93 255 0 255 255 0 255 255 0 255 255 0 255 255 0 255 255 0 255 255 0 255 255 0 255 255 0 255
255 0 255 255 0 255 255 0 255 255 0 255 96 94 91 148 141 131 135 128 118 151 139 126 168 157 143 186 177 162 179 170 156 181 173 160
241 235 224 147 140 132 19 26 32 57 67 77 69 70 69 22 22 24 62 62 62 17 16 16 64 65 67 27 28 32 40 47 57 53 63 73
75 85 94 92 101 108 19 19 23 19 28 42 18 19 22 22 19 15 38 36 33 49 46 42 52 49 44 16 15 14 18 22 28 44 50 56
68 69 75 255 0 255 67 25 25 155 45 37 148 47 37 140 41 33 147 48 40 156 58 48 154 57 47 177 66 53 172 68 52 69 21 18
117 30 27 122 34 29 112 103 105 255 0 255 255 0 255 255 0 255 255 0 255 255 0 255 255 0 255 255 0 255 255 0 255 255 0 255
255 0 255 255 0 255 255 0 255 255 0 255 100 100 98 134 126 116 140 134 122 149 138 126 172 164 152 194 187 175 172 169 159 170 167 158
198 194 183 165 157 146 112 111 109 83 86 88 10 11 11 18 21 26 74 83 91 31 31 33 88 93 93 78 77 72 27 30 35 56 65 73
51 62 71 88 97 104 47 52 59 26 30 37 13 11 11 21 25 32 36 44 52 19 21 25 20 24 30 27 29 35 33 35 39 45 43 45
255 0 255 255 0 255 72 43 41 146 38 31 162 60 48 152 53 44 161 55 47 170 60 51 165 58 48 194 76 61 140 48 38 63 14 14
105 22 20 90 56 55 255 0 255 255 0 255 255 0 255 255 0 255 255 0 255 255 0 255 255 0 255 255 0 255 255 0 255 255 0 255
255 0 255 255 0 255 255 0 255 255 0 255 255 0 255 95 93 90 87 85 80 88 82 74 133 125 112 171 163 148 197 188 172 192 184 169
121 115 105 165 156 140 219 209 193 239 234 225 163 160 156 96 101 103 22 29 34 27 29 33 80 84 85 116 113 100 21 21 22 27 30 33
67 73 74 82 83 82 93 99 103 19 24 29 17 14 13 39 48 59 55 72 87 43 50 59 34 40 49 30 33 39 33 34 36 255 0 255
255 0 255 255 0 255 69 65 61 113 36 32 170 58 47 167 60 49 165 58 49 152 54 45 177 61 50 162 57 46 77 25 21 99 33 31
93 46 46 255 0 255 255 0 255 255 0 255 255 0 255 255 0 255 255 0 255 255 0 255 255 0 255 255 0 255 255 0 255 255 0 255
255 0 255 255 0 255 255 0 255 255 0 255 255 0 255 255 0 255 39 41 46 22 28 36 18 19 21 44 44 42 91 85 75 87 80 70
178 169 155 197 187 173 173 165 152 202 193 180 228 221 210 240 235 227 163 159 152 52 52 52 41 47 52 68 73 77 16 16 22 38 42 46
64 77 86 61 71 79 107 114 119 66 75 83 8 9 10 22 24 27 37 44 50 18 20 23 19 20 23 20 21 24 44 49 54 255 0 255
255 0 255 255 0 255 255 0 255 107 83 83 112 50 46 145 51 42 158 56 46 154 56 46 122 45 39 79 44 42 255 0 255 255 0 255
255 0 255 255 0 255 255 0 255 255 0 255 255 0 255 255 0 255 255 0 255 255 0 255 255 0 255 255 0 255 255 0 255 255 0 255
255 0 255 255 0 255 255 0 255 255 0 255 255 0 255 72 75 76 38 45 53 27 31 37 25 28 32 33 37 42 18 21 27 14 15 20
108 102 95 198 189 174 191 182 168 194 184 169 187 176 159 196 188 170 232 225 212 229 224 215 155 155 153 83 87 89 14 12 13 9 10 12
47 61 73 45 50 53 70 67 63 83 94 104 21 25 31 37 42 48 98 100 101 61 62 61 26 30 33 30 35 40 57 66 75 255 0 255
255 0 255 255 0 255 255 0 255 255 0 255 255 0 255 81 53 51 78 31 27 81 41 38 255 0 255 255 0 255 255 0 255 255 0 255
255 0 255 255 0 255 255 0 255 255 0 255 255 0 255 255 0 255 255 0 255 255 0 255 255 0 255 255 0 255 255 0 255 255 0 255
255 0 255 255 0 255 255 0 255 255 0 255 77 77 75 50 55 59 41 44 46 48 48 45 59 61 63 73 78 84 89 92 93 40 42 50
0 0 2 84 79 71 192 180 164 179 169 152 192 183 168 210 202 185 212 201 183 209 200 186 226 217 206 240 235 223 196 192 182 100 97 93
42 49 57 54 63 74 56 63 72 88 100 110 39 47 53 19 22 25 61 68 75 88 96 104 42 52 62 34 42 48 31 35 41 51 55 59
255 0 255 255 0 255 255 0 255 255 0 255 255 0 255 255 0 255 255 0 255 255 0 255 255 0 255 255 0 255 255 0 255 255 0 255
255 0 255 255 0 255 255 0 255 255 0 255 255 0 255 255 0 255 255 0 255 255 0 255 255 0 255 255 0 255 255 0 255 255 0 255
255 0 255 255 0 255 255 0 255 255 0 255 42 47 56 46 50 57 65 60 57 90 89 82 64 66 68 55 59 62 81 81 77 44 48 55
9 10 11 28 27 26 169 158 145 190 180 164 195 184 167 151 146 137 111 114 117 174 166 154 201 191 173 197 186 171 217 209 196 239 233 222
80 78 74 32 42 52 37 44 51 57 58 58 38 41 44 16 18 20 40 49 58 90 98 106 54 62 73 40 51 62 25 26 30 47 47 50
255 0 255 255 0 255 255 0 255 255 0 255 255 0 255 255 0 255 255 0 255 255 0 255 255 0 255 255 0 255 255 0 255 255 0 255
255 0 255 255 0 255 255 0 255 255 0 255 255 0 255 255 0 255 255 0 255 255 0 255 255 0 255 255 0 255 255 0 255 255 0 255
255 0 255 255 0 255 255 0 255 255 0 255 33 37 44 29 33 38 46 48 52 53 59 68 64 68 74 80 78 74 48 50 53 20 20 22
31 35 41 26 29 33 128 121 110 198 186 168 178 167 152 35 105 130 15 187 220 31 93 118 203 184 167 208 202 188 187 177 161 218 209 193
123 117 106 8 11 13 46 54 63 70 75 82 108 117 122 21 26 31 18 20 22 46 49 51 36 39 43 23 30 36 19 18 18 80 77 75
102 100 96 255 0 255 255 0 255 255 0 255 255 0 255 255 0 255 255 0 255 255 0 255 255 0 255 255 0 255 255 0 255 255 0 255
255 0 255 255 0 255 255 0 255 255 0 255 255 0 255 255 0 255 255 0 255 255 0 255 255 0 255 255 0 255 255 0 255 255 0 255
255 0 255 255 0 255 74 75 78 64 70 76 40 45 48 31 32 34 22 23 24 28 31 35 46 49 53 61 68 74 25 26 29 30 31 37
68 92 109 32 44 54 85 80 74 194 183 167 189 180 167 159 183 181 89 163 174 123 143 144 201 186 169 195 186 171 188 177 162 206 196 182
190 180 164 35 38 40 51 62 74 64 68 73 86 95 101 42 52 60 16 17 19 76 80 83 80 81 82 51 56 61 39 45 49 56 55 55
90 88 88 255 0 255 255 0 255 255 0 255 255 0 255 255 0 255 255 0 255 255 0 255 255 0 255 255 0 255 255 0 255 255 0 255
255 0 255 255 0 255 255 0 255 255 0 255 255 0 255 255 0 255 255 0 255 255 0 255 255 0 255 255 0 255 255 0 255 255 0 255
255 0 255 82 84 82 39 46 55 46 49 54 64 65 63 87 89 89 91 93 92 31 33 37 11 9 10 32 33 35 44 42 40 28 31 36
41 59 74 30 42 52 27 25 23 116 108 99 162 154 142 190 176 160 211 190 173 209 193 177 190 181 166 185 175 162 189 179 166 199 191 178
221 212 198 68 65 58 42 51 60 64 71 76 70 76 79 73 83 93 27 36 44 54 70 85 89 102 111 67 82 95 43 52 60 25 27 29
77 79 83 255 0 255 255 0 255 255 0 255 255 0 255 255 0 255 255 0 255 255 0 255 255 0 255 255 0 255 255 0 255 255 0 255
255 0 255 255 0 255 255 0 255 255 0 255 255 0 255 255 0 255 255 0 255 255 0 255 255 0 255 255 0 255 255 0 255 255 0 255
255 0 255 64 67 69 43 51 64 51 57 65 52 56 61 70 77 84 42 46 50 20 20 19 38 41 47 60 64 69 77 76 76 78 77 77
98 94 90 68 71 75 37 42 46 16 16 16 18 15 13 46 44 41 80 77 71 130 122 111 172 162 148 198 188 174 204 194 180 145 136 123
211 201 186 132 124 114 17 22 27 61 73 85 70 75 79 78 92 105 40 46 53 31 42 51 64 74 80 50 53 55 42 45 48 20 21 22
68 71 75 255 0 255 255 0 255 255 0 255 255 0 255 255 0 255 255 0 255 255 0 255 255 0 255 255 0 255 255 0 255 255 0 255
255 0 255 255 0 255 255 0 255 255 0 255 255 0 255 255 0 255 255 0 255 255 0 255 255 0 255 255 0 255 255 0 255 255 0 255
255 0 255 255 0 255 255 0 255 72 79 87 55 62 71 35 38 42 12 13 14 37 36 35 53 60 68 54 62 71 51 53 57 93 92 84
77 79 79 55 66 80 71 78 84 10 9 9 20 24 28 30 37 41 23 27 29 24 27 29 35 34 32 76 72 66 121 113 103 145 134 120
190 180 163 141 132 120 17 16 17 40 50 62 33 43 53 59 69 79 36 40 47 2 4 7 46 54 60 56 60 65 41 46 52 13 14 15
34 38 42 77 81 82 255 0 255 255 0 255 255 0 255 255 0 255 255 0 255 255 0 255 255 0 255 255 0 255 255 0 255 255 0 255
255 0 255 255 0 255 255 0 255 255 0 255 255 0 255 255 0 255 255 0 255 255 0 255 255 0 255 255 0 255 255 0 255 255 0 255
255 0 255 255 0 255 255 0 255 255 0 255 255 0 255 255 0 255 255 0 255 255 0 255 255 0 255 68 71 75 73 76 80 58 61 68
49 53 57 45 51 56 33 37 41 14 12 12 41 47 54 53 59 65 62 63 65 61 67 75 47 54 59 22 26 33 15 18 23 45 44 43
58 57 54 31 29 27 45 50 58 57 65 72 69 77 83 64 69 74 77 82 84 54 56 54 58 65 70 77 86 94 66 76 85 54 62 71
60 72 83 51 61 70 255 0 255 255 0 255 255 0 255 255 0 255 255 0 255 255 0 255 255 0 255 255 0 255 255 0 255 255 0 255
255 0 255 255 0 255 255 0 255 255 0 255 255 0 255 255 0 255 255 0 255 255 0 255 255 0 255 255 0 255 255 0 255 255 0 255
255 0 255 255 0 255 255 0 255 255 0 255 255 0 255 255 0 255 255 0 255 255 0 255 255 0 255 255 0 255 255 0 255 255 0 255
255 0 255 255 0 255 255 0 255 255 0 255 255 0 255 55 58 59 28 33 38 51 57 64 57 61 67 44 49 54 49 56 64 41 50 62
38 50 64 34 38 41 47 56 65 43 50 54 57 70 82 60 74 89 81 92 105 78 81 79 88 98 108 69 84 103 62 78 96 53 69 85
46 63 80 42 53 64 255 0 255 255 0 255 255 0 255 255 0 255 255 0 255 255 0 255 255 0 255 255 0 255 255 0 255 255 0 255
255 0 255 255 0 255 255 0 255 255 0 255 255 0 255 255 0 255 255 0 255 255 0 255 255 0 255 255 0 255 255 0 255 255 0 255
255 0 255 255 0 255 255 0 255 255 0 255 255 0 255 255 0 255 255 0 255 255 0 255 255 0 255 255 0 255 255 0 255 255 0 255
255 0 255 255 0 255 255 0 255 255 0 255 255 0 255 255 0 255 255 0 255 255 0 255 255 0 255 255 0 255 255 0 255 255 0 255
255 0 255 64 67 67 85 88 93 69 74 78 45 53 60 36 46 55 49 59 68 57 62 64 54 62 68 38 49 63 38 47 57 66 71 77
80 85 88 255 0 255 255 0 255 255 0 255 255 0 255 255 0 255 255 0 255 255 0 255 255 0 255 255 0 255 255 0 255 255 0 255
255 0 255 255 0 255 255 0 255 255 0 255 255 0 255 255 0 255 255 0 255 255 0 255 255 0 255 255 0 255 255 0 255 255 0 255
255 0 255 255 0 255 255 0 255 255 0 255 255 0 255 255 0 255 255 0 255 255 0 255 255 0 255 255 0 255 255 0 255 255 0 255
255 0 255 255 0 255 255 0 255 255 0 255 255 0 255 255 0 255 255 0 255 255 0 255 255 0 255 255 0 255 255 0 255 255 0 255
255 0 255 255 0 255 255 0 255 255 0 255 255 0 255 255 0 255 255 0 255 255 0 255 255 0 255 255 0 255 255 0 255 255 0 255
255 0 255 255 0 255 255 0 255 255 0 255 255 0 255 255 0 255 255 0 255 255 0 255 255 0 255 255 0 255 255 0 255 255 0 255
255 0 255 255 0 255 255 0 255 255 0 255 255 0 255 255 0 255 255 0 255 255 0 255 255 0 255 255 0 255 255 0 255 255 0 255
