P3
52 28
255
255 0 255 255 0 255 255 0 255 255 0 255 255 0 255 255 0 255 255 0 255 255 0 255 255 0 255 255 0 255 255 0 255 255 0 255
255 0 255 255 0 255 255 0 255 255 0 255 255 0 255 255 0 255 255 0 255 255 0 255 255 0 255 255 0 255 255 0 255 255 0 255
255 0 255 255 0 255 255 0 255 255 0 255 255 0 255 255 0 255 255 0 255 255 0 255 255 0 255 255 0 255 255 0 255 255 0 255
255 0 255 255 0 255 255 0 255 255 0 255 255 0 255 255 0 255 255 0 255 255 0 255 255 0 255 255 0 255 255 0 255 255 0 255
255 0 255 255 0 255 255 0 255 255 0 255 255 0 255 255 0 255 255 0 255 255 0 255 255 0 255 255 0 255 255 0 255 255 0 255
255 0 255 255 0 255 255 0 255 255 0 255 255 0 255 255 0 255 255 0 255 255 0 255 255 0 255 255 0 255 255 0 255 255 0 255
145 140 134 136 132 126 157 151 141 141 135 125 255 0 255 255 0 255 179 175 167 160 156 147 113 107 100 103 101 99 255 0 255 255 0 255
255 0 255 255 0 255 255 0 255 255 0 255 255 0 255 255 0 255 255 0 255 255 0 255 255 0 255 255 0 255 255 0 255 255 0 255
255 0 255 255 0 255 255 0 255 255 0 255 255 0 255 255 0 255 255 0 255 255 0 255 255 0 255 255 0 255 255 0 255 255 0 255
255 0 255 255 0 255 255 0 255 255 0 255 255 0 255 255 0 255 255 0 255 255 0 255 255 0 255 255 0 255 255 0 255 255 0 255
149 143 137 166 160 152 185 178 168 196 188 177 196 187 173 188 178 163 182 174 162 167 158 144 44 43 42 35 39 42 151 148 140 236 227 215
164 154 141 149 139 126 102 97 92 255 0 255 255 0 255 255 0 255 255 0 255 255 0 255 255 0 255 255 0 255 255 0 255 255 0 255
255 0 255 255 0 255 255 0 255 255 0 255 255 0 255 255 0 255 255 0 255 255 0 255 255 0 255 255 0 255 255 0 255 255 0 255
255 0 255 255 0 255 255 0 255 255 0 255 255 0 255 255 0 255 255 0 255 255 0 255 255 0 255 255 0 255 255 0 255 255 0 255
255 0 255 169 163 155 184 178 169 192 186 176 225 216 200 222 214 198 217 210 194 215 209 196 208 202 188 197 189 173 178 173 162 191 184 173
55 51 49 33 45 58 83 85 82 223 215 199 159 150 140 164 155 141 143 135 124 115 110 104 255 0 255 255 0 255 255 0 255 255 0 255
255 0 255 255 0 255 255 0 255 255 0 255 255 0 255 255 0 255 255 0 255 255 0 255 255 0 255 255 0 255 255 0 255 255 0 255
255 0 255 255 0 255 255 0 255 255 0 255 255 0 255 255 0 255 255 0 255 255 0 255 255 0 255 255 0 255 255 0 255 255 0 255
255 0 255 255 0 255 255 0 255 174 170 161 204 198 185 225 216 201 223 214 201 191 185 175 229 222 210 219 211 196 227 218 202 233 216 201
229 213 199 203 194 180 199 192 180 203 195 184 106 100 90 12 15 18 118 118 116 245 239 226 187 178 166 177 169 158 143 136 124 133 125 114
95 93 90 255 0 255 255 0 255 255 0 255 255 0 255 255 0 255 255 0 255 255 0 255 255 0 255 255 0 255 255 0 255 255 0 255
255 0 255 255 0 255 255 0 255 255 0 255 255 0 255 255 0 255 255 0 255 255 0 255 255 0 255 255 0 255 255 0 255 255 0 255
255 0 255 255 0 255 255 0 255 255 0 255 255 0 255 177 172 164 219 212 198 235 228 215 227 220 206 223 214 200 223 215 201 191 186 175
227 223 213 217 207 191 191 188 177 159 200 199 118 175 182 190 187 178 192 183 172 154 146 134 187 176 158 58 54 50 67 72 76 127 121 111
163 154 140 187 177 162 180 172 158 135 125 112 100 95 89 108 106 103 255 0 255 255 0 255 255 0 255 255 0 255 255 0 255 255 0 255
255 0 255 255 0 255 255 0 255 255 0 255 255 0 255 255 0 255 255 0 255 255 0 255 255 0 255 255 0 255 255 0 255 255 0 255
255 0 255 255 0 255 255 0 255 255 0 255 255 0 255 255 0 255 255 0 255 255 0 255 203 197 187 242 236 223 232 223 207 231 222 209
229 220 205 235 228 214 232 225 213 202 193 181 191 185 174 205 192 179 152 168 169 84 169 185 163 196 192 197 188 174 193 184 170 184 174 158
149 138 123 33 33 34 29 37 47 20 25 31 21 22 23 74 71 64 148 142 129 111 106 97 129 121 111 125 120 111 255 0 255 255 0 255
255 0 255 255 0 255 255 0 255 255 0 255 255 0 255 255 0 255 255 0 255 255 0 255 255 0 255 255 0 255 255 0 255 255 0 255
255 0 255 255 0 255 255 0 255 255 0 255 255 0 255 255 0 255 255 0 255 255 0 255 255 0 255 255 0 255 179 174 170 234 226 212
241 234 219 238 232 220 238 230 216 248 241 229 242 235 222 212 205 195 196 188 177 198 189 175 214 206 192 216 208 196 212 201 186 164 149 134
190 173 156 208 196 179 158 149 134 114 107 98 36 35 34 48 52 55 100 107 118 69 78 90 44 49 55 19 22 28 38 36 32 187 179 164
144 134 122 138 130 118 103 100 96 255 0 255 255 0 255 255 0 255 255 0 255 255 0 255 255 0 255 255 0 255 255 0 255 255 0 255
255 0 255 255 0 255 255 0 255 255 0 255 255 0 255 255 0 255 255 0 255 255 0 255 255 0 255 255 0 255 255 0 255 255 0 255
255 0 255 192 186 177 212 207 198 241 236 224 234 226 212 240 233 220 247 241 230 227 222 215 199 191 180 208 200 189 222 215 202 215 206 189
212 203 188 210 200 186 194 186 172 195 188 175 138 133 121 76 70 65 44 46 50 18 27 37 29 34 39 122 130 135 98 103 108 45 49 53
61 65 69 59 63 68 15 16 19 135 127 114 174 164 149 146 137 125 120 114 106 255 0 255 255 0 255 255 0 255 255 0 255 255 0 255
255 0 255 255 0 255 255 0 255 255 0 255 255 0 255 255 0 255 255 0 255 79 86 92 57 65 73 255 0 255 255 0 255 255 0 255
255 0 255 255 0 255 255 0 255 255 0 255 189 184 178 245 238 223 200 194 183 246 240 230 247 241 229 243 239 229 200 193 182 202 195 185
222 215 203 219 210 194 215 205 191 214 204 189 211 202 187 196 186 172 193 184 171 211 201 186 94 89 81 5 11 19 37 44 51 34 35 35
34 36 36 78 84 89 63 60 58 84 88 90 46 52 54 53 58 63 15 18 24 82 78 72 185 175 159 150 141 128 134 126 114 108 105 99
255 0 255 255 0 255 255 0 255 255 0 255 255 0 255 255 0 255 255 0 255 255 0 255 75 81 86 65 74 83 37 42 45 56 62 69
64 71 80 33 33 33 255 0 255 255 0 255 255 0 255 255 0 255 255 0 255 150 143 134 239 235 226 247 240 226 191 183 170 229 225 217
244 241 236 203 195 184 213 205 192 227 219 206 218 209 195 214 205 190 218 208 194 206 197 182 190 180 166 198 190 176 190 179 164 88 84 78
27 32 37 16 17 19 65 68 69 74 79 83 37 39 40 61 66 68 43 43 45 42 46 51 62 66 65 57 62 68 16 17 22 37 37 38
164 157 145 166 156 139 141 133 121 132 124 114 255 0 255 255 0 255 255 0 255 255 0 255 255 0 255 255 0 255 255 0 255 71 76 82
73 88 103 63 80 95 51 63 73 65 65 65 114 120 124 34 36 38 255 0 255 255 0 255 255 0 255 255 0 255 255 0 255 211 205 194
221 216 206 249 242 227 249 246 237 183 177 168 183 176 165 222 214 200 219 210 195 217 208 193 219 210 196 221 211 196 205 195 180 191 182 168
197 187 172 185 173 158 71 70 66 8 16 23 60 67 74 74 77 77 51 54 57 35 39 42 16 17 18 27 30 33 51 57 63 43 48 54
61 67 72 39 44 48 41 43 46 24 27 31 54 53 51 182 173 158 155 147 133 142 134 124 124 117 109 95 94 92 255 0 255 255 0 255
255 0 255 69 78 82 66 80 90 36 46 53 93 104 111 94 111 121 99 107 111 49 50 49 80 91 97 53 58 62 59 60 60 255 0 255
255 0 255 255 0 255 208 203 197 234 229 220 220 214 202 255 255 246 242 238 231 183 176 167 243 236 225 230 218 200 235 225 210 225 216 200
211 202 188 176 169 157 186 176 163 209 198 182 163 153 138 46 45 42 14 22 30 75 80 83 115 121 125 80 89 97 17 17 17 2 2 2
55 53 54 34 34 34 25 26 28 30 34 38 25 27 30 21 22 23 70 75 81 47 50 54 6 7 8 89 87 84 189 181 165 153 145 134
130 123 113 102 97 90 52 53 58 44 46 49 70 77 82 81 92 99 69 88 102 45 54 58 97 99 99 82 93 105 63 70 80 33 35 40
49 48 49 59 65 70 31 32 33 255 0 255 255 0 255 255 0 255 243 235 222 237 231 220 191 188 181 229 222 210 158 147 131 64 62 58
128 125 120 116 113 105 122 118 111 162 155 143 199 189 176 172 164 152 198 187 171 132 124 113 24 25 27 9 15 22 89 91 92 127 134 139
61 71 81 35 42 48 16 20 23 35 37 37 82 87 92 36 40 45 39 43 53 37 39 43 41 48 52 44 48 49 35 49 54 62 70 77
36 37 39 20 22 25 114 110 106 180 169 154 132 124 112 96 91 82 24 31 39 47 54 62 46 51 55 86 94 99 137 137 134 141 138 130
62 65 67 56 66 79 46 49 52 32 35 39 20 22 26 49 57 66 56 59 64 255 0 255 255 0 255 192 189 183 246 238 225 255 255 246
169 163 153 50 46 38 65 70 74 49 60 70 44 59 69 31 34 39 19 29 41 20 25 31 42 41 41 135 129 120 101 94 85 16 19 26
27 31 37 93 91 87 98 102 105 58 68 79 33 36 39 17 21 23 33 35 37 64 68 74 42 52 62 57 59 61 89 92 98 255 0 255
56 60 62 66 69 76 51 89 104 42 107 129 65 77 84 41 46 51 20 22 25 111 103 95 158 147 131 94 87 77 40 46 53 36 43 50
73 74 74 173 162 150 125 116 106 71 70 67 29 29 27 49 53 57 41 45 50 42 48 56 55 57 61 255 0 255 255 0 255 255 0 255
255 0 255 199 195 184 255 251 239 192 181 167 65 62 57 62 75 85 95 110 123 99 112 123 82 97 108 67 72 78 62 74 87 53 61 72
24 30 39 15 19 23 12 13 13 24 25 27 95 94 89 89 89 86 39 46 53 25 25 27 31 34 38 20 20 21 42 46 54 49 56 65
255 0 255 255 0 255 255 0 255 255 0 255 255 0 255 73 76 81 63 71 79 42 67 82 43 80 100 67 69 72 39 43 48 20 23 27
42 38 34 22 20 20 35 35 37 91 87 83 67 67 68 36 33 30 26 27 26 40 44 48 29 34 39 38 42 45 39 43 51 56 58 59
255 0 255 255 0 255 255 0 255 255 0 255 255 0 255 207 200 187 229 222 210 78 72 65 105 112 116 127 140 146 99 105 108 61 67 72
48 60 69 34 46 53 38 45 49 50 56 59 44 49 55 42 48 56 38 41 44 34 33 33 52 56 61 43 44 45 27 27 28 26 29 31
28 30 33 77 76 74 30 31 34 47 47 47 255 0 255 255 0 255 255 0 255 255 0 255 255 0 255 255 0 255 86 90 90 65 71 76
51 60 70 34 35 37 35 37 39 46 61 74 51 63 74 38 46 54 24 27 30 51 52 52 50 54 55 34 39 42 48 55 63 57 64 72
49 53 58 53 58 64 61 64 72 255 0 255 255 0 255 255 0 255 255 0 255 255 0 255 255 0 255 214 210 198 163 155 144 68 74 75
145 156 157 111 113 112 55 67 74 87 98 105 88 108 123 68 86 100 54 64 76 36 42 51 24 28 33 43 47 52 42 42 43 27 31 36
19 18 20 30 34 40 21 24 28 32 36 40 69 71 73 75 80 86 60 65 70 255 0 255 255 0 255 255 0 255 255 0 255 255 0 255
255 0 255 255 0 255 255 0 255 255 0 255 57 61 62 22 24 27 84 90 95 119 133 142 71 81 89 54 59 64 41 45 50 17 19 22
31 36 40 49 57 64 62 68 72 255 0 255 255 0 255 255 0 255 255 0 255 255 0 255 255 0 255 255 0 255 255 0 255 255 0 255
255 0 255 204 200 191 100 96 90 96 106 111 103 105 103 58 67 73 144 157 165 102 112 117 41 47 52 29 34 39 43 46 51 60 65 71
40 46 54 29 34 39 42 46 49 35 42 51 21 22 25 18 22 27 26 27 30 72 74 76 56 60 65 63 71 79 255 0 255 255 0 255
255 0 255 255 0 255 255 0 255 255 0 255 255 0 255 255 0 255 255 0 255 255 0 255 255 0 255 48 48 49 77 88 98 53 55 56
65 68 71 37 41 44 42 43 46 30 32 36 40 43 47 255 0 255 255 0 255 255 0 255 255 0 255 255 0 255 255 0 255 255 0 255
255 0 255 255 0 255 255 0 255 255 0 255 255 0 255 188 183 173 94 94 90 88 98 103 61 62 62 107 119 125 106 110 112 13 15 16
47 49 50 39 41 44 18 20 22 23 23 22 65 68 71 35 43 51 37 41 46 46 55 65 21 22 24 10 10 11 60 63 67 56 61 69
62 70 79 75 81 85 255 0 255 255 0 255 255 0 255 255 0 255 255 0 255 255 0 255 255 0 255 255 0 255 255 0 255 255 0 255
255 0 255 70 70 68 68 77 84 33 37 41 36 41 44 50 53 56 52 55 60 37 39 42 255 0 255 255 0 255 255 0 255 255 0 255
255 0 255 255 0 255 255 0 255 255 0 255 255 0 255 255 0 255 255 0 255 255 0 255 255 0 255 151 148 138 98 97 92 83 82 81
48 49 50 99 107 112 30 31 33 28 31 36 75 76 78 29 29 29 41 47 52 22 26 28 49 52 53 51 58 67 17 21 24 33 38 46
26 29 33 41 42 45 46 48 51 60 68 79 83 89 92 255 0 255 255 0 255 255 0 255 255 0 255 255 0 255 255 0 255 255 0 255
255 0 255 255 0 255 255 0 255 255 0 255 255 0 255 255 0 255 83 85 85 61 68 74 45 51 59 54 58 65 56 59 64 255 0 255
255 0 255 255 0 255 255 0 255 255 0 255 255 0 255 255 0 255 255 0 255 255 0 255 255 0 255 255 0 255 255 0 255 255 0 255
255 0 255 255 0 255 101 98 92 76 82 84 48 49 49 73 82 86 25 27 28 23 24 25 39 43 45 43 45 46 69 72 74 24 26 27
61 63 63 53 61 70 21 24 27 36 43 53 31 35 40 51 56 63 62 68 76 255 0 255 255 0 255 255 0 255 255 0 255 255 0 255
255 0 255 255 0 255 255 0 255 255 0 255 255 0 255 255 0 255 255 0 255 255 0 255 255 0 255 255 0 255 255 0 255 255 0 255
255 0 255 255 0 255 255 0 255 255 0 255 255 0 255 255 0 255 255 0 255 255 0 255 255 0 255 255 0 255 255 0 255 255 0 255
255 0 255 255 0 255 255 0 255 255 0 255 255 0 255 255 0 255 255 0 255 81 87 89 56 55 54 70 70 68 60 63 66 15 12 12
19 20 21 40 43 48 37 39 43 47 53 58 83 84 87 38 41 45 40 45 51 24 29 36 31 36 45 67 72 79 255 0 255 255 0 255
255 0 255 255 0 255 255 0 255 255 0 255 255 0 255 255 0 255 255 0 255 255 0 255 255 0 255 255 0 255 255 0 255 255 0 255
255 0 255 255 0 255 255 0 255 255 0 255 255 0 255 255 0 255 255 0 255 255 0 255 255 0 255 255 0 255 255 0 255 255 0 255
255 0 255 255 0 255 255 0 255 255 0 255 255 0 255 255 0 255 255 0 255 255 0 255 255 0 255 255 0 255 255 0 255 80 83 84
67 72 75 44 43 40 67 70 72 52 55 59 29 31 33 38 42 46 66 69 73 76 80 82 41 43 46 45 47 51 49 56 66 21 24 28
60 64 68 255 0 255 255 0 255 255 0 255 255 0 255 255 0 255 255 0 255 255 0 255 255 0 255 255 0 255 255 0 255 255 0 255
255 0 255 255 0 255 255 0 255 255 0 255 255 0 255 255 0 255 255 0 255 255 0 255 255 0 255 255 0 255 255 0 255 255 0 255
255 0 255 255 0 255 255 0 255 255 0 255 255 0 255 255 0 255 255 0 255 255 0 255 255 0 255 255 0 255 255 0 255 255 0 255
255 0 255 255 0 255 255 0 255 255 0 255 66 71 74 67 74 77 45 45 44 48 51 53 48 53 59 43 48 54 56 61 66 37 41 44
37 43 48 56 64 75 50 55 62 255 0 255 255 0 255 255 0 255 255 0 255 255 0 255 255 0 255 255 0 255 255 0 255 255 0 255
255 0 255 255 0 255 255 0 255 255 0 255 255 0 255 255 0 255 255 0 255 255 0 255 255 0 255 255 0 255 255 0 255 255 0 255
255 0 255 255 0 255 255 0 255 255 0 255 255 0 255 255 0 255 255 0 255 255 0 255 255 0 255 255 0 255 255 0 255 255 0 255
255 0 255 255 0 255 255 0 255 255 0 255 255 0 255 255 0 255 255 0 255 255 0 255 255 0 255 74 79 82 63 65 66 55 60 65
50 53 57 36 38 41 47 51 56 54 59 65 48 54 58 50 55 58 255 0 255 255 0 255 255 0 255 255 0 255 255 0 255 255 0 255
255 0 255 255 0 255 255 0 255 255 0 255 255 0 255 255 0 255 255 0 255 255 0 255 255 0 255 255 0 255 255 0 255 255 0 255
255 0 255 255 0 255 255 0 255 255 0 255 255 0 255 255 0 255 255 0 255 255 0 255 255 0 255 255 0 255 255 0 255 255 0 255
255 0 255 255 0 255 255 0 255 255 0 255 255 0 255 255 0 255 255 0 255 255 0 255 255 0 255 255 0 255 255 0 255 255 0 255
255 0 255 255 0 255 255 0 255 255 0 255 63 68 74 58 63 69 61 66 73 63 65 68 255 0 255 255 0 255 255 0 255 255 0 255
255 0 255 255 0 255 255 0 255 255 0 255 255 0 255 255 0 255 255 0 255 255 0 255 255 0 255 255 0 255 255 0 255 255 0 255
255 0 255 255 0 255 255 0 255 255 0 255 255 0 255 255 0 255 255 0 255 255 0 255 255 0 255 255 0 255 255 0 255 255 0 255
255 0 255 255 0 255 255 0 255 255 0 255 255 0 255 255 0 255 255 0 255 255 0 255 255 0 255 255 0 255 255 0 255 255 0 255
255 0 255 255 0 255 255 0 255 255 0 255 255 0 255 255 0 255 255 0 255 255 0 255 255 0 255 255 0 255 255 0 255 255 0 255
255 0 255 255 0 255 255 0 255 255 0 255 255 0 255 255 0 255 255 0 255 255 0 255 255 0 255 255 0 255 255 0 255 255 0 255
255 0 255 255 0 255 255 0 255 255 0 255 255 0 255 255 0 255 255 0 255 255 0 255 255 0 255 255 0 255 255 0 255 255 0 255
255 0 255 255 0 255 255 0 255 255 0 255 255 0 255 255 0 255 255 0 255 255 0 255 255 0 255 255 0 255 255 0 255 255 0 255
255 0 255 255 0 255 255 0 255 255 0 255
