P3
56 34
255
255 0 255 255 0 255 255 0 255 255 0 255 255 0 255 255 0 255 255 0 255 255 0 255 255 0 255 255 0 255 255 0 255 255 0 255
255 0 255 255 0 255 255 0 255 255 0 255 255 0 255 255 0 255 255 0 255 255 0 255 255 0 255 255 0 255 255 0 255 255 0 255
255 0 255 255 0 255 255 0 255 255 0 255 255 0 255 255 0 255 255 0 255 255 0 255 255 0 255 255 0 255 255 0 255 255 0 255
255 0 255 255 0 255 255 0 255 255 0 255 255 0 255 255 0 255 255 0 255 255 0 255 255 0 255 255 0 255 255 0 255 255 0 255
255 0 255 255 0 255 255 0 255 255 0 255 255 0 255 255 0 255 255 0 255 255 0 255 255 0 255 255 0 255 255 0 255 255 0 255
255 0 255 255 0 255 255 0 255 255 0 255 255 0 255 255 0 255 255 0 255 255 0 255 255 0 255 255 0 255 255 0 255 255 0 255
255 0 255 255 0 255 255 0 255 255 0 255 255 0 255 255 0 255 255 0 255 255 0 255 255 0 255 255 0 255 255 0 255 255 0 255
255 0 255 255 0 255 255 0 255 255 0 255 255 0 255 255 0 255 255 0 255 255 0 255 255 0 255 255 0 255 255 0 255 255 0 255
255 0 255 255 0 255 255 0 255 255 0 255 255 0 255 255 0 255 255 0 255 255 0 255 255 0 255 255 0 255 255 0 255 255 0 255
255 0 255 255 0 255 255 0 255 255 0 255 255 0 255 255 0 255 255 0 255 255 0 255 255 0 255 255 0 255 255 0 255 255 0 255
255 0 255 255 0 255 255 0 255 255 0 255 255 0 255 255 0 255 255 0 255 255 0 255 255 0 255 255 0 255 255 0 255 255 0 255
255 0 255 255 0 255 255 0 255 255 0 255 255 0 255 255 0 255 255 0 255 255 0 255 255 0 255 255 0 255 255 0 255 255 0 255
255 0 255 255 0 255 255 0 255 255 0 255 255 0 255 255 0 255 255 0 255 255 0 255 255 0 255 255 0 255 255 0 255 255 0 255
255 0 255 255 0 255 255 0 255 255 0 255 255 0 255 255 0 255 255 0 255 255 0 255 255 0 255 255 0 255 255 0 255 255 0 255
255 0 255 255 0 255 255 0 255 255 0 255 255 0 255 255 0 255 255 0 255 255 0 255 255 0 255 255 0 255 255 0 255 255 0 255
255 0 255 255 0 255 255 0 255 255 0 255 255 0 255 255 0 255 255 0 255 255 0 255 255 0 255 255 0 255 254 0 254 255 0 255
255 0 255 255 0 255 255 0 255 255 0 255 255 0 255 255 0 255 255 0 255 255 0 255 255 0 255 255 0 255 255 0 255 255 0 255
255 0 255 255 0 255 255 0 255 255 0 255 255 0 255 255 0 255 255 0 255 255 0 255 255 0 255 255 0 255 255 0 255 255 0 255
255 0 255 255 0 255 255 0 255 255 0 255 255 0 255 255 0 255 255 0 255 255 0 255 255 0 255 255 0 255 255 0 255 255 0 255
255 0 255 255 0 255 255 0 255 255 0 255 255 0 255 255 0 255 255 0 255 255 0 255 255 0 255 254 0 254 255 1 254 214 32 216
195 32 197 194 30 195 197 35 200 196 31 198 208 44 208 236 22 238 255 0 255 254 1 254 255 0 255 255 0 255 255 0 255 255 0 255
255 0 255 255 0 255 255 0 255 255 0 255 255 0 255 255 0 255 255 0 255 255 0 255 255 0 255 255 0 255 255 0 255 255 0 255
255 0 255 255 0 255 255 0 255 255 0 255 255 0 255 255 0 255 255 0 255 255 0 255 255 0 255 255 0 255 255 0 255 255 0 255
255 0 255 255 0 255 255 0 255 255 0 255 255 0 255 255 0 255 255 0 255 255 0 255 255 0 255 255 0 255 255 0 255 255 0 255
255 0 255 255 0 255 255 0 255 255 0 255 252 1 252 255 0 255 201 28 202 63 74 86 55 64 74 65 74 81 80 89 97 108 114 118
104 117 128 102 71 120 253 8 252 254 1 254 254 0 254 255 0 255 255 0 255 255 0 255 255 0 255 255 0 255 255 0 255 255 0 255
255 0 255 255 0 255 255 0 255 255 0 255 255 0 255 255 0 255 255 0 255 255 0 255 255 0 255 255 0 255 255 0 255 255 0 255
255 0 255 255 0 255 255 0 255 255 0 255 255 0 255 255 0 255 255 0 255 255 0 255 255 0 255 255 0 255 255 0 255 255 0 255
255 0 255 255 0 255 255 0 255 255 0 255 255 0 255 255 0 255 255 0 255 255 0 255 255 0 255 255 0 255 255 0 255 255 0 255
253 1 253 255 0 255 209 22 209 46 56 69 37 39 55 48 49 59 61 68 82 83 90 102 73 77 90 54 59 65 219 32 219 255 0 255
253 1 253 255 0 255 255 0 255 255 0 255 255 0 255 255 0 255 255 0 255 255 0 255 255 0 255 255 0 255 255 0 255 255 0 255
255 0 255 255 0 255 255 0 255 255 0 255 255 0 255 255 0 255 255 0 255 255 0 255 255 0 255 255 0 255 255 0 255 255 0 255
255 0 255 255 0 255 255 0 255 255 0 255 255 0 255 255 0 255 255 0 255 255 0 255 255 0 255 255 0 255 255 0 255 255 0 255
255 0 255 255 0 255 255 0 255 255 0 255 255 0 255 255 0 255 255 0 255 255 0 255 254 1 254 255 0 255 246 13 244 50 48 68
28 37 47 33 34 38 46 49 51 72 76 77 116 114 114 76 89 100 144 69 155 255 1 255 252 1 253 255 0 255 255 0 255 255 0 255
255 0 255 255 0 255 255 0 255 255 0 255 255 0 255 255 0 255 255 0 255 255 0 255 255 0 255 255 0 255 255 0 255 255 0 255
255 0 255 255 0 255 255 0 255 255 0 255 255 0 255 255 0 255 255 0 255 255 0 255 255 0 255 255 0 255 255 0 255 255 0 255
255 0 255 255 0 255 255 0 255 255 0 255 255 0 255 255 0 255 255 0 255 255 0 255 255 0 255 255 0 255 255 0 255 255 0 255
255 0 255 255 0 255 255 0 255 255 0 255 255 0 255 252 1 252 255 0 255 131 32 141 42 52 64 49 49 55 60 64 69 74 78 82
108 116 121 84 98 110 65 76 87 230 17 229 254 0 254 253 1 253 255 0 255 255 0 255 255 0 255 255 0 255 255 0 255 255 0 255
255 0 255 255 0 255 255 0 255 255 0 255 255 0 255 255 0 255 255 0 255 255 0 255 255 0 255 255 0 255 255 0 255 255 0 255
255 0 255 255 0 255 255 0 255 255 0 255 255 0 255 255 0 255 255 0 255 255 0 255 255 0 255 255 0 255 255 0 255 255 0 255
255 0 255 255 0 255 255 0 255 255 0 255 255 0 255 255 0 255 255 0 255 255 0 255 255 0 255 255 0 255 255 0 255 255 0 255
255 0 255 254 1 254 255 0 255 223 17 223 50 60 72 43 51 62 36 57 70 35 67 80 66 78 87 100 100 108 65 75 83 151 51 157
255 0 255 253 1 253 255 0 255 255 0 255 255 0 255 255 0 255 255 0 255 255 0 255 255 0 255 255 0 255 255 0 255 255 0 255
255 0 255 255 0 255 255 0 255 255 0 255 255 0 255 255 0 255 255 0 255 255 0 255 255 0 255 255 0 255 255 0 255 255 0 255
255 0 255 255 0 255 255 0 255 255 0 255 255 0 255 255 0 255 255 0 255 255 0 255 255 0 255 255 0 255 255 0 255 255 0 255
255 0 255 255 0 255 255 0 255 255 0 255 255 0 255 255 0 255 255 0 255 255 0 255 255 0 255 255 0 255 253 0 253 255 4 254
93 51 110 34 39 51 35 92 110 63 165 187 33 66 82 99 109 116 113 120 129 66 73 83 226 29 226 255 0 255 253 2 253 255 0 255
255 0 255 255 0 255 255 0 255 255 0 255 255 0 255 255 0 255 255 0 255 255 0 255 255 0 255 255 0 255 255 0 255 255 0 255
255 0 255 255 0 255 255 0 255 255 0 255 255 0 255 255 0 255 255 0 255 255 0 255 255 0 255 255 0 255 255 0 255 255 0 255
255 0 255 255 0 255 255 0 255 255 0 255 255 0 255 255 0 255 255 0 255 255 0 255 255 0 255 255 0 255 255 0 255 255 0 255
255 0 255 255 0 255 255 0 255 255 0 255 255 0 255 255 0 255 252 1 252 255 0 255 178 52 184 61 65 67 155 141 131 175 165 155
195 190 181 74 87 92 96 103 113 69 83 94 114 64 128 255 0 255 254 0 254 254 1 255 255 0 255 255 0 255 255 0 255 255 0 255
255 0 255 255 0 255 255 0 255 255 0 255 255 0 255 255 0 255 255 0 255 255 0 255 255 0 255 255 0 255 255 0 255 255 0 255
255 0 255 255 0 255 255 0 255 255 0 255 255 0 255 255 0 255 255 0 255 255 0 255 255 0 255 255 0 255 255 0 255 255 0 255
255 0 255 255 0 255 255 0 255 255 0 255 255 0 255 255 0 255 255 0 255 255 0 255 255 0 255 255 0 255 255 0 255 255 0 255
255 0 255 255 0 255 255 1 255 254 1 254 241 14 242 99 75 96 147 141 130 139 134 127 203 191 176 166 163 155 68 82 94 113 125 138
71 83 94 172 44 171 255 2 255 254 1 254 255 1 255 255 0 255 255 0 255 255 0 255 255 0 255 255 0 255 255 0 255 255 0 255
255 0 255 255 0 255 255 0 255 255 0 255 255 0 255 255 0 255 255 0 255 255 0 255 255 0 255 255 0 255 255 0 255 255 0 255
255 0 255 255 0 255 255 0 255 255 0 255 255 0 255 255 0 255 255 0 255 255 0 255 255 0 255 255 0 255 255 0 255 255 0 255
255 0 255 255 0 255 255 0 255 255 0 255 255 0 255 255 0 255 255 0 255 255 0 255 255 0 255 255 0 255 255 0 255 253 0 253
255 0 255 124 55 124 152 144 134 143 133 126 170 160 147 215 206 194 141 142 140 94 100 102 53 64 81 70 76 80 194 106 181 255 0 255
255 0 255 254 0 254 255 0 255 255 0 255 255 0 255 255 0 255 255 0 255 255 0 255 255 0 255 255 0 255 255 0 255 255 0 255
255 0 255 255 0 255 255 0 255 255 0 255 255 0 255 255 0 255 255 0 255 255 0 255 255 0 255 255 0 255 255 0 255 255 0 255
255 0 255 255 0 255 255 0 255 255 0 255 255 0 255 255 0 255 255 0 255 255 0 255 255 0 255 255 0 255 255 0 255 255 0 255
255 0 255 255 0 255 255 0 255 255 0 255 255 0 255 255 0 255 255 0 255 253 1 253 255 1 255 171 50 172 122 112 102 122 109 100
166 156 143 168 160 147 181 174 164 184 181 175 108 110 109 141 136 136 227 220 207 202 112 194 251 4 251 251 2 251 253 1 253 254 0 254
255 0 255 255 0 255 255 0 255 255 0 255 255 0 255 255 0 255 255 0 255 255 0 255 255 0 255 255 0 255 255 0 255 255 0 255
255 0 255 255 0 255 255 0 255 255 0 255 255 0 255 255 0 255 255 0 255 255 0 255 255 0 255 255 0 255 255 0 255 255 0 255
255 0 255 255 0 255 255 0 255 255 0 255 255 0 255 255 0 255 255 0 255 255 0 255 255 0 255 255 0 255 255 0 255 255 0 255
255 0 255 255 0 255 254 0 254 253 0 253 255 2 255 116 43 117 30 32 33 36 36 44 32 33 33 105 98 91 172 162 148 197 188 175
250 242 230 247 236 221 222 206 198 194 185 171 205 40 198 255 0 255 255 0 255 255 0 255 254 2 254 254 2 254 255 1 255 255 0 255
255 0 255 255 0 255 255 0 255 255 0 255 255 0 255 255 0 255 255 0 255 255 0 255 255 0 255 255 0 255 255 0 255 255 0 255
255 0 255 255 0 255 255 0 255 255 0 255 255 0 255 255 0 255 255 0 255 255 0 255 255 0 255 255 0 255 255 0 255 255 0 255
255 0 255 255 0 255 255 0 255 255 0 255 255 0 255 255 0 255 255 0 255 255 0 255 255 0 255 255 0 255 253 1 253 255 4 255
161 50 166 48 56 63 49 58 71 77 93 106 76 92 107 40 49 57 130 120 109 175 167 154 197 191 182 183 176 164 80 73 68 46 51 57
107 69 121 185 34 194 210 21 214 250 0 250 255 0 255 255 0 255 255 0 255 255 3 255 253 2 253 254 2 254 254 0 254 255 0 255
255 0 255 255 0 255 255 0 255 255 0 255 255 0 255 255 0 255 255 0 255 255 0 255 255 0 255 255 0 255 255 0 255 255 0 255
255 0 255 255 0 255 255 0 255 255 0 255 255 0 255 255 0 255 255 0 255 255 0 255 255 0 255 255 0 255 255 0 255 255 0 255
255 0 255 255 0 255 255 0 255 255 1 255 252 1 252 251 2 252 255 0 255 241 9 241 48 56 65 44 49 58 36 40 43 60 66 71
122 134 144 73 88 100 26 29 31 118 110 98 136 127 113 28 25 20 27 37 47 77 93 106 83 103 117 70 94 111 156 155 146 199 152 178
190 87 182 224 56 223 247 17 247 255 0 255 255 0 255 255 0 255 255 0 255 255 0 255 253 2 253 253 1 253 255 0 255 255 0 255
255 0 255 255 0 255 255 0 255 255 0 255 255 0 255 255 0 255 255 0 255 255 0 255 255 0 255 255 0 255 255 0 255 255 0 255
255 0 255 255 0 255 255 0 255 255 0 255 255 0 255 255 0 255 255 0 255 255 0 255 255 0 255 254 0 254 253 1 253 255 0 255
255 0 255 255 0 255 254 0 254 192 17 190 29 31 37 34 39 45 36 38 41 61 61 64 58 68 78 57 71 84 36 43 51 24 29 34
56 69 78 81 96 108 31 38 44 41 55 67 68 70 74 64 61 61 115 109 98 171 162 146 190 182 170 209 203 194 119 89 113 194 114 185
205 81 206 225 36 226 246 7 247 255 0 255 255 0 255 255 0 255 253 1 253 253 1 253 254 0 254 255 0 255 255 0 255 255 0 255
255 0 255 255 0 255 255 0 255 255 0 255 255 0 255 255 0 255 255 0 255 255 0 255 255 0 255 255 0 255 255 0 255 255 0 255
255 0 255 255 0 255 255 0 255 255 0 255 254 0 254 255 0 255 255 0 255 255 8 255 196 38 197 161 53 168 119 72 124 62 74 84
31 35 43 48 52 56 44 48 51 31 34 41 42 50 58 37 48 58 38 44 49 82 94 104 65 76 83 146 147 142 186 180 168 96 96 93
28 35 39 66 69 73 73 76 78 65 64 67 94 91 90 80 77 79 72 70 64 192 187 174 177 177 174 203 197 185 131 103 122 176 124 165
193 90 185 220 43 219 255 0 255 255 0 255 255 0 255 253 1 253 255 0 255 255 0 255 255 0 255 255 0 255 255 0 255 255 0 255
255 0 255 255 0 255 255 0 255 255 0 255 255 0 255 255 0 255 255 0 255 255 0 255 255 0 255 255 0 255 255 0 255 254 0 254
255 0 255 254 5 252 181 37 185 128 84 140 68 78 83 89 101 109 97 102 105 59 65 71 30 37 45 41 44 53 54 55 62 44 44 50
41 42 49 28 31 39 30 33 39 46 57 67 44 45 46 141 130 116 210 201 186 238 228 214 177 171 159 60 65 67 25 34 45 43 47 52
57 58 61 55 62 69 63 64 71 79 79 86 83 80 83 87 87 86 61 60 59 130 126 118 167 165 158 94 103 110 148 49 156 204 24 207
247 1 245 255 0 255 253 1 254 255 0 255 255 0 255 255 0 255 255 0 255 255 0 255 255 0 255 255 0 255 255 0 255 255 0 255
255 0 255 255 0 255 255 0 255 255 0 255 255 0 255 255 0 255 254 1 254 255 0 255 242 10 241 119 66 130 91 102 109 86 99 108
53 56 67 57 60 73 65 65 74 58 54 57 34 33 43 19 23 28 48 53 58 43 48 55 24 28 34 18 19 23 26 30 35 34 38 42
67 75 83 93 96 95 116 112 105 166 157 144 112 109 100 136 135 129 140 136 129 39 44 49 33 37 44 26 29 34 31 36 45 49 54 61
48 51 59 43 46 58 51 58 73 62 67 83 66 70 84 48 52 63 75 82 85 96 100 102 121 89 132 197 34 197 255 0 255 254 0 254
255 0 255 255 0 255 255 0 255 255 0 255 255 0 255 255 0 255 255 0 255 255 0 255 255 0 255 255 0 255 255 0 255 255 0 255
255 0 255 255 0 255 253 0 253 254 4 253 104 55 118 51 63 76 44 53 63 34 42 53 30 33 39 41 50 60 49 54 61 43 46 52
38 43 50 77 48 84 196 42 196 171 30 172 105 39 111 61 38 70 30 32 37 44 48 59 48 54 65 49 62 75 66 72 79 68 68 66
50 52 51 188 178 164 223 212 198 209 202 189 94 93 90 52 54 57 57 56 63 43 36 57 43 51 59 39 43 48 38 44 51 48 59 70
52 60 68 32 36 44 27 32 39 43 48 55 65 74 85 86 97 107 175 45 183 255 0 255 254 1 254 255 0 255 255 0 255 255 0 255
255 0 255 255 0 255 255 0 255 255 0 255 255 0 255 255 0 255 255 0 255 255 0 255 255 0 255 255 0 255 255 0 255 196 19 198
54 63 74 79 46 90 130 38 134 107 35 111 57 26 64 67 36 80 86 35 93 135 45 140 187 32 189 248 13 248 255 0 255 255 0 255
255 0 255 252 6 251 181 29 181 47 53 61 44 49 57 37 39 41 52 53 63 49 51 62 66 73 80 72 76 76 107 104 96 106 101 93
143 138 127 216 209 199 181 169 170 147 68 147 189 15 191 195 25 198 171 31 174 115 35 125 63 33 76 61 30 74 102 30 107 144 16 148
122 28 130 80 43 93 66 74 84 204 26 206 255 0 255 255 0 255 255 0 255 255 0 255 255 0 255 255 0 255 255 0 255 255 0 255
255 0 255 255 0 255 255 0 255 255 0 255 255 0 255 255 0 255 255 0 255 211 16 212 176 38 176 255 8 255 255 0 255 255 0 255
252 0 252 252 0 252 255 0 255 255 0 255 255 0 255 255 0 255 253 1 253 251 0 251 253 0 253 255 0 255 255 0 255 163 28 165
79 47 91 46 52 62 44 52 62 29 34 41 38 44 48 50 52 61 56 62 74 51 58 69 79 85 85 127 125 117 104 109 113 56 64 73
184 53 188 255 1 253 255 0 255 255 0 255 252 4 250 252 0 252 255 0 255 255 0 255 255 0 255 255 7 255 202 29 201 221 14 221
255 0 255 255 0 255 255 0 255 255 0 255 255 0 255 255 0 255 255 0 255 255 0 255 255 0 255 255 0 255 255 0 255 255 0 255
255 0 255 255 0 255 255 0 255 255 0 255 255 0 255 255 0 255 252 0 252 253 0 253 255 0 255 255 0 255 254 0 254 252 0 252
252 1 252 255 1 255 255 0 255 255 0 255 255 0 255 254 0 254 253 0 253 255 0 255 254 6 252 219 14 220 143 28 150 112 22 116
57 38 66 48 53 58 41 49 57 40 43 50 47 47 57 51 62 76 33 38 44 68 75 83 127 139 147 123 104 138 214 14 213 255 0 255
255 0 255 255 0 255 253 0 253 251 0 252 252 1 253 255 0 255 255 0 255 255 0 255 255 0 255 255 0 255 255 0 255 255 0 255
255 0 255 255 0 255 255 0 255 255 0 255 255 0 255 255 0 255 255 0 255 255 0 255 255 0 255 255 0 255 255 0 255 254 0 254
252 0 252 254 0 254 255 0 255 255 0 255 254 0 254 254 0 254 255 0 255 255 0 255 255 0 255 255 0 255 255 0 255 255 0 255
255 0 255 255 0 255 255 0 255 252 0 252 255 0 255 255 0 255 255 0 255 255 0 255 230 9 230 150 35 155 93 29 100 65 29 70
46 49 53 47 54 61 33 37 43 39 42 46 39 44 50 88 102 114 116 104 132 237 19 236 254 0 254 253 1 253 255 0 255 255 0 255
255 0 255 255 1 255 253 1 253 253 0 253 255 0 255 255 0 255 255 0 255 255 0 255 255 0 255 255 0 255 255 0 255 255 0 255
255 0 255 255 0 255 255 0 255 255 0 255 255 0 255 255 0 255 255 0 255 255 0 255 255 0 255 255 0 255 255 0 255 255 0 255
255 0 255 255 0 255 255 0 255 255 0 255 255 0 255 255 0 255 255 0 255 255 0 255 255 0 255 255 0 255 255 0 255 255 0 255
254 0 254 254 1 254 252 1 253 252 0 252 255 0 255 255 0 255 255 0 255 251 7 250 168 35 174 100 46 116 53 45 62 61 46 65
67 52 76 37 43 50 77 92 104 135 65 145 255 2 255 253 1 253 255 0 255 255 0 255 255 0 255 255 0 255 255 0 255 255 0 255
255 0 255 255 0 255 255 0 255 255 0 255 255 0 255 255 0 255 255 0 255 255 0 255 255 0 255 255 0 255 255 0 255 255 0 255
255 0 255 255 0 255 255 0 255 255 0 255 255 0 255 255 0 255 255 0 255 255 0 255 255 0 255 255 0 255 255 0 255 255 0 255
255 0 255 255 0 255 255 0 255 255 0 255 255 0 255 255 0 255 255 0 255 255 0 255 255 0 255 255 0 255 255 0 255 255 0 255
253 0 253 251 0 252 253 0 254 255 0 255 255 0 255 255 0 255 242 17 242 250 27 249 251 20 250 210 22 211 107 38 116 56 64 70
238 15 237 255 0 255 254 1 254 255 0 255 255 0 255 255 0 255 255 0 255 255 0 255 255 0 255 255 0 255 255 0 255 255 0 255
255 0 255 255 0 255 255 0 255 255 0 255 255 0 255 255 0 255 255 0 255 255 0 255 255 0 255 255 0 255 255 0 255 255 0 255
255 0 255 255 0 255 255 0 255 255 0 255 255 0 255 255 0 255 255 0 255 255 0 255 255 0 255 255 0 255 255 0 255 255 0 255
255 0 255 255 0 255 255 0 255 255 0 255 255 0 255 255 0 255 255 0 255 255 0 255 255 0 255 255 0 255 255 0 255 254 0 254
252 1 252 254 0 254 255 0 255 255 0 255 255 0 255 255 0 255 255 0 255 211 26 211 248 4 248 255 0 255 255 0 255 255 0 255
255 0 255 255 0 255 255 0 255 255 0 255 255 0 255 255 0 255 255 0 255 255 0 255 255 0 255 255 0 255 255 0 255 255 0 255
255 0 255 255 0 255 255 0 255 255 0 255 255 0 255 255 0 255 255 0 255 255 0 255 255 0 255 255 0 255 255 0 255 255 0 255
255 0 255 255 0 255 255 0 255 255 0 255 255 0 255 255 0 255 255 0 255 255 0 255 255 0 255 255 0 255 255 0 255 255 0 255
255 0 255 255 0 255 255 0 255 255 0 255 255 0 255 255 0 255 255 0 255 255 0 255 255 0 255 255 0 255 254 1 254 254 1 254
255 1 255 253 1 253 254 0 254 255 0 255 255 0 255 255 0 255 255 0 255 255 0 255 255 0 255 255 0 255 255 0 255 255 0 255
255 0 255 255 0 255 255 0 255 255 0 255 255 0 255 255 0 255 255 0 255 255 0 255 255 0 255 255 0 255 255 0 255 255 0 255
255 0 255 255 0 255 255 0 255 255 0 255 255 0 255 255 0 255 255 0 255 255 0 255 255 0 255 255 0 255 255 0 255 255 0 255
255 0 255 255 0 255 255 0 255 255 0 255 255 0 255 255 0 255 255 0 255 255 0 255 255 0 255 255 0 255 255 0 255 255 0 255
255 0 255 255 0 255 255 0 255 255 0 255 255 0 255 255 0 255 255 0 255 255 0 255 255 0 255 255 0 255 255 0 255 255 0 255
255 0 255 255 0 255 255 0 255 255 0 255 255 0 255 255 0 255 255 0 255 255 0 255 255 0 255 255 0 255 255 0 255 255 0 255
255 0 255 255 0 255 255 0 255 255 0 255 255 0 255 255 0 255 255 0 255 255 0 255 255 0 255 255 0 255 255 0 255 255 0 255
255 0 255 255 0 255 255 0 255 255 0 255 255 0 255 255 0 255 255 0 255 255 0 255 255 0 255 255 0 255 255 0 255 255 0 255
255 0 255 255 0 255 255 0 255 255 0 255 255 0 255 255 0 255 255 0 255 255 0 255 255 0 255 255 0 255 255 0 255 255 0 255
255 0 255 255 0 255 255 0 255 255 0 255 255 0 255 255 0 255 255 0 255 255 0 255 255 0 255 255 0 255 255 0 255 255 0 255
255 0 255 255 0 255 255 0 255 255 0 255 255 0 255 255 0 255 255 0 255 255 0 255 255 0 255 255 0 255 255 0 255 255 0 255
255 0 255 255 0 255 255 0 255 255 0 255 255 0 255 255 0 255 255 0 255 255 0 255 255 0 255 255 0 255 255 0 255 255 0 255
255 0 255 255 0 255 255 0 255 255 0 255 255 0 255 255 0 255 255 0 255 255 0 255 255 0 255 255 0 255 255 0 255 255 0 255
255 0 255 255 0 255 255 0 255 255 0 255 255 0 255 255 0 255 255 0 255 255 0 255 255 0 255 255 0 255 255 0 255 255 0 255
255 0 255 255 0 255 255 0 255 255 0 255 255 0 255 255 0 255 255 0 255 255 0 255 255 0 255 255 0 255 255 0 255 255 0 255
255 0 255 255 0 255 255 0 255 255 0 255 255 0 255 255 0 255 255 0 255 255 0 255
