P3
52 28
255
255 0 255 255 0 255 255 0 255 255 0 255 255 0 255 255 0 255 255 0 255 255 0 255 255 0 255 255 0 255 255 0 255 255 0 255
255 0 255 255 0 255 255 0 255 255 0 255 255 0 255 255 0 255 255 0 255 255 0 255 255 0 255 255 0 255 255 0 255 255 0 255
255 0 255 255 0 255 255 0 255 255 0 255 255 0 255 255 0 255 255 0 255 255 0 255 255 0 255 255 0 255 255 0 255 255 0 255
255 0 255 255 0 255 255 0 255 255 0 255 255 0 255 255 0 255 255 0 255 255 0 255 255 0 255 255 0 255 255 0 255 255 0 255
255 0 255 255 0 255 255 0 255 255 0 255 255 0 255 255 0 255 255 0 255 255 0 255 255 0 255 255 0 255 255 0 255 255 0 255
255 0 255 122 122 120 159 158 154 160 158 155 158 156 152 165 162 157 163 159 154 151 149 147 145 142 139 127 125 122 110 108 104 255 0 255
255 0 255 255 0 255 255 0 255 255 0 255 255 0 255 255 0 255 255 0 255 255 0 255 255 0 255 255 0 255 255 0 255 255 0 255
255 0 255 255 0 255 255 0 255 255 0 255 255 0 255 255 0 255 255 0 255 255 0 255 255 0 255 255 0 255 255 0 255 255 0 255
255 0 255 255 0 255 255 0 255 255 0 255 255 0 255 255 0 255 255 0 255 255 0 255 255 0 255 255 0 255 255 0 255 255 0 255
255 0 255 255 0 255 255 0 255 65 65 64 48 49 48 93 92 91 182 178 174 223 217 212 194 187 181 206 200 193 213 206 199 212 205 198
209 202 195 210 204 197 205 199 192 192 186 179 177 172 167 161 157 153 147 143 139 124 122 120 255 0 255 255 0 255 255 0 255 255 0 255
255 0 255 255 0 255 255 0 255 255 0 255 255 0 255 255 0 255 255 0 255 255 0 255 255 0 255 255 0 255 255 0 255 255 0 255
255 0 255 255 0 255 255 0 255 255 0 255 255 0 255 255 0 255 255 0 255 255 0 255 255 0 255 255 0 255 255 0 255 255 0 255
255 0 255 255 0 255 255 0 255 255 0 255 255 0 255 74 76 77 92 93 94 99 100 101 105 107 108 58 60 62 49 50 52 149 144 140
205 199 192 207 200 194 206 201 195 203 197 190 203 197 190 206 199 192 208 202 196 209 203 196 211 204 197 219 213 207 220 215 209 213 208 201
200 195 189 173 168 164 158 154 150 126 124 121 255 0 255 255 0 255 255 0 255 255 0 255 255 0 255 255 0 255 255 0 255 255 0 255
255 0 255 255 0 255 255 0 255 255 0 255 255 0 255 255 0 255 255 0 255 255 0 255 255 0 255 255 0 255 255 0 255 255 0 255
255 0 255 255 0 255 255 0 255 255 0 255 255 0 255 255 0 255 255 0 255 255 0 255 76 78 79 98 101 104 83 85 88 69 71 73
75 76 77 106 106 108 48 51 55 45 46 46 160 156 152 221 217 212 204 198 192 215 210 204 217 211 205 218 213 207 220 214 208 219 213 208
215 209 203 213 207 200 214 209 203 212 207 200 212 205 199 216 210 204 225 219 212 215 210 203 189 185 179 162 157 153 124 122 119 255 0 255
255 0 255 255 0 255 255 0 255 255 0 255 255 0 255 255 0 255 255 0 255 255 0 255 255 0 255 255 0 255 255 0 255 255 0 255
255 0 255 255 0 255 255 0 255 255 0 255 255 0 255 255 0 255 255 0 255 255 0 255 255 0 255 255 0 255 255 0 255 70 72 73
79 84 88 62 65 67 76 77 77 97 97 97 102 103 102 105 105 105 71 71 71 36 40 44 52 53 54 157 152 150 225 220 214 222 217 212
226 221 217 227 223 218 230 225 220 230 226 221 230 226 222 230 226 221 229 225 220 228 224 219 226 222 217 221 217 212 217 212 206 215 209 203
216 210 203 221 215 208 217 212 205 194 189 183 155 151 147 127 123 120 255 0 255 255 0 255 255 0 255 255 0 255 255 0 255 255 0 255
255 0 255 255 0 255 255 0 255 255 0 255 255 0 255 255 0 255 255 0 255 255 0 255 255 0 255 255 0 255 255 0 255 255 0 255
255 0 255 255 0 255 80 81 83 92 96 101 60 63 65 87 87 87 111 110 111 128 127 127 155 155 154 165 164 163 98 97 95 69 69 69
33 36 39 54 53 52 184 181 178 230 226 220 228 224 219 235 231 227 230 226 221 233 229 224 237 234 230 240 237 234 243 240 237 242 241 238
241 238 235 236 233 228 231 227 223 228 224 219 223 219 214 217 213 208 213 208 203 216 210 203 222 217 211 220 215 209 184 179 174 143 139 136
255 0 255 255 0 255 255 0 255 255 0 255 255 0 255 255 0 255 255 0 255 255 0 255 255 0 255 255 0 255 255 0 255 255 0 255
255 0 255 255 0 255 255 0 255 255 0 255 255 0 255 255 0 255 75 78 79 75 78 81 93 92 91 112 112 112 108 108 108 77 78 78
92 92 91 131 130 129 142 142 141 120 118 118 54 56 59 21 24 26 78 75 73 205 201 197 229 225 220 229 225 220 236 233 229 241 238 233
246 244 241 250 248 246 252 251 249 253 253 252 247 245 243 239 237 233 235 232 228 233 230 226 234 231 227 231 228 224 225 221 217 220 216 211
214 209 203 213 207 201 218 212 205 219 212 204 195 190 185 161 158 154 255 0 255 255 0 255 255 0 255 255 0 255 255 0 255 255 0 255
255 0 255 255 0 255 255 0 255 255 0 255 255 0 255 255 0 255 255 0 255 255 0 255 255 0 255 255 0 255 73 77 80 60 62 64
107 107 108 101 102 102 34 37 39 23 26 27 20 22 23 25 26 27 132 132 132 130 129 130 77 76 76 39 43 46 14 16 18 128 127 127
205 198 191 198 191 183 209 203 197 212 206 201 212 206 201 226 222 219 238 235 233 242 240 237 246 243 240 242 240 237 241 238 235 237 235 231
234 231 226 230 227 222 228 224 220 226 223 219 225 222 217 223 219 214 217 212 206 213 207 201 215 209 202 223 217 210 209 204 199 159 155 150
116 114 112 255 0 255 255 0 255 255 0 255 255 0 255 255 0 255 255 0 255 255 0 255 255 0 255 255 0 255 255 0 255 255 0 255
255 0 255 82 82 83 64 68 70 66 68 70 96 98 100 35 37 39 51 54 57 69 73 77 79 83 87 83 84 87 37 38 39 112 112 113
88 88 89 73 74 75 26 30 32 40 41 44 181 177 173 213 207 201 201 195 189 200 193 186 199 192 185 200 192 185 200 194 186 199 192 185
207 201 195 218 213 208 228 224 220 233 229 225 235 231 227 234 230 226 229 225 221 226 222 217 227 222 218 226 222 218 227 223 218 226 222 217
218 213 208 212 207 201 212 206 199 220 214 208 209 204 198 159 156 153 255 0 255 255 0 255 81 81 81 255 0 255 255 0 255 255 0 255
255 0 255 255 0 255 255 0 255 255 0 255 255 0 255 66 68 70 62 65 68 82 85 87 68 71 72 34 36 38 57 60 63 60 61 63
69 69 71 80 82 86 27 29 31 76 77 78 108 108 109 79 81 82 38 39 40 9 13 16 101 100 99 221 216 209 215 208 199 220 212 205
218 212 205 211 204 197 205 199 192 203 198 192 204 198 191 203 197 189 200 194 187 201 194 187 206 201 194 213 207 201 224 220 215 232 228 224
233 229 225 231 228 223 228 223 218 226 222 217 225 221 216 223 218 213 220 215 209 213 208 201 217 211 205 219 215 209 95 94 93 93 94 95
111 111 112 119 118 118 130 130 129 79 79 79 255 0 255 255 0 255 255 0 255 255 0 255 255 0 255 61 64 67 60 63 67 83 85 89
50 50 52 42 45 48 63 63 65 22 48 68 22 50 71 63 63 66 49 53 57 58 60 62 97 96 98 70 72 75 53 55 57 41 43 46
36 39 42 81 81 81 120 121 121 157 156 154 185 181 175 205 199 192 220 214 207 222 216 209 212 207 200 209 204 198 209 204 197 207 201 194
205 199 192 203 197 189 199 193 187 198 191 184 203 197 191 220 216 211 229 225 221 231 227 222 229 225 219 226 222 217 225 221 216 221 216 211
226 221 215 133 130 126 62 63 64 80 81 82 70 70 70 84 83 83 123 123 122 115 115 115 93 93 94 255 0 255 255 0 255 255 0 255
255 0 255 54 58 61 47 51 54 71 75 79 37 39 42 61 63 64 42 48 58 95 165 184 100 173 192 31 37 48 70 73 76 48 49 51
98 97 99 73 76 78 51 54 56 76 75 76 37 41 44 19 20 22 25 20 26 21 18 22 32 29 30 54 52 53 96 97 99 138 136 136
195 190 183 207 201 195 207 201 195 209 204 197 212 207 201 212 207 200 207 202 196 208 202 196 214 207 199 204 196 189 200 192 185 205 199 193
218 213 207 227 222 218 232 229 225 237 233 229 194 189 182 46 45 44 69 70 71 111 111 111 117 116 115 129 128 126 131 128 127 92 93 93
121 122 122 255 0 255 255 0 255 255 0 255 255 0 255 47 52 57 39 43 46 62 66 70 46 48 51 59 62 64 49 55 63 76 149 175
78 156 184 35 42 51 64 66 69 52 54 56 97 98 99 62 64 66 41 44 46 81 83 84 86 85 85 44 68 80 50 110 129 42 92 111
37 75 91 28 51 62 15 20 26 4 7 13 89 89 91 208 201 195 195 188 182 199 192 186 203 197 191 203 197 191 209 203 197 185 181 175
123 120 117 168 163 159 195 189 182 210 204 197 196 189 182 201 194 187 214 209 205 227 223 218 106 104 101 35 37 38 112 112 112 131 131 130
113 113 112 156 154 152 203 200 197 88 89 89 85 85 86 95 95 95 255 0 255 255 0 255 255 0 255 43 47 52 38 42 47 65 68 72
67 69 70 48 52 56 74 74 73 50 68 85 44 65 86 81 82 81 47 50 53 55 57 59 90 90 93 46 49 51 37 41 43 55 59 61
67 67 70 30 48 58 32 87 106 34 97 119 45 122 148 40 98 119 58 60 65 41 44 47 22 26 29 161 159 157 194 187 180 188 179 172
202 194 187 192 185 178 202 195 188 133 129 126 58 58 59 78 77 76 58 57 56 110 109 107 207 200 192 187 181 175 206 198 191 159 156 151
18 21 23 81 82 84 115 116 116 62 63 64 25 27 28 35 35 36 105 104 104 135 136 136 82 83 85 99 99 99 255 0 255 255 0 255
255 0 255 42 44 47 37 41 44 59 62 65 84 84 86 40 43 45 60 63 66 71 71 72 75 76 76 76 79 82 40 43 45 67 68 68
73 73 76 46 50 53 30 33 35 46 49 52 54 57 59 103 100 98 100 92 90 97 91 90 69 66 69 61 62 64 58 59 59 49 50 51
17 21 24 53 54 55 146 144 142 159 154 150 185 179 174 195 187 179 203 195 187 207 200 192 209 202 194 197 191 184 153 148 143 150 145 139
192 185 178 87 86 84 196 191 185 63 64 65 31 33 36 117 118 118 61 64 64 21 25 27 49 52 56 46 50 54 25 28 31 103 103 104
118 118 119 82 84 86 87 87 88 255 0 255 255 0 255 57 59 61 43 46 49 37 41 44 67 70 72 66 66 65 37 40 43 61 65 69
61 64 68 39 42 45 55 57 58 73 76 78 39 42 46 36 39 41 26 28 31 24 28 32 138 134 129 220 215 206 217 214 207 217 213 207
208 203 196 202 198 191 203 198 193 199 196 192 184 180 176 147 144 140 73 74 75 69 70 71 62 64 67 71 72 73 88 89 91 108 107 108
120 117 116 152 148 144 175 169 164 205 198 190 207 201 195 203 197 190 124 122 119 7 10 14 57 58 59 105 105 105 41 45 47 60 63 66
46 48 50 59 62 64 45 50 52 66 66 68 114 112 113 68 69 71 86 86 87 255 0 255 255 0 255 255 0 255 49 53 59 35 39 42
33 37 42 88 88 88 80 81 80 46 47 50 42 44 46 62 64 64 89 92 94 53 57 62 39 42 44 38 42 45 3 7 10 122 119 113
182 175 167 140 135 131 186 179 171 181 174 166 185 178 171 185 178 171 190 183 176 199 193 186 197 190 182 205 198 190 177 171 166 154 148 144
145 141 136 126 123 119 109 108 109 85 85 86 63 66 70 57 59 61 53 54 58 70 71 73 87 88 89 108 107 105 38 39 39 31 35 38
67 69 71 81 82 83 44 47 49 50 53 55 76 76 75 72 72 71 49 53 56 47 48 50 110 109 111 67 68 71 79 80 81 255 0 255
255 0 255 255 0 255 41 45 50 24 28 34 42 46 51 52 55 61 91 92 95 94 95 95 88 88 88 78 81 83 64 70 76 41 45 48
42 45 46 13 17 21 81 80 78 204 196 189 175 169 162 183 177 169 185 178 170 186 180 172 187 180 173 188 181 174 189 182 175 191 184 177
189 182 175 187 178 171 188 181 175 152 147 142 151 146 141 155 149 143 157 151 146 155 150 145 146 142 137 137 134 131 131 129 127 108 107 106
79 79 79 65 64 65 24 26 28 37 41 44 70 72 74 80 81 83 45 47 49 44 47 49 55 56 59 49 49 52 49 51 54 51 52 55
103 103 104 71 72 73 83 84 85 255 0 255 255 0 255 255 0 255 255 0 255 37 44 50 29 34 39 46 52 59 52 58 64 52 58 63
56 60 65 50 56 62 48 52 56 36 38 40 19 22 26 52 51 51 192 186 180 172 165 160 178 172 165 185 177 170 184 177 170 185 177 170
184 177 171 185 178 172 185 178 172 185 178 171 184 177 170 181 174 167 189 183 176 183 177 171 152 146 140 154 148 143 155 149 144 154 148 142
155 149 144 156 151 146 152 147 143 151 146 142 116 114 113 123 121 119 58 58 58 28 32 35 58 61 63 83 84 86 42 43 46 77 79 81
56 57 57 55 56 57 63 66 69 54 54 55 99 99 99 65 67 70 75 78 79 255 0 255 255 0 255 255 0 255 255 0 255 48 54 58
35 41 46 21 24 28 33 36 40 39 43 47 45 50 55 32 35 39 28 32 34 28 33 37 43 44 44 180 174 168 177 170 163 170 163 157
174 168 161 177 170 164 180 173 166 180 173 167 180 173 166 179 172 166 177 171 164 176 168 161 179 172 164 186 179 171 187 179 171 187 179 170
156 150 144 142 137 132 138 134 130 127 124 122 128 125 122 133 130 127 130 126 123 134 129 124 137 132 128 152 148 145 100 96 94 19 22 24
40 43 47 85 86 88 54 54 55 59 62 65 91 91 92 81 83 84 54 56 59 72 72 70 79 81 82 55 57 60 68 69 71 255 0 255
255 0 255 255 0 255 255 0 255 255 0 255 36 41 43 36 42 47 30 35 38 27 30 33 27 31 34 27 30 34 24 29 32 41 43 43
172 166 160 178 172 167 164 157 151 170 164 158 171 164 158 171 165 159 171 164 159 172 166 161 178 171 166 182 174 168 182 175 166 177 170 162
160 155 149 138 135 132 118 118 117 93 93 94 76 77 80 84 85 88 84 86 89 87 91 95 88 91 95 84 86 89 81 83 87 81 83 86
98 99 100 103 104 106 105 103 102 27 29 30 21 25 29 63 67 71 101 101 100 51 52 54 48 50 52 45 48 50 62 63 64 95 95 95
61 63 64 61 63 66 75 75 76 255 0 255 255 0 255 255 0 255 255 0 255 255 0 255 255 0 255 47 50 51 37 43 47 26 32 36
22 27 31 14 19 22 15 18 18 162 155 149 130 127 125 146 142 138 170 164 158 166 160 154 168 162 157 169 163 157 176 169 163 178 172 165
175 169 163 157 152 147 121 119 116 98 99 99 93 95 97 90 93 97 89 92 96 90 94 99 96 100 106 108 112 117 101 106 111 92 97 102
96 101 106 90 97 104 89 96 102 98 101 106 99 104 110 89 92 98 95 99 104 40 42 44 27 31 35 53 57 62 87 90 95 104 103 101
82 80 77 88 87 85 106 106 107 78 81 84 50 52 54 58 60 63 255 0 255 255 0 255 255 0 255 255 0 255 255 0 255 255 0 255
255 0 255 255 0 255 255 0 255 40 43 46 40 41 41 71 69 67 78 79 79 97 96 96 147 142 137 150 144 138 157 150 144 157 150 143
160 154 148 169 164 158 150 145 140 124 122 120 94 94 96 86 87 90 93 94 98 106 107 111 108 111 115 100 104 109 81 82 86 84 89 93
85 90 95 54 58 65 80 83 85 255 0 255 255 0 255 255 0 255 255 0 255 255 0 255 60 64 67 67 70 73 73 77 81 51 54 54
44 49 53 35 40 45 56 60 64 75 79 84 95 97 99 98 99 102 78 81 84 50 52 55 44 49 53 64 67 68 255 0 255 255 0 255
255 0 255 255 0 255 255 0 255 255 0 255 255 0 255 255 0 255 255 0 255 81 83 84 105 108 110 100 102 105 77 78 82 57 60 63
78 81 85 73 77 81 72 75 80 77 80 85 78 80 85 76 79 83 90 97 103 94 97 101 101 105 111 102 105 111 97 103 110 84 87 92
73 75 78 255 0 255 255 0 255 255 0 255 255 0 255 255 0 255 255 0 255 255 0 255 255 0 255 255 0 255 255 0 255 255 0 255
255 0 255 255 0 255 255 0 255 255 0 255 63 65 68 45 52 59 22 26 29 45 48 53 50 54 60 44 47 51 33 37 41 30 35 39
49 53 56 255 0 255 255 0 255 255 0 255 255 0 255 255 0 255 255 0 255 255 0 255 255 0 255 255 0 255 255 0 255 255 0 255
75 77 80 86 91 98 78 84 91 84 89 95 89 95 102 87 94 103 88 95 104 90 97 106 87 93 103 77 84 93 91 98 105 94 99 107
88 92 97 87 91 95 255 0 255 255 0 255 255 0 255 255 0 255 255 0 255 255 0 255 255 0 255 255 0 255 255 0 255 255 0 255
255 0 255 255 0 255 255 0 255 255 0 255 255 0 255 255 0 255 255 0 255 255 0 255 255 0 255 46 49 51 46 51 57 38 42 47
32 34 38 29 32 35 38 43 49 48 54 60 255 0 255 255 0 255 255 0 255 255 0 255 255 0 255 255 0 255 255 0 255 255 0 255
255 0 255 255 0 255 255 0 255 255 0 255 255 0 255 66 70 73 53 58 60 67 75 80 68 78 85 66 75 83 73 82 90 72 81 89
71 76 82 73 79 84 62 66 68 255 0 255 255 0 255 255 0 255 255 0 255 255 0 255 255 0 255 255 0 255 255 0 255 255 0 255
255 0 255 255 0 255 255 0 255 255 0 255 255 0 255 255 0 255 255 0 255 255 0 255 255 0 255 255 0 255 255 0 255 255 0 255
255 0 255 255 0 255 255 0 255 57 62 65 40 46 51 45 50 55 45 49 54 255 0 255 255 0 255 255 0 255 255 0 255 255 0 255
255 0 255 255 0 255 255 0 255 255 0 255 255 0 255 255 0 255 255 0 255 255 0 255 255 0 255 255 0 255 255 0 255 255 0 255
255 0 255 255 0 255 255 0 255 255 0 255 255 0 255 255 0 255 255 0 255 255 0 255 255 0 255 255 0 255 255 0 255 255 0 255
255 0 255 255 0 255 255 0 255 255 0 255 255 0 255 255 0 255 255 0 255 255 0 255 255 0 255 255 0 255 255 0 255 255 0 255
255 0 255 255 0 255 255 0 255 255 0 255 255 0 255 255 0 255 255 0 255 255 0 255 255 0 255 255 0 255 255 0 255 255 0 255
255 0 255 255 0 255 255 0 255 255 0 255
