P3
76 44
255
255 0 255 255 0 255 255 0 255 255 0 255 255 0 255 255 0 255 255 0 255 255 0 255 255 0 255 255 0 255 255 0 255 255 0 255
255 0 255 255 0 255 255 0 255 255 0 255 255 0 255 255 0 255 255 0 255 255 0 255 255 0 255 255 0 255 255 0 255 255 0 255
255 0 255 255 0 255 255 0 255 255 0 255 255 0 255 255 0 255 255 0 255 255 0 255 255 0 255 255 0 255 255 0 255 255 0 255
255 0 255 255 0 255 255 0 255 255 0 255 255 0 255 255 0 255 255 0 255 255 0 255 255 0 255 255 0 255 255 0 255 255 0 255
255 0 255 255 0 255 255 0 255 255 0 255 255 0 255 255 0 255 255 0 255 255 0 255 255 0 255 255 0 255 255 0 255 255 0 255
255 0 255 255 0 255 255 0 255 255 0 255 255 0 255 255 0 255 255 0 255 255 0 255 255 0 255 255 0 255 255 0 255 255 0 255
255 0 255 255 0 255 255 0 255 255 0 255 255 0 255 255 0 255 255 0 255 255 0 255 255 0 255 255 0 255 255 0 255 255 0 255
255 0 255 255 0 255 255 0 255 255 0 255 255 0 255 255 0 255 255 0 255 255 0 255 255 0 255 255 0 255 255 0 255 255 0 255
255 0 255 255 0 255 255 0 255 255 0 255 255 0 255 255 0 255 255 0 255 255 0 255 255 0 255 255 0 255 255 0 255 255 0 255
255 0 255 255 0 255 255 0 255 255 0 255 255 0 255 255 0 255 255 0 255 255 0 255 255 0 255 255 0 255 255 0 255 255 0 255
255 0 255 255 0 255 255 0 255 255 0 255 255 0 255 255 0 255 255 0 255 255 0 255 255 0 255 123 121 120 123 120 118 149 146 142
151 147 142 156 151 147 159 156 153 155 153 149 155 153 149 160 157 153 158 154 151 147 143 139 139 135 131 133 132 130 116 114 114 255 0 255
255 0 255 255 0 255 255 0 255 255 0 255 255 0 255 255 0 255 255 0 255 255 0 255 255 0 255 255 0 255 255 0 255 255 0 255
255 0 255 255 0 255 255 0 255 255 0 255 255 0 255 255 0 255 255 0 255 255 0 255 255 0 255 255 0 255 255 0 255 255 0 255
255 0 255 255 0 255 255 0 255 255 0 255 255 0 255 255 0 255 255 0 255 255 0 255 255 0 255 255 0 255 255 0 255 255 0 255
255 0 255 255 0 255 255 0 255 255 0 255 255 0 255 255 0 255 255 0 255 255 0 255 255 0 255 255 0 255 255 0 255 255 0 255
255 0 255 255 0 255 255 0 255 255 0 255 255 0 255 255 0 255 137 135 133 149 145 145 148 145 139 130 129 128 113 112 110 180 176 172
185 179 173 203 198 192 207 202 196 210 204 198 207 201 194 210 204 198 212 206 199 210 203 197 210 204 197 207 200 193 208 201 195 212 205 199
209 203 197 161 159 157 128 126 125 115 113 111 255 0 255 255 0 255 255 0 255 255 0 255 255 0 255 255 0 255 255 0 255 255 0 255
255 0 255 255 0 255 255 0 255 255 0 255 255 0 255 255 0 255 255 0 255 255 0 255 255 0 255 255 0 255 255 0 255 255 0 255
255 0 255 255 0 255 33 33 35 41 41 43 126 124 123 136 135 132 127 126 124 131 127 125 255 0 255 255 0 255 255 0 255 255 0 255
255 0 255 255 0 255 255 0 255 255 0 255 255 0 255 255 0 255 255 0 255 255 0 255 255 0 255 255 0 255 255 0 255 255 0 255
255 0 255 255 0 255 255 0 255 123 119 117 146 142 140 158 154 150 170 166 163 171 167 162 185 180 173 198 192 187 212 206 202 212 205 200
210 202 195 223 216 210 164 160 157 171 164 159 212 205 198 201 195 188 203 197 190 200 194 187 199 192 184 200 194 187 202 196 189 202 195 188
203 196 188 205 198 192 196 189 182 195 190 184 179 175 171 77 77 76 42 45 47 81 82 82 85 84 84 255 0 255 255 0 255 255 0 255
255 0 255 255 0 255 255 0 255 255 0 255 255 0 255 255 0 255 255 0 255 255 0 255 255 0 255 255 0 255 255 0 255 255 0 255
255 0 255 255 0 255 255 0 255 69 69 67 58 58 58 84 84 84 130 128 126 169 166 162 212 207 201 214 207 199 209 202 194 212 206 199
207 201 196 204 198 193 196 191 186 183 178 174 172 168 162 157 153 149 159 155 151 160 157 154 156 152 149 136 134 132 132 129 125 139 138 134
136 135 132 144 141 138 156 153 150 157 154 150 174 170 165 196 191 186 206 200 194 210 204 197 214 208 200 215 209 202 210 204 197 207 200 193
204 197 191 204 197 190 202 196 188 203 196 189 205 199 192 199 191 183 204 198 192 146 142 138 211 206 200 217 212 205 209 203 196 212 207 200
214 208 202 219 214 209 222 217 213 222 218 212 222 217 212 223 219 213 221 217 212 218 214 209 124 121 117 45 47 49 68 72 75 74 76 79
62 65 68 71 72 75 255 0 255 255 0 255 255 0 255 255 0 255 255 0 255 255 0 255 255 0 255 255 0 255 255 0 255 255 0 255
255 0 255 255 0 255 255 0 255 255 0 255 255 0 255 57 57 55 71 71 70 103 103 102 164 162 160 210 205 201 228 222 215 228 223 216
216 211 205 212 206 200 213 207 201 214 208 202 215 209 203 214 208 201 215 208 202 215 208 201 215 208 201 220 213 207 221 214 208 217 210 204
215 207 199 218 211 204 222 216 209 222 216 209 223 217 210 221 214 208 216 208 202 218 210 204 213 206 199 210 203 196 211 204 197 212 205 198
210 204 197 209 203 195 209 203 196 210 205 198 212 207 200 212 207 200 214 208 201 216 210 204 219 213 207 216 211 206 221 216 211 211 208 203
165 161 156 217 212 206 226 220 214 235 231 226 233 228 224 230 225 221 228 224 219 229 225 221 230 226 222 227 224 219 229 225 220 224 220 216
101 98 96 59 62 64 79 82 84 32 34 36 32 34 36 93 94 94 89 90 90 66 67 68 57 57 59 255 0 255 255 0 255 255 0 255
255 0 255 255 0 255 255 0 255 255 0 255 255 0 255 255 0 255 255 0 255 255 0 255 255 0 255 107 107 105 190 189 186 225 220 214
238 233 228 227 222 216 222 217 211 224 219 214 226 222 217 226 222 216 226 222 218 226 222 217 225 221 216 223 219 214 222 217 212 221 216 210
220 215 210 217 212 206 215 209 203 213 206 200 212 206 199 212 206 199 210 205 197 211 204 197 212 206 199 214 208 202 214 208 201 213 207 201
216 210 204 218 212 206 219 213 207 219 213 207 220 215 209 221 216 211 223 219 213 223 219 214 223 218 213 224 220 214 225 220 215 224 219 214
224 220 214 227 222 217 234 231 227 223 219 215 153 150 148 177 174 171 177 172 169 195 191 187 213 209 205 226 222 217 235 231 227 234 231 226
229 225 220 230 227 222 246 244 241 230 227 224 76 75 74 65 68 70 99 100 102 32 34 36 87 89 92 88 90 93 92 94 95 65 68 72
65 69 74 255 0 255 255 0 255 255 0 255 255 0 255 255 0 255 255 0 255 255 0 255 255 0 255 255 0 255 255 0 255 255 0 255
105 104 102 222 219 214 214 210 207 232 227 223 223 219 214 228 224 220 234 231 227 232 229 224 230 226 221 229 226 222 232 228 224 233 230 225
230 226 222 228 224 220 227 224 219 227 223 219 226 223 218 226 222 218 225 221 216 225 221 216 226 221 217 225 220 215 223 219 213 222 217 211
221 215 209 222 217 211 225 220 214 226 221 216 227 222 218 228 224 219 228 224 220 228 224 219 228 224 219 227 223 218 227 223 218 227 223 218
229 225 220 231 227 223 232 229 224 234 230 225 233 229 225 232 229 225 238 235 230 176 172 169 220 217 214 227 223 220 232 229 225 218 215 211
199 196 192 187 183 179 197 192 188 217 214 210 243 240 236 255 255 254 251 250 248 218 215 212 94 92 92 127 127 127 72 74 76 31 33 36
86 88 91 82 84 85 88 90 91 39 43 46 36 40 45 58 60 64 255 0 255 255 0 255 255 0 255 255 0 255 82 82 82 85 84 84
97 98 99 114 114 116 78 79 79 64 65 67 78 78 78 208 203 196 164 159 155 240 236 230 226 221 216 221 216 211 220 215 210 220 216 211
221 216 212 233 229 226 225 221 217 206 202 199 223 218 214 235 229 225 242 235 231 244 238 233 243 236 229 237 231 224 234 230 224 232 228 223
229 226 222 228 225 221 226 222 217 226 221 215 226 221 216 227 222 217 227 223 218 228 224 219 228 224 219 228 224 218 228 224 219 229 225 220
227 223 218 227 222 218 226 222 217 227 222 217 229 225 220 235 232 228 239 237 233 241 239 236 240 238 235 252 250 248 185 182 177 198 193 188
235 231 226 224 220 216 237 234 230 244 242 239 252 251 250 251 251 249 236 235 233 206 203 200 185 180 176 204 201 197 227 224 220 230 226 222
78 77 77 83 85 88 60 62 64 39 43 45 96 98 101 107 108 110 102 103 105 23 26 29 13 17 20 43 45 46 255 0 255 255 0 255
255 0 255 81 83 86 97 101 105 69 71 74 79 82 85 78 80 83 60 63 65 45 49 52 34 36 38 133 132 129 175 173 169 190 187 184
210 205 201 228 223 218 232 227 221 231 225 218 237 232 226 226 221 216 118 128 132 108 133 145 114 150 164 122 155 170 129 158 172 139 160 172
149 168 179 177 189 197 199 205 208 220 219 220 234 227 223 236 228 221 234 229 224 233 229 225 235 231 227 233 229 224 231 227 221 229 224 219
227 223 217 227 223 218 227 223 217 227 223 218 227 223 218 227 223 218 227 222 217 227 222 218 226 221 216 225 220 214 226 221 216 226 222 217
230 226 221 210 206 202 172 168 164 234 230 225 225 220 215 229 224 219 232 227 223 233 230 226 238 236 233 251 250 249 255 255 255 255 254 253
243 241 239 216 214 212 173 171 167 178 174 169 100 98 96 46 50 55 46 47 49 83 84 85 163 162 162 169 168 167 97 97 98 13 14 15
14 18 21 45 48 51 255 0 255 255 0 255 255 0 255 81 82 82 75 79 83 64 67 70 93 94 96 71 71 73 63 66 69 45 49 53
55 58 61 63 65 68 43 46 48 37 41 45 51 52 53 71 72 74 99 99 99 116 114 110 144 142 138 108 105 103 69 98 109 172 200 209
177 207 215 181 218 227 167 212 220 152 198 206 137 189 202 123 177 195 110 169 190 104 159 179 102 143 162 116 140 154 179 176 177 203 197 191
200 196 191 212 208 203 217 213 208 224 219 214 230 226 221 233 230 225 234 230 224 232 227 222 228 224 219 226 222 217 226 221 216 226 221 216
225 221 216 226 222 217 226 221 216 223 219 213 233 229 223 166 163 160 215 212 208 229 225 220 224 220 215 225 220 215 227 223 218 230 226 222
234 230 226 246 245 242 253 252 251 249 248 246 243 240 238 243 241 237 241 239 235 176 172 168 72 71 69 50 54 58 43 45 47 80 83 84
115 116 117 123 122 124 89 89 90 20 23 25 16 21 24 37 39 43 69 69 69 255 0 255 255 0 255 89 89 90 91 93 95 73 76 79
110 110 111 85 86 86 69 72 75 41 44 49 83 85 88 156 155 155 123 123 122 117 117 116 100 101 101 77 79 82 31 33 36 100 99 97
155 153 150 168 163 159 195 194 191 170 179 182 154 166 171 137 162 172 132 161 171 128 171 185 149 190 200 157 209 218 152 218 227 133 219 226
135 218 228 134 217 230 76 134 157 181 173 167 183 175 167 177 169 163 177 170 163 181 175 168 188 182 175 189 183 176 200 195 188 212 206 200
221 217 212 228 224 218 230 226 221 229 225 220 226 222 216 223 218 213 221 216 211 231 226 220 194 190 185 182 178 175 240 236 230 221 217 212
225 221 216 226 221 217 227 223 219 228 225 220 229 225 221 234 231 227 241 239 236 249 248 247 243 240 237 235 231 227 237 234 230 244 240 236
88 87 85 44 47 52 51 54 56 58 61 63 89 90 93 96 97 99 81 82 83 26 28 32 23 26 32 34 37 41 66 68 70 255 0 255
255 0 255 121 121 120 136 135 134 92 93 94 127 126 125 102 101 101 128 128 128 71 73 76 87 87 89 171 170 169 157 156 154 157 155 153
154 153 152 164 162 161 106 106 107 91 90 89 245 239 234 182 178 174 223 219 214 241 235 228 236 230 223 235 229 224 229 223 219 215 214 213
199 202 205 171 189 195 149 176 184 137 169 179 125 168 181 120 170 182 57 108 125 106 109 110 177 171 163 189 182 175 200 193 186 191 183 176
175 167 160 172 164 157 172 164 158 174 167 160 175 168 161 182 175 169 192 186 180 203 197 192 215 209 204 223 218 213 229 224 218 229 226 221
161 158 154 201 197 193 200 197 192 228 223 218 225 220 215 228 223 219 229 225 220 230 226 221 230 226 221 232 229 224 234 230 226 242 240 237
245 242 240 236 232 229 234 231 227 238 235 231 198 194 189 53 56 58 44 48 51 44 46 48 77 79 81 73 76 79 57 54 54 28 61 74
35 63 74 35 35 37 65 68 71 255 0 255 255 0 255 105 104 104 100 101 104 76 78 80 92 94 96 77 78 79 96 97 99 51 55 60
74 76 77 149 148 148 154 153 152 162 161 160 158 157 157 158 157 155 136 135 135 51 51 53 174 170 167 193 189 184 211 207 201 219 215 209
217 212 207 219 214 209 220 216 211 224 218 213 228 222 216 231 223 216 234 225 219 237 228 222 233 225 220 219 212 210 218 210 207 148 147 143
106 105 103 100 99 99 107 105 103 144 139 134 199 192 184 195 187 179 189 182 174 181 173 167 176 169 162 174 167 160 171 163 157 169 162 155
177 170 164 176 169 163 192 185 178 160 157 153 182 178 173 179 175 170 146 142 138 228 223 216 221 216 210 227 223 218 230 225 220 230 226 221
229 225 220 232 228 223 234 231 227 239 236 232 240 237 234 235 232 228 234 231 227 226 223 218 233 227 221 103 102 100 35 40 44 39 41 43
62 65 68 68 73 77 72 66 65 29 73 89 37 76 88 37 34 35 66 69 72 255 0 255 255 0 255 90 90 91 75 78 82 58 60 62
94 96 98 79 80 82 75 78 81 37 41 44 68 69 71 136 136 135 123 123 123 136 136 135 142 142 140 139 138 137 147 147 146 93 93 95
98 97 98 232 225 218 216 210 204 218 213 207 220 215 209 222 217 211 221 217 212 220 216 211 219 215 209 217 213 208 215 211 206 213 209 204
215 212 206 221 217 211 222 218 213 230 225 219 230 225 219 203 199 193 176 173 170 98 96 95 59 60 61 100 99 99 150 145 140 180 174 167
194 187 180 193 186 177 181 173 165 186 179 171 135 131 126 95 92 90 184 176 169 101 99 98 80 79 81 171 167 163 220 215 209 220 215 208
214 209 203 220 215 209 223 218 212 225 221 216 226 222 217 228 224 219 231 227 223 233 229 225 232 229 225 232 229 224 230 226 222 222 217 212
232 227 222 168 162 157 39 41 44 41 43 45 64 67 70 69 73 75 72 73 75 34 43 48 43 53 58 46 48 51 65 68 70 255 0 255
255 0 255 68 70 73 67 70 74 55 57 61 83 85 88 64 66 69 51 55 59 25 28 32 72 75 79 139 139 139 126 125 126 123 123 123
123 123 123 123 123 123 125 124 124 119 119 119 54 56 59 169 164 158 212 204 197 205 198 191 208 201 194 211 205 198 213 207 200 215 210 204
219 214 208 220 215 210 220 216 211 220 215 210 219 215 210 219 214 209 218 213 208 216 211 206 217 212 206 218 213 207 220 213 206 211 205 199
35 34 33 2 6 10 21 26 30 41 44 47 77 78 78 123 120 118 159 155 151 185 177 169 168 161 153 150 147 142 131 131 130 31 35 39
20 25 28 56 58 62 115 115 115 187 183 179 221 215 207 216 210 203 217 211 205 222 216 211 222 217 213 226 222 217 228 224 220 229 225 220
228 224 220 228 223 219 225 221 216 222 217 212 221 216 211 219 212 206 82 82 81 35 38 41 63 65 68 52 57 60 57 60 63 35 38 42
35 40 44 70 73 76 91 92 91 255 0 255 255 0 255 65 67 69 62 66 70 57 60 62 80 82 84 57 59 61 49 52 57 25 28 33
74 78 83 130 130 130 109 109 109 124 123 123 122 121 121 123 122 122 122 122 122 131 130 129 75 79 83 101 100 100 214 207 199 201 195 187
203 196 189 203 196 188 202 195 188 203 196 189 207 201 193 213 206 200 214 208 202 217 212 206 218 213 208 220 215 210 221 216 211 220 215 209
220 215 210 219 214 208 205 200 193 228 223 216 157 153 149 19 24 28 59 61 63 34 37 39 14 18 21 10 15 19 27 32 37 61 62 64
103 101 100 114 114 114 28 33 37 29 32 35 54 57 59 21 26 29 20 24 27 58 60 63 135 134 133 209 203 197 220 214 207 216 211 205
221 217 212 224 220 215 225 221 217 225 221 217 225 221 216 224 220 216 224 219 214 222 217 212 218 213 207 228 224 217 150 146 142 27 29 33
37 41 45 35 40 45 50 53 57 41 43 46 23 27 32 55 59 63 76 77 78 255 0 255 255 0 255 62 64 66 62 66 69 45 48 51
57 60 63 47 50 53 53 57 61 27 31 35 65 68 72 123 120 117 90 90 88 127 126 125 119 120 119 121 121 121 122 122 122 129 128 127
106 107 108 52 55 59 176 171 166 204 197 190 198 191 183 199 192 184 198 191 184 200 193 186 203 196 189 206 198 191 207 201 194 208 201 194
209 203 197 213 207 201 217 212 206 219 215 209 221 216 211 223 218 213 223 218 213 223 217 211 225 220 214 69 68 67 55 57 59 94 94 95
86 87 88 72 74 76 47 49 52 27 30 34 11 14 18 18 20 22 60 62 62 100 101 101 99 99 99 77 77 77 37 40 42 10 13 16
29 32 37 102 102 103 196 191 186 221 215 208 213 207 200 219 215 209 221 216 212 222 217 213 222 217 213 221 216 212 221 216 211 220 215 210
218 212 207 221 217 211 199 192 186 43 42 42 22 25 29 35 39 43 37 42 46 47 50 54 20 23 26 46 50 54 63 64 66 255 0 255
255 0 255 43 46 48 42 46 51 37 40 43 51 55 59 38 41 44 43 48 52 31 36 40 21 24 28 66 69 73 81 82 83 110 110 110
127 127 126 128 127 127 129 128 128 128 127 127 119 117 116 59 62 67 116 115 115 208 201 193 192 185 177 195 187 179 194 186 178 195 189 181
199 191 184 200 192 185 200 193 185 202 195 187 204 197 190 205 198 191 208 201 195 210 204 198 211 205 199 214 208 201 216 210 204 217 211 205
230 225 220 180 175 169 32 34 36 80 81 83 83 85 87 83 85 87 85 86 87 94 94 95 48 48 50 74 75 76 87 88 89 64 64 66
48 48 50 84 84 85 93 93 93 69 70 71 28 31 34 20 23 27 79 80 82 181 179 177 221 215 209 213 208 202 216 211 206 218 213 208
219 214 209 218 213 208 218 213 208 218 213 207 216 211 205 212 207 200 225 219 212 97 93 90 8 11 13 33 37 41 27 33 37 48 52 56
31 34 37 52 55 58 60 62 63 255 0 255 255 0 255 46 49 52 42 46 50 32 34 36 53 57 61 48 51 54 34 38 41 26 30 34
11 14 16 52 57 62 62 66 71 59 63 68 66 69 72 82 84 85 108 109 109 121 120 119 126 124 122 103 105 107 70 71 76 183 177 171
193 186 179 191 184 177 192 185 177 193 185 179 192 185 178 191 184 177 192 185 177 195 187 179 199 191 184 200 192 185 200 193 185 202 194 187
204 196 190 205 198 192 207 200 193 208 201 193 203 197 191 228 222 215 111 109 108 45 49 52 88 90 91 81 83 85 82 83 85 91 91 93
48 48 49 67 69 71 86 84 85 59 71 80 12 45 61 76 74 74 44 46 50 82 81 82 102 101 101 58 62 64 15 18 21 61 61 63
181 178 175 222 217 212 211 206 200 214 209 204 216 211 206 216 211 206 216 211 205 216 211 205 214 209 202 209 203 196 223 217 210 162 157 152
19 21 23 30 35 40 25 29 34 26 29 32 52 54 58 59 62 66 255 0 255 255 0 255 255 0 255 36 39 43 30 33 37 24 27 29
34 39 43 32 35 38 28 31 34 23 26 29 15 19 21 37 40 45 72 76 82 65 69 74 63 67 73 60 64 68 58 61 65 59 62 65
75 76 78 94 94 94 60 61 63 111 110 109 213 205 196 200 193 185 195 187 179 191 183 176 189 181 174 189 182 175 191 183 176 192 184 176
192 184 177 194 187 179 195 188 181 196 188 181 199 191 183 202 194 188 205 198 191 206 198 192 205 198 191 212 206 199 202 195 188 43 44 44
70 72 75 85 87 88 86 87 88 91 91 92 48 49 50 69 71 73 86 84 85 66 80 88 67 121 140 69 71 74 26 73 92 56 78 88
54 54 56 58 59 61 71 72 73 15 18 22 82 82 83 197 192 188 213 207 199 208 202 196 211 206 200 212 207 201 212 206 199 211 205 199
213 208 201 215 209 203 211 205 198 206 200 193 60 59 58 6 8 11 27 30 34 25 29 33 45 54 62 54 57 62 255 0 255 255 0 255
255 0 255 38 42 46 25 29 33 24 27 30 32 36 41 19 22 25 14 16 18 24 27 29 29 32 35 22 25 29 47 53 60 68 72 78
65 69 76 65 70 76 65 69 75 63 67 73 60 64 68 53 57 60 53 56 60 52 56 62 145 142 139 163 158 152 182 175 167 196 188 179
200 193 185 196 188 181 191 184 176 189 182 174 189 181 173 189 181 174 190 183 175 193 186 178 194 187 180 195 187 180 196 188 181 199 192 186
202 195 188 196 189 182 218 210 203 127 124 119 36 39 44 63 68 72 54 58 61 82 83 85 60 61 62 57 59 61 77 78 79 72 80 84
69 141 165 80 87 93 61 123 141 56 95 110 51 59 65 13 50 70 78 79 81 52 55 58 26 29 33 103 104 105 212 207 202 213 207 201
211 205 199 210 204 197 211 205 198 212 205 199 211 205 198 200 194 188 225 221 215 178 173 167 54 53 54 22 24 26 15 17 18 23 35 47
35 49 63 255 0 255 255 0 255 255 0 255 255 0 255 42 46 49 25 28 31 21 23 26 25 28 31 21 24 26 23 27 30 21 25 28
21 24 27 26 29 33 27 34 42 68 77 86 64 68 75 65 69 76 64 69 76 66 70 76 66 70 74 64 69 72 68 72 76 40 45 51
76 78 81 118 115 114 111 110 110 132 130 128 157 153 148 183 177 170 196 188 180 197 189 180 194 185 177 189 181 174 188 180 173 190 182 175
191 183 176 192 185 177 193 186 179 194 186 178 193 185 178 192 184 177 196 189 182 210 205 197 58 59 59 49 52 56 59 63 67 61 66 70
35 39 42 50 52 55 75 77 78 70 76 81 61 140 168 71 83 91 68 107 118 54 101 119 82 91 96 44 125 154 59 65 74 92 91 92
36 37 38 31 35 39 156 155 155 218 213 208 211 206 200 219 213 206 217 210 204 216 210 204 210 204 197 136 134 129 195 191 187 124 121 116
72 72 72 43 49 53 36 38 38 27 29 30 255 0 255 255 0 255 255 0 255 255 0 255 255 0 255 43 46 50 25 30 35 19 22 26
24 27 29 27 30 32 21 24 28 13 16 19 15 17 18 58 59 61 16 22 27 48 61 73 56 62 69 58 64 71 67 72 78 64 69 75
64 69 75 65 70 74 63 68 72 55 59 62 39 45 50 103 104 106 128 127 126 125 124 124 112 111 111 104 104 105 118 117 115 150 146 142
177 170 163 194 186 178 199 191 183 196 187 179 192 184 177 191 183 176 191 183 175 191 183 175 191 183 176 193 186 178 189 182 175 203 195 187
161 155 147 25 28 30 67 71 72 63 65 68 36 38 40 67 70 73 69 73 76 73 67 69 34 111 138 52 78 90 66 94 104 45 111 134
87 86 91 47 133 161 52 72 85 68 69 70 41 44 46 17 23 27 81 82 86 131 128 123 154 149 145 197 191 185 195 189 183 195 188 180
207 201 195 206 202 197 128 124 120 185 179 172 119 115 112 14 19 23 51 56 60 75 76 79 98 97 95 255 0 255 255 0 255 255 0 255
255 0 255 58 63 66 41 49 56 29 34 39 33 41 50 39 48 57 25 30 36 22 29 35 21 25 29 66 69 73 40 41 43 20 26 32
58 69 78 68 74 80 69 72 78 66 70 77 65 70 76 64 69 76 62 68 73 70 74 78 51 55 58 12 20 28 34 40 46 61 64 67
98 98 98 120 119 119 126 126 125 116 116 117 114 114 114 125 122 121 141 137 134 169 162 156 191 184 176 199 191 183 198 190 181 194 186 179
191 183 176 188 181 174 191 183 176 186 179 171 216 210 202 99 98 96 5 10 14 32 34 37 33 35 37 72 74 76 73 76 79 74 72 73
38 67 78 38 52 61 77 93 101 38 105 130 67 63 67 62 130 152 47 83 100 79 78 80 57 61 64 33 36 39 43 46 49 156 149 144
161 154 148 155 149 144 153 147 142 152 146 141 161 156 150 130 126 121 143 139 134 180 174 169 152 146 142 21 25 28 15 23 30 83 83 84
255 0 255 255 0 255 255 0 255 255 0 255 255 0 255 255 0 255 255 0 255 255 0 255 34 40 46 24 31 38 33 37 41 46 51 55
23 28 33 31 39 48 41 49 56 26 33 39 19 24 32 32 35 38 46 52 58 65 71 78 68 73 79 68 73 78 58 63 68 60 64 69
62 65 70 22 24 26 18 22 25 13 18 21 14 18 22 33 37 42 72 76 79 101 103 106 119 119 118 123 121 120 115 114 114 112 112 112
120 118 118 137 133 130 164 159 153 188 180 173 197 189 181 199 190 182 195 187 180 191 184 177 193 186 179 194 187 179 84 82 80 33 36 39
20 24 27 19 22 26 41 44 47 54 58 61 80 77 77 73 73 75 73 77 80 40 62 74 62 57 58 46 110 133 33 94 118 76 71 73
51 55 58 51 52 54 31 35 39 144 139 136 166 160 154 160 154 148 163 157 151 162 157 151 165 160 153 119 114 110 155 149 144 156 150 144
153 149 144 100 100 97 45 47 47 120 117 112 255 0 255 255 0 255 255 0 255 255 0 255 255 0 255 255 0 255 255 0 255 255 0 255
255 0 255 255 0 255 255 0 255 255 0 255 255 0 255 30 37 43 25 33 40 31 38 45 16 18 19 14 18 22 20 27 31 21 31 39
19 32 47 27 36 51 45 50 61 53 57 64 46 53 59 43 47 50 33 36 39 60 64 68 43 48 51 21 24 27 11 16 21 12 16 21
30 34 37 70 74 77 112 115 118 129 128 127 117 115 115 113 114 115 112 112 112 116 116 115 134 132 129 160 155 150 183 176 169 194 186 178
194 186 178 196 188 180 215 208 201 176 172 166 109 108 106 43 45 46 3 5 7 3 5 8 22 26 31 44 47 50 68 70 73 89 87 87
79 78 79 65 80 88 27 49 60 64 65 68 52 56 59 44 46 50 24 28 31 115 114 113 167 160 154 158 153 147 162 156 150 165 159 153
148 142 136 118 114 110 168 162 156 160 153 146 101 101 100 124 122 120 165 160 156 131 129 127 255 0 255 255 0 255 255 0 255 255 0 255
255 0 255 255 0 255 255 0 255 255 0 255 255 0 255 255 0 255 255 0 255 255 0 255 255 0 255 34 41 47 24 29 33 26 28 31
32 36 39 26 31 36 52 55 58 24 38 54 22 114 152 34 127 157 23 81 111 19 54 83 29 43 62 34 37 47 39 39 41 53 57 60
53 56 60 29 32 34 43 45 48 34 38 42 27 30 33 22 26 30 17 23 29 63 69 74 129 129 129 119 118 118 121 120 121 119 119 118
116 116 116 111 112 112 115 114 114 130 128 126 158 154 149 180 174 167 193 186 178 211 204 197 216 209 202 198 192 184 139 135 130 74 73 72
29 30 31 17 20 23 16 20 23 21 24 28 38 42 45 77 77 78 89 85 85 67 71 74 63 66 69 43 44 48 17 21 25 95 95 95
178 171 165 164 158 152 160 154 148 169 163 156 122 118 113 140 135 130 165 159 153 149 144 139 106 107 108 103 103 106 118 120 123 95 97 98
255 0 255 255 0 255 255 0 255 255 0 255 255 0 255 255 0 255 255 0 255 255 0 255 255 0 255 255 0 255 255 0 255 255 0 255
255 0 255 255 0 255 33 40 46 30 35 40 31 36 41 22 27 33 33 38 43 42 51 61 30 77 113 42 129 173 54 155 190 50 165 201
40 142 178 29 103 135 13 44 66 31 33 36 60 64 68 35 37 40 42 44 46 71 73 75 63 66 68 44 48 51 22 26 27 11 15 20
81 92 101 129 127 126 118 118 118 119 118 118 120 119 118 122 121 120 121 121 120 118 118 118 115 116 116 119 119 118 131 129 127 149 145 141
166 160 153 187 179 172 209 201 194 219 212 206 186 181 176 35 37 39 34 37 39 13 15 17 8 10 12 17 21 25 30 33 37 42 44 47
50 52 54 36 40 43 18 22 26 71 72 74 145 140 138 117 116 114 169 162 155 160 154 147 117 113 109 159 153 148 160 153 147 117 116 114
107 108 110 112 113 114 120 121 122 255 0 255 255 0 255 255 0 255 255 0 255 255 0 255 255 0 255 255 0 255 255 0 255 255 0 255
255 0 255 255 0 255 255 0 255 255 0 255 255 0 255 255 0 255 255 0 255 30 35 39 29 40 47 23 30 36 20 26 29 28 33 37
34 37 42 33 39 51 29 45 64 35 76 105 42 104 137 48 145 174 12 74 108 16 14 17 30 34 38 42 46 49 33 36 38 55 59 63
56 59 63 40 42 44 69 72 75 28 29 32 17 25 33 108 113 118 124 121 119 119 118 119 121 120 120 121 120 120 120 119 119 121 120 119
123 122 122 122 121 121 117 117 118 113 114 114 117 117 117 130 129 127 143 140 136 153 147 142 191 186 180 98 96 93 54 56 57 75 77 79
51 54 56 32 35 37 9 12 14 11 14 17 21 25 28 30 33 35 15 17 20 38 42 45 149 146 143 156 151 146 183 176 170 143 138 133
135 131 128 168 162 156 142 137 132 98 99 101 107 108 111 124 126 129 109 109 109 255 0 255 255 0 255 255 0 255 255 0 255 255 0 255
255 0 255 255 0 255 255 0 255 255 0 255 255 0 255 255 0 255 255 0 255 255 0 255 255 0 255 255 0 255 255 0 255 255 0 255
255 0 255 255 0 255 255 0 255 34 38 40 28 34 40 32 39 44 30 34 37 31 33 37 26 24 30 25 29 42 31 40 50 35 39 42
24 28 32 22 27 32 18 21 24 41 44 47 54 58 62 20 23 25 49 52 56 48 52 55 15 18 21 55 67 80 127 128 128 117 116 115
120 119 118 120 119 119 119 118 118 120 119 119 121 120 120 121 121 121 122 121 121 123 123 122 122 122 122 118 118 118 114 113 114 109 109 109
119 118 118 146 143 139 41 43 45 70 72 74 72 74 76 75 77 78 64 65 65 37 40 42 31 34 38 19 21 24 20 22 24 22 25 27
50 53 55 63 64 66 65 68 73 70 69 71 131 126 123 127 124 121 116 114 113 102 103 107 107 110 114 129 129 129 255 0 255 255 0 255
255 0 255 255 0 255 255 0 255 255 0 255 255 0 255 255 0 255 255 0 255 255 0 255 255 0 255 255 0 255 255 0 255 255 0 255
255 0 255 255 0 255 255 0 255 255 0 255 255 0 255 255 0 255 255 0 255 255 0 255 255 0 255 39 44 48 36 41 45 24 30 34
25 31 34 28 35 38 28 32 37 28 31 35 30 33 37 23 27 32 10 12 15 16 19 21 51 56 60 42 45 47 48 52 55 55 59 63
38 41 42 16 24 33 95 105 114 98 98 98 94 98 101 123 121 120 119 118 118 121 119 119 121 120 120 121 120 120 121 120 120 121 120 120
121 120 120 120 120 120 122 121 121 124 123 122 118 117 117 141 138 134 80 77 75 44 47 50 75 77 79 62 65 67 78 79 80 76 77 80
51 53 56 35 36 37 71 72 72 59 62 65 19 24 27 16 20 25 18 24 30 14 18 23 98 99 100 124 122 120 99 100 102 108 110 114
119 123 126 112 111 107 255 0 255 255 0 255 255 0 255 255 0 255 255 0 255 255 0 255 255 0 255 255 0 255 255 0 255 255 0 255
255 0 255 255 0 255 255 0 255 255 0 255 255 0 255 255 0 255 255 0 255 255 0 255 255 0 255 255 0 255 255 0 255 255 0 255
255 0 255 255 0 255 255 0 255 255 0 255 255 0 255 41 46 50 35 39 44 26 29 33 21 25 29 16 18 20 17 20 22 21 24 28
44 49 54 53 57 62 48 52 56 45 50 55 47 50 53 16 16 18 39 51 60 103 109 114 118 117 118 126 124 122 120 119 118 116 115 115
118 117 117 119 119 119 120 120 119 121 121 121 122 122 122 120 120 120 118 118 117 120 119 118 117 116 116 129 127 124 114 111 108 27 30 32
43 47 50 57 59 62 50 53 54 50 51 52 73 73 72 82 84 84 75 79 83 61 65 69 60 64 68 76 80 83 68 70 72 21 27 31
37 43 48 89 94 100 101 100 103 105 107 111 120 120 119 255 0 255 255 0 255 255 0 255 255 0 255 255 0 255 255 0 255 255 0 255
255 0 255 255 0 255 255 0 255 255 0 255 255 0 255 255 0 255 255 0 255 255 0 255 255 0 255 255 0 255 255 0 255 255 0 255
255 0 255 255 0 255 255 0 255 255 0 255 255 0 255 255 0 255 255 0 255 255 0 255 255 0 255 255 0 255 255 0 255 255 0 255
61 62 62 40 44 46 30 35 40 21 25 29 23 26 30 50 55 61 43 47 50 44 48 53 53 57 61 37 40 42 26 30 34 25 31 37
35 44 53 74 84 92 107 111 114 124 123 123 128 126 124 123 121 120 119 119 119 119 120 120 121 120 120 122 120 120 125 123 122 118 117 117
123 121 119 109 109 111 29 33 39 42 43 44 45 46 46 21 24 27 31 33 35 89 91 92 74 79 82 59 64 68 65 70 73 67 72 75
69 72 74 61 63 65 35 38 40 25 29 32 20 25 28 66 70 75 116 118 123 127 127 129 98 98 95 255 0 255 255 0 255 255 0 255
255 0 255 255 0 255 255 0 255 255 0 255 255 0 255 255 0 255 255 0 255 255 0 255 255 0 255 255 0 255 255 0 255 255 0 255
255 0 255 255 0 255 255 0 255 255 0 255 255 0 255 255 0 255 255 0 255 255 0 255 255 0 255 255 0 255 255 0 255 255 0 255
255 0 255 255 0 255 255 0 255 255 0 255 255 0 255 255 0 255 45 46 50 29 37 43 14 19 24 39 45 52 59 63 67 41 45 49
47 51 56 46 49 51 22 24 26 41 44 48 24 29 33 15 23 30 27 39 47 49 61 70 88 97 104 117 121 123 131 130 129 127 125 123
121 119 118 110 110 110 97 102 107 126 125 125 115 115 116 40 46 53 28 32 36 51 55 58 63 65 68 62 62 64 77 79 80 71 76 80
61 66 70 70 75 78 75 79 81 59 60 60 34 37 37 26 30 35 24 27 29 26 30 35 37 43 49 24 27 30 89 93 96 115 116 115
255 0 255 255 0 255 255 0 255 255 0 255 255 0 255 255 0 255 255 0 255 255 0 255 255 0 255 255 0 255 255 0 255 255 0 255
255 0 255 255 0 255 255 0 255 255 0 255 255 0 255 255 0 255 255 0 255 255 0 255 255 0 255 255 0 255 255 0 255 255 0 255
255 0 255 255 0 255 255 0 255 255 0 255 255 0 255 255 0 255 255 0 255 255 0 255 255 0 255 255 0 255 255 0 255 255 0 255
38 45 53 25 32 40 44 49 55 48 51 55 44 47 50 51 54 57 29 29 30 18 20 22 41 45 50 49 53 58 44 49 54 26 32 37
17 24 30 23 32 40 50 58 65 89 97 104 122 124 126 116 118 119 90 97 102 115 116 116 39 44 51 21 24 27 55 59 62 55 59 62
37 40 43 65 67 67 76 78 80 68 72 75 67 71 73 56 60 62 42 45 48 28 32 37 25 30 34 21 25 28 21 24 27 41 46 52
35 40 45 53 57 60 81 82 84 255 0 255 255 0 255 255 0 255 255 0 255 255 0 255 255 0 255 255 0 255 255 0 255 255 0 255
255 0 255 255 0 255 255 0 255 255 0 255 255 0 255 255 0 255 255 0 255 255 0 255 255 0 255 255 0 255 255 0 255 255 0 255
255 0 255 255 0 255 255 0 255 255 0 255 255 0 255 255 0 255 255 0 255 255 0 255 255 0 255 255 0 255 255 0 255 255 0 255
255 0 255 255 0 255 255 0 255 255 0 255 255 0 255 50 53 57 31 37 43 22 26 31 25 28 32 37 40 43 52 55 57 47 48 50
35 37 38 26 29 32 34 37 40 39 42 46 41 45 49 34 37 40 20 24 27 11 17 23 31 38 47 65 72 79 97 100 105 47 52 58
4 7 9 37 40 43 56 59 63 56 60 63 44 46 48 56 57 60 53 55 57 46 48 50 32 35 37 28 32 36 27 33 38 22 26 30
12 14 16 20 23 26 23 25 27 23 27 31 38 42 46 53 55 55 255 0 255 255 0 255 255 0 255 255 0 255 255 0 255 255 0 255
255 0 255 255 0 255 255 0 255 255 0 255 255 0 255 255 0 255 255 0 255 255 0 255 255 0 255 255 0 255 255 0 255 255 0 255
255 0 255 255 0 255 255 0 255 255 0 255 255 0 255 255 0 255 255 0 255 255 0 255 255 0 255 255 0 255 255 0 255 255 0 255
255 0 255 255 0 255 255 0 255 255 0 255 255 0 255 255 0 255 255 0 255 255 0 255 255 0 255 255 0 255 65 67 69 43 48 52
33 38 43 23 28 33 26 30 34 38 41 44 52 53 56 47 48 50 35 37 38 27 29 29 24 26 28 34 39 43 40 44 49 35 39 42
14 16 18 9 13 16 17 23 29 24 28 31 24 26 27 12 15 16 27 30 32 21 23 25 36 39 42 29 33 38 31 35 39 33 38 42
26 29 33 12 14 15 24 27 29 35 37 39 31 35 38 22 24 26 27 32 37 41 45 49 255 0 255 255 0 255 255 0 255 255 0 255
255 0 255 255 0 255 255 0 255 255 0 255 255 0 255 255 0 255 255 0 255 255 0 255 255 0 255 255 0 255 255 0 255 255 0 255
255 0 255 255 0 255 255 0 255 255 0 255 255 0 255 255 0 255 255 0 255 255 0 255 255 0 255 255 0 255 255 0 255 255 0 255
255 0 255 255 0 255 255 0 255 255 0 255 255 0 255 255 0 255 255 0 255 255 0 255 255 0 255 255 0 255 255 0 255 255 0 255
255 0 255 255 0 255 255 0 255 255 0 255 255 0 255 50 54 59 31 34 39 27 31 36 24 28 32 26 29 32 32 35 37 43 46 48
45 47 48 46 48 51 31 34 37 26 29 32 23 24 26 10 12 13 33 37 40 43 47 51 58 61 64 27 30 33 25 33 40 19 25 29
13 16 18 29 35 39 30 34 39 25 30 34 13 16 18 18 19 20 60 62 62 43 46 47 26 31 35 33 39 43 46 49 53 255 0 255
255 0 255 255 0 255 255 0 255 255 0 255 255 0 255 255 0 255 255 0 255 255 0 255 255 0 255 255 0 255 255 0 255 255 0 255
255 0 255 255 0 255 255 0 255 255 0 255 255 0 255 255 0 255 255 0 255 255 0 255 255 0 255 255 0 255 255 0 255 255 0 255
255 0 255 255 0 255 255 0 255 255 0 255 255 0 255 255 0 255 255 0 255 255 0 255 255 0 255 255 0 255 255 0 255 255 0 255
255 0 255 255 0 255 255 0 255 255 0 255 255 0 255 255 0 255 255 0 255 255 0 255 255 0 255 255 0 255 255 0 255 255 0 255
41 45 47 36 41 45 27 32 37 23 27 32 30 33 36 35 38 41 40 42 45 42 45 48 56 57 59 18 18 18 25 28 31 44 48 52
44 47 52 45 47 49 14 19 22 22 31 36 29 43 50 25 38 46 16 19 21 17 20 22 27 30 31 66 69 69 40 43 45 17 21 24
38 45 50 59 64 67 255 0 255 255 0 255 255 0 255 255 0 255 255 0 255 255 0 255 255 0 255 255 0 255 255 0 255 255 0 255
255 0 255 255 0 255 255 0 255 255 0 255 255 0 255 255 0 255 255 0 255 255 0 255 255 0 255 255 0 255 255 0 255 255 0 255
255 0 255 255 0 255 255 0 255 255 0 255 255 0 255 255 0 255 255 0 255 255 0 255 255 0 255 255 0 255 255 0 255 255 0 255
255 0 255 255 0 255 255 0 255 255 0 255 255 0 255 255 0 255 255 0 255 255 0 255 255 0 255 255 0 255 255 0 255 255 0 255
255 0 255 255 0 255 255 0 255 255 0 255 255 0 255 255 0 255 48 50 56 38 41 45 37 43 48 24 28 33 21 25 29 30 34 38
39 42 45 37 38 40 17 19 21 35 38 42 29 32 34 31 33 35 44 45 45 47 50 51 56 59 60 58 60 62 52 52 53 47 47 46
42 44 44 38 42 45 30 35 40 36 40 44 255 0 255 255 0 255 255 0 255 255 0 255 255 0 255 255 0 255 255 0 255 255 0 255
255 0 255 255 0 255 255 0 255 255 0 255 255 0 255 255 0 255 255 0 255 255 0 255 255 0 255 255 0 255 255 0 255 255 0 255
255 0 255 255 0 255 255 0 255 255 0 255 255 0 255 255 0 255 255 0 255 255 0 255 255 0 255 255 0 255 255 0 255 255 0 255
255 0 255 255 0 255 255 0 255 255 0 255 255 0 255 255 0 255 255 0 255 255 0 255 255 0 255 255 0 255 255 0 255 255 0 255
255 0 255 255 0 255 255 0 255 255 0 255 255 0 255 255 0 255 255 0 255 255 0 255 255 0 255 255 0 255 255 0 255 255 0 255
255 0 255 38 40 43 44 49 53 29 36 41 22 26 31 28 33 39 22 27 31 14 17 21 21 26 31 17 20 24 25 30 35 32 37 41
34 42 49 36 44 50 33 37 40 27 32 36 19 23 27 34 41 48 49 56 64 255 0 255 255 0 255 255 0 255 255 0 255 255 0 255
255 0 255 255 0 255 255 0 255 255 0 255 255 0 255 255 0 255 255 0 255 255 0 255 255 0 255 255 0 255 255 0 255 255 0 255
255 0 255 255 0 255 255 0 255 255 0 255 255 0 255 255 0 255 255 0 255 255 0 255 255 0 255 255 0 255 255 0 255 255 0 255
255 0 255 255 0 255 255 0 255 255 0 255 255 0 255 255 0 255 255 0 255 255 0 255 255 0 255 255 0 255 255 0 255 255 0 255
255 0 255 255 0 255 255 0 255 255 0 255 255 0 255 255 0 255 255 0 255 255 0 255 255 0 255 255 0 255 255 0 255 255 0 255
255 0 255 255 0 255 255 0 255 255 0 255 255 0 255 255 0 255 255 0 255 255 0 255 52 55 58 64 70 75 55 60 64 53 53 54
47 51 58 46 52 57 49 55 62 45 51 58 41 46 52 42 48 53 43 47 52 49 56 62 41 47 52 255 0 255 255 0 255 255 0 255
255 0 255 255 0 255 255 0 255 255 0 255 255 0 255 255 0 255 255 0 255 255 0 255 255 0 255 255 0 255 255 0 255 255 0 255
255 0 255 255 0 255 255 0 255 255 0 255 255 0 255 255 0 255 255 0 255 255 0 255 255 0 255 255 0 255 255 0 255 255 0 255
255 0 255 255 0 255 255 0 255 255 0 255 255 0 255 255 0 255 255 0 255 255 0 255 255 0 255 255 0 255 255 0 255 255 0 255
255 0 255 255 0 255 255 0 255 255 0 255 255 0 255 255 0 255 255 0 255 255 0 255 255 0 255 255 0 255 255 0 255 255 0 255
255 0 255 255 0 255 255 0 255 255 0 255 255 0 255 255 0 255 255 0 255 255 0 255 255 0 255 255 0 255 255 0 255 255 0 255
255 0 255 255 0 255 255 0 255 255 0 255 255 0 255 255 0 255 255 0 255 255 0 255 255 0 255 255 0 255 255 0 255 255 0 255
255 0 255 255 0 255 255 0 255 255 0 255 255 0 255 255 0 255 255 0 255 255 0 255 255 0 255 255 0 255 255 0 255 255 0 255
255 0 255 255 0 255 255 0 255 255 0 255 255 0 255 255 0 255 255 0 255 255 0 255
