P3
48 28
255
255 0 255 255 0 255 255 0 255 255 0 255 255 0 255 255 0 255 255 0 255 255 0 255 255 0 255 255 0 255 255 0 255 255 0 255
255 0 255 255 0 255 255 0 255 255 0 255 255 0 255 255 0 255 255 0 255 255 0 255 255 0 255 255 0 255 255 0 255 255 0 255
255 0 255 255 0 255 255 0 255 255 0 255 255 0 255 255 0 255 255 0 255 255 0 255 255 0 255 255 0 255 255 0 255 255 0 255
255 0 255 255 0 255 255 0 255 255 0 255 255 0 255 255 0 255 255 0 255 255 0 255 255 0 255 255 0 255 255 0 255 255 0 255
255 0 255 255 0 255 255 0 255 255 0 255 255 0 255 76 76 76 87 87 87 89 89 90 105 104 105 102 102 102 255 0 255 255 0 255
255 0 255 255 0 255 255 0 255 255 0 255 255 0 255 255 0 255 255 0 255 255 0 255 255 0 255 255 0 255 255 0 255 255 0 255
255 0 255 255 0 255 255 0 255 255 0 255 255 0 255 255 0 255 255 0 255 255 0 255 255 0 255 255 0 255 255 0 255 255 0 255
255 0 255 255 0 255 255 0 255 255 0 255 255 0 255 255 0 255 255 0 255 255 0 255 255 0 255 255 0 255 255 0 255 255 0 255
255 0 255 255 0 255 255 0 255 255 0 255 80 81 81 102 102 104 99 100 102 91 92 93 118 117 118 137 137 137 82 81 82 255 0 255
255 0 255 255 0 255 255 0 255 255 0 255 255 0 255 255 0 255 255 0 255 255 0 255 255 0 255 255 0 255 255 0 255 255 0 255
255 0 255 255 0 255 255 0 255 255 0 255 255 0 255 255 0 255 255 0 255 255 0 255 255 0 255 255 0 255 255 0 255 255 0 255
255 0 255 255 0 255 255 0 255 255 0 255 255 0 255 255 0 255 255 0 255 255 0 255 255 0 255 255 0 255 255 0 255 255 0 255
255 0 255 255 0 255 255 0 255 81 81 81 102 103 105 71 72 74 78 78 78 87 86 86 86 86 85 89 89 89 103 103 104 99 99 99
255 0 255 255 0 255 255 0 255 255 0 255 255 0 255 255 0 255 255 0 255 255 0 255 255 0 255 255 0 255 255 0 255 255 0 255
255 0 255 255 0 255 255 0 255 255 0 255 255 0 255 255 0 255 255 0 255 255 0 255 255 0 255 255 0 255 255 0 255 255 0 255
255 0 255 255 0 255 255 0 255 255 0 255 255 0 255 255 0 255 255 0 255 255 0 255 255 0 255 255 0 255 255 0 255 255 0 255
255 0 255 255 0 255 255 0 255 100 101 102 64 64 66 88 88 88 127 127 127 133 132 132 179 178 176 132 132 131 78 78 79 111 111 111
75 73 75 255 0 255 255 0 255 255 0 255 255 0 255 255 0 255 255 0 255 255 0 255 255 0 255 255 0 255 255 0 255 255 0 255
255 0 255 255 0 255 255 0 255 255 0 255 255 0 255 255 0 255 255 0 255 255 0 255 255 0 255 255 0 255 255 0 255 255 0 255
255 0 255 255 0 255 255 0 255 255 0 255 255 0 255 255 0 255 255 0 255 255 0 255 255 0 255 255 0 255 255 0 255 255 0 255
255 0 255 255 0 255 84 85 85 74 75 76 82 82 81 126 125 126 119 119 119 99 99 99 170 170 169 162 162 162 126 126 125 41 41 42
142 139 135 173 170 166 120 117 114 255 0 255 255 0 255 255 0 255 255 0 255 255 0 255 255 0 255 255 0 255 255 0 255 255 0 255
255 0 255 255 0 255 255 0 255 255 0 255 255 0 255 255 0 255 255 0 255 255 0 255 255 0 255 255 0 255 255 0 255 255 0 255
255 0 255 255 0 255 255 0 255 255 0 255 255 0 255 255 0 255 255 0 255 255 0 255 255 0 255 255 0 255 255 0 255 255 0 255
255 0 255 255 0 255 79 81 82 77 77 78 121 121 122 98 99 99 29 30 31 26 28 30 32 34 36 117 117 116 131 132 132 49 48 49
126 124 119 235 230 224 212 206 200 172 168 164 135 131 127 255 0 255 255 0 255 255 0 255 255 0 255 255 0 255 255 0 255 255 0 255
255 0 255 255 0 255 255 0 255 255 0 255 255 0 255 255 0 255 255 0 255 255 0 255 255 0 255 255 0 255 255 0 255 255 0 255
255 0 255 255 0 255 255 0 255 255 0 255 255 0 255 255 0 255 255 0 255 255 0 255 255 0 255 255 0 255 255 0 255 255 0 255
255 0 255 83 83 85 77 79 80 79 80 81 110 111 111 35 37 38 37 41 45 63 67 72 46 49 52 17 18 20 106 107 107 104 103 103
77 75 72 208 203 196 211 204 197 221 215 209 224 219 213 195 190 185 150 147 142 115 111 107 255 0 255 255 0 255 255 0 255 255 0 255
255 0 255 255 0 255 255 0 255 255 0 255 255 0 255 255 0 255 255 0 255 255 0 255 255 0 255 255 0 255 255 0 255 255 0 255
255 0 255 255 0 255 255 0 255 255 0 255 255 0 255 255 0 255 255 0 255 255 0 255 255 0 255 255 0 255 255 0 255 255 0 255
255 0 255 81 81 84 67 69 71 96 97 97 72 73 73 41 43 45 72 75 79 38 41 45 54 58 61 33 36 39 77 77 78 138 136 135
28 29 30 162 158 154 236 231 226 223 219 214 218 213 208 219 213 207 227 221 215 220 215 209 171 167 161 140 136 132 255 0 255 255 0 255
255 0 255 255 0 255 255 0 255 255 0 255 255 0 255 255 0 255 255 0 255 255 0 255 255 0 255 255 0 255 255 0 255 255 0 255
255 0 255 255 0 255 255 0 255 255 0 255 255 0 255 255 0 255 255 0 255 255 0 255 255 0 255 255 0 255 255 0 255 255 0 255
255 0 255 67 69 71 57 59 62 97 99 101 55 57 58 45 49 52 49 51 53 71 72 71 55 58 59 47 52 56 47 49 52 108 108 109
28 30 32 97 95 95 241 238 234 228 225 220 228 225 220 227 224 219 225 221 217 223 218 213 224 219 212 227 221 215 208 203 198 167 163 159
140 136 133 255 0 255 255 0 255 255 0 255 255 0 255 255 0 255 255 0 255 255 0 255 255 0 255 255 0 255 255 0 255 255 0 255
255 0 255 255 0 255 255 0 255 255 0 255 255 0 255 255 0 255 255 0 255 255 0 255 255 0 255 255 0 255 255 0 255 255 0 255
255 0 255 65 69 72 51 54 57 90 92 95 44 45 47 53 56 59 38 40 41 104 104 104 67 68 69 59 61 65 38 40 43 103 102 103
51 52 53 29 31 34 182 177 173 228 223 218 239 236 233 239 236 233 234 231 226 233 230 225 234 230 226 226 222 217 224 219 213 234 230 224
227 222 217 190 185 179 153 148 143 129 123 122 255 0 255 255 0 255 255 0 255 255 0 255 255 0 255 255 0 255 255 0 255 255 0 255
255 0 255 255 0 255 255 0 255 72 73 73 101 101 101 112 112 112 120 120 119 97 97 97 255 0 255 255 0 255 255 0 255 255 0 255
255 0 255 69 71 75 50 53 56 84 87 90 44 46 48 62 65 68 50 52 53 64 64 67 49 50 52 61 63 66 39 41 43 102 102 103
57 57 59 6 10 14 108 105 103 200 193 186 193 187 182 210 204 197 223 219 214 237 234 231 245 242 239 245 242 238 235 231 227 225 221 216
223 218 213 223 217 211 229 224 218 221 217 212 182 178 173 151 146 142 255 0 255 255 0 255 255 0 255 255 0 255 255 0 255 255 0 255
255 0 255 255 0 255 82 82 82 106 107 108 84 83 84 63 64 65 121 121 120 116 116 115 93 93 93 255 0 255 255 0 255 255 0 255
255 0 255 61 64 68 39 43 46 75 78 81 55 56 57 67 68 70 87 88 89 55 56 56 63 65 66 56 58 61 52 54 55 103 104 105
50 52 55 21 23 27 74 74 75 144 143 139 105 104 102 200 190 181 191 183 176 198 191 184 208 203 196 228 223 219 237 233 230 234 231 226
235 231 227 229 225 220 223 218 213 225 220 215 223 218 212 220 214 207 208 202 195 176 171 165 148 145 141 255 0 255 255 0 255 255 0 255
255 0 255 81 82 82 99 101 102 73 74 74 86 85 85 109 108 106 129 129 126 82 82 82 120 120 120 82 82 82 255 0 255 255 0 255
255 0 255 67 71 73 52 56 59 79 80 83 76 76 76 57 59 61 75 77 80 76 78 80 66 69 72 46 49 52 68 69 70 94 95 97
32 34 37 46 47 48 28 32 36 132 129 125 196 188 180 200 192 185 194 187 180 194 187 179 191 184 176 193 185 178 201 195 188 209 203 197
222 219 214 234 231 227 235 231 227 231 227 223 223 219 213 219 215 209 221 217 211 224 218 212 223 216 209 204 199 192 171 168 165 255 0 255
255 0 255 82 84 84 80 80 81 105 105 104 136 136 137 145 144 142 206 204 200 119 119 120 76 78 78 86 87 88 255 0 255 255 0 255
255 0 255 63 65 66 49 52 56 51 55 61 93 95 97 57 58 57 40 45 48 60 65 68 51 55 58 43 44 45 105 103 103 68 70 71
24 27 29 69 70 71 44 47 50 53 54 55 138 135 132 182 176 169 210 201 192 205 197 190 199 192 185 201 194 186 199 192 184 193 186 178
188 181 173 195 189 182 206 201 195 218 213 209 228 224 219 234 230 225 230 226 221 223 218 212 215 209 203 215 208 201 231 225 219 148 147 142
255 0 255 78 80 81 86 86 87 123 123 123 65 66 67 38 40 43 64 65 66 144 143 142 82 85 86 76 79 81 77 77 79 255 0 255
255 0 255 255 0 255 43 48 54 42 46 52 67 71 77 108 107 105 52 52 51 36 40 42 51 53 53 102 101 100 90 92 94 47 50 52
33 36 38 54 56 57 78 79 78 33 36 39 9 14 17 37 40 43 109 108 106 183 178 172 212 205 197 204 198 190 194 188 180 196 190 183
197 192 186 196 190 183 193 186 179 189 182 174 195 189 182 206 199 193 216 211 206 229 225 220 233 230 225 226 222 216 229 224 218 145 141 138
64 67 68 67 68 69 101 101 102 60 60 61 17 19 22 52 54 59 17 19 23 57 56 56 101 101 102 70 72 74 90 90 93 255 0 255
255 0 255 255 0 255 54 58 63 29 33 39 52 56 61 86 89 92 108 108 107 108 108 108 108 107 107 92 93 97 60 63 66 21 24 27
46 47 50 64 66 69 38 41 44 56 58 60 61 63 66 46 50 54 17 21 25 30 32 35 89 88 87 178 173 167 208 201 194 210 202 194
211 203 194 203 196 190 197 193 188 198 194 190 198 193 187 195 189 182 193 187 180 191 184 176 202 196 190 213 208 203 234 229 224 163 158 154
45 47 48 62 65 66 91 93 95 32 34 36 51 54 57 49 52 54 50 53 57 27 28 31 102 101 102 73 74 75 79 80 81 255 0 255
255 0 255 255 0 255 255 0 255 36 41 46 26 31 35 63 67 71 72 76 81 78 82 86 79 84 88 58 62 65 28 32 34 22 25 28
47 48 51 62 65 68 45 48 49 54 54 53 44 45 45 37 41 44 31 35 40 22 27 32 6 12 18 62 64 66 181 175 168 110 116 119
151 159 163 184 184 182 204 198 193 211 203 195 207 201 193 202 197 190 198 192 185 194 188 181 185 178 171 180 172 164 177 171 165 167 163 158
53 53 54 73 75 77 86 86 88 43 47 49 53 55 58 77 77 76 48 51 53 38 41 45 87 87 88 81 82 84 69 70 72 255 0 255
255 0 255 255 0 255 255 0 255 48 52 54 41 46 53 22 26 31 33 35 38 43 45 49 44 48 52 29 32 35 22 25 28 27 29 32
33 36 40 42 43 45 139 136 133 184 180 174 163 160 153 150 146 141 117 115 111 78 80 79 45 48 50 38 39 39 54 60 63 92 133 148
120 168 184 111 151 166 118 144 156 125 140 149 159 159 161 192 183 177 189 182 175 189 181 175 191 184 177 190 183 176 182 176 168 181 174 166
47 47 47 46 49 52 74 74 76 46 48 51 41 43 46 58 60 63 56 57 59 55 58 60 82 82 83 69 70 71 52 54 56 255 0 255
255 0 255 255 0 255 255 0 255 255 0 255 48 52 56 32 38 43 22 25 30 26 30 34 30 34 37 37 40 44 18 21 24 5 9 12
58 60 60 157 152 146 162 157 152 132 127 124 153 149 144 167 162 157 181 176 171 192 187 182 175 170 164 158 153 146 144 143 142 119 135 140
121 149 159 128 161 175 122 173 191 118 166 183 102 148 165 97 115 122 197 188 180 193 185 179 189 182 176 184 176 170 175 168 161 194 186 177
86 85 84 35 39 43 83 84 86 50 52 54 69 71 73 36 37 39 58 60 61 57 59 62 84 85 87 62 64 66 52 53 56 255 0 255
255 0 255 255 0 255 255 0 255 255 0 255 255 0 255 55 60 63 46 52 56 34 39 43 22 26 30 5 7 8 14 17 19 72 71 69
143 140 137 150 145 141 152 145 139 158 153 149 150 146 142 149 144 140 150 146 141 151 145 141 157 151 146 148 144 140 148 145 143 153 147 142
140 135 132 130 132 136 119 137 148 117 136 145 101 131 142 68 86 93 127 123 119 169 165 160 183 177 169 189 181 172 186 178 170 177 171 165
123 121 118 26 30 34 95 96 97 51 52 53 67 70 73 78 79 81 58 60 63 48 49 50 95 96 98 54 57 60 66 68 71 255 0 255
255 0 255 255 0 255 255 0 255 255 0 255 255 0 255 255 0 255 255 0 255 38 40 40 30 34 39 54 55 57 105 104 104 125 124 125
96 95 98 96 95 97 123 121 120 146 141 137 155 150 145 155 150 145 154 149 144 157 152 147 161 155 150 172 166 160 154 151 147 134 132 129
136 134 132 142 140 138 144 139 136 130 125 124 121 117 116 139 135 133 87 88 90 79 81 85 82 82 84 106 104 103 141 138 134 168 165 159
150 145 140 25 28 32 73 76 80 88 86 84 40 42 44 57 60 63 43 45 47 80 81 82 77 79 81 57 59 63 63 64 68 255 0 255
255 0 255 255 0 255 255 0 255 255 0 255 255 0 255 255 0 255 255 0 255 255 0 255 55 57 57 68 70 71 74 78 83 82 86 91
98 100 103 109 111 113 103 104 106 99 99 100 121 119 118 154 149 144 164 157 152 167 163 159 158 156 153 136 133 130 126 124 121 123 124 124
123 124 124 122 121 120 113 112 111 118 118 120 120 122 124 105 106 110 108 109 112 95 96 100 98 100 105 92 95 100 85 88 92 85 87 88
100 98 96 36 37 38 33 38 43 98 100 103 102 101 99 71 69 68 95 93 93 100 102 105 44 47 50 54 57 60 255 0 255 255 0 255
255 0 255 255 0 255 255 0 255 255 0 255 255 0 255 255 0 255 255 0 255 255 0 255 255 0 255 255 0 255 255 0 255 255 0 255
255 0 255 72 74 76 82 86 91 85 87 89 95 96 99 95 95 97 103 102 101 86 91 95 72 76 81 60 66 67 255 0 255 255 0 255
255 0 255 255 0 255 255 0 255 73 77 79 60 63 67 73 75 78 85 87 89 63 64 67 79 81 86 97 100 104 102 105 109 94 98 104
105 107 111 79 79 78 20 24 29 62 67 73 82 85 90 98 98 100 88 90 95 56 59 62 53 55 58 49 51 53 255 0 255 255 0 255
255 0 255 255 0 255 255 0 255 255 0 255 255 0 255 255 0 255 255 0 255 255 0 255 255 0 255 255 0 255 255 0 255 255 0 255
255 0 255 255 0 255 255 0 255 255 0 255 255 0 255 255 0 255 255 0 255 255 0 255 255 0 255 255 0 255 255 0 255 255 0 255
255 0 255 255 0 255 255 0 255 255 0 255 255 0 255 255 0 255 255 0 255 255 0 255 255 0 255 255 0 255 255 0 255 72 74 78
96 99 103 68 71 74 28 32 37 32 35 39 37 41 45 48 55 62 42 47 52 32 35 39 50 53 58 255 0 255 255 0 255 255 0 255
255 0 255 255 0 255 255 0 255 255 0 255 255 0 255 255 0 255 255 0 255 255 0 255 255 0 255 255 0 255 255 0 255 255 0 255
255 0 255 255 0 255 255 0 255 255 0 255 255 0 255 255 0 255 255 0 255 255 0 255 255 0 255 255 0 255 255 0 255 255 0 255
255 0 255 255 0 255 255 0 255 255 0 255 255 0 255 255 0 255 255 0 255 255 0 255 255 0 255 255 0 255 255 0 255 255 0 255
255 0 255 255 0 255 40 42 44 41 45 49 34 39 43 29 33 36 27 31 35 48 52 57 55 58 60 255 0 255 255 0 255 255 0 255
255 0 255 255 0 255 255 0 255 255 0 255 255 0 255 255 0 255 255 0 255 255 0 255 255 0 255 255 0 255 255 0 255 255 0 255
255 0 255 255 0 255 255 0 255 255 0 255 255 0 255 255 0 255 255 0 255 255 0 255 255 0 255 255 0 255 255 0 255 255 0 255
255 0 255 255 0 255 255 0 255 255 0 255 255 0 255 255 0 255 255 0 255 255 0 255 255 0 255 255 0 255 255 0 255 255 0 255
255 0 255 255 0 255 255 0 255 66 68 68 53 59 63 44 49 53 39 43 46 255 0 255 255 0 255 255 0 255 255 0 255 255 0 255
255 0 255 255 0 255 255 0 255 255 0 255 255 0 255 255 0 255 255 0 255 255 0 255 255 0 255 255 0 255 255 0 255 255 0 255
255 0 255 255 0 255 255 0 255 255 0 255 255 0 255 255 0 255 255 0 255 255 0 255 255 0 255 255 0 255 255 0 255 255 0 255
255 0 255 255 0 255 255 0 255 255 0 255 255 0 255 255 0 255 255 0 255 255 0 255 255 0 255 255 0 255 255 0 255 255 0 255
255 0 255 255 0 255 255 0 255 255 0 255 255 0 255 255 0 255 255 0 255 255 0 255 255 0 255 255 0 255 255 0 255 255 0 255
