P3
76 60
255
255 0 255 255 0 255 255 0 255 255 0 255 255 0 255 255 0 255 255 0 255 255 0 255 255 0 255 255 0 255 255 0 255 255 0 255
255 0 255 255 0 255 255 0 255 255 0 255 255 0 255 255 0 255 255 0 255 255 0 255 255 0 255 255 0 255 255 0 255 255 0 255
255 0 255 255 0 255 255 0 255 255 0 255 255 0 255 255 0 255 255 0 255 255 0 255 255 0 255 255 0 255 255 0 255 255 0 255
255 0 255 255 0 255 255 0 255 255 0 255 255 0 255 255 0 255 255 0 255 255 0 255 255 0 255 255 0 255 255 0 255 255 0 255
255 0 255 255 0 255 255 0 255 255 0 255 255 0 255 255 0 255 255 0 255 255 0 255 255 0 255 255 0 255 255 0 255 255 0 255
255 0 255 255 0 255 255 0 255 255 0 255 255 0 255 255 0 255 255 0 255 255 0 255 255 0 255 255 0 255 255 0 255 255 0 255
255 0 255 255 0 255 255 0 255 255 0 255 255 0 255 255 0 255 255 0 255 255 0 255 255 0 255 255 0 255 255 0 255 255 0 255
255 0 255 255 0 255 255 0 255 255 0 255 255 0 255 255 0 255 255 0 255 255 0 255 255 0 255 255 0 255 255 0 255 255 0 255
255 0 255 255 0 255 255 0 255 255 0 255 255 0 255 255 0 255 255 0 255 255 0 255 255 0 255 255 0 255 255 0 255 255 0 255
255 0 255 255 0 255 255 0 255 255 0 255 255 0 255 255 0 255 255 0 255 255 0 255 255 0 255 255 0 255 255 0 255 255 0 255
255 0 255 255 0 255 255 0 255 255 0 255 255 0 255 255 0 255 255 0 255 255 0 255 255 0 255 255 0 255 255 0 255 255 0 255
255 0 255 255 0 255 255 0 255 255 0 255 255 0 255 255 0 255 255 0 255 255 0 255 255 0 255 255 0 255 255 0 255 255 0 255
255 0 255 255 0 255 255 0 255 255 0 255 255 0 255 255 0 255 255 0 255 255 0 255 255 0 255 255 0 255 255 0 255 255 0 255
255 0 255 255 0 255 255 0 255 255 0 255 255 0 255 255 0 255 255 0 255 255 0 255 255 0 255 255 0 255 255 0 255 255 0 255
255 0 255 255 0 255 255 0 255 255 0 255 255 0 255 255 0 255 255 0 255 255 0 255 255 0 255 255 0 255 255 0 255 255 0 255
255 0 255 255 0 255 255 0 255 255 0 255 255 0 255 255 0 255 255 0 255 255 0 255 255 0 255 255 0 255 255 0 255 255 0 255
255 0 255 255 0 255 255 0 255 255 0 255 255 0 255 255 0 255 255 0 255 255 0 255 255 0 255 255 0 255 255 0 255 255 0 255
255 0 255 255 0 255 255 0 255 255 0 255 255 0 255 255 0 255 255 0 255 255 0 255 255 0 255 255 0 255 255 0 255 255 0 255
255 0 255 255 0 255 255 0 255 255 0 255 255 0 255 255 0 255 255 0 255 255 0 255 255 0 255 255 0 255 255 0 255 255 0 255
255 0 255 255 0 255 255 0 255 255 0 255 255 0 255 255 0 255 255 0 255 255 0 255 255 0 255 255 0 255 255 0 255 255 0 255
255 0 255 255 0 255 255 0 255 255 0 255 255 0 255 255 0 255 255 0 255 255 0 255 255 0 255 255 0 255 255 0 255 255 0 255
255 0 255 255 0 255 255 0 255 255 0 255 255 0 255 255 0 255 255 0 255 255 0 255 255 0 255 255 0 255 255 0 255 255 0 255
255 0 255 255 0 255 255 0 255 255 0 255 255 0 255 255 0 255 255 0 255 255 0 255 255 0 255 255 0 255 255 0 255 255 0 255
255 0 255 255 0 255 255 0 255 255 0 255 255 0 255 255 0 255 255 0 255 255 0 255 255 0 255 255 0 255 255 0 255 255 0 255
255 0 255 255 0 255 255 0 255 255 0 255 255 0 255 255 0 255 255 0 255 255 0 255 255 0 255 255 0 255 255 0 255 255 0 255
255 0 255 255 0 255 255 0 255 255 0 255 255 0 255 255 0 255 255 0 255 255 0 255 255 0 255 255 0 255 255 0 255 255 0 255
255 0 255 255 0 255 255 0 255 255 0 255 255 0 255 255 0 255 255 0 255 255 0 255 255 0 255 255 0 255 255 0 255 255 0 255
255 0 255 255 0 255 255 0 255 255 0 255 255 0 255 255 0 255 255 0 255 255 0 255 255 0 255 255 0 255 255 0 255 255 0 255
255 0 255 255 0 255 255 0 255 255 0 255 255 0 255 255 0 255 255 0 255 255 0 255 255 0 255 255 0 255 255 0 255 255 0 255
255 0 255 255 0 255 255 0 255 255 0 255 255 0 255 255 0 255 255 0 255 255 0 255 255 0 255 255 0 255 255 0 255 255 0 255
255 0 255 255 0 255 255 0 255 255 0 255 255 0 255 255 0 255 255 0 255 255 0 255 255 0 255 255 0 255 255 0 255 255 0 255
255 0 255 255 0 255 255 0 255 255 0 255 255 0 255 255 0 255 255 0 255 255 0 255 255 0 255 255 0 255 255 0 255 255 0 255
255 0 255 255 0 255 255 0 255 255 0 255 255 0 255 255 0 255 255 0 255 255 0 255 255 0 255 255 0 255 255 0 255 255 0 255
255 0 255 255 0 255 255 0 255 255 0 255 255 0 255 255 0 255 255 0 255 255 0 255 255 0 255 255 0 255 255 0 255 66 66 66
99 100 102 97 95 97 255 0 255 255 0 255 255 0 255 255 0 255 255 0 255 255 0 255 255 0 255 255 0 255 255 0 255 255 0 255
255 0 255 255 0 255 255 0 255 255 0 255 255 0 255 255 0 255 255 0 255 255 0 255 255 0 255 255 0 255 255 0 255 255 0 255
255 0 255 255 0 255 255 0 255 255 0 255 255 0 255 255 0 255 255 0 255 255 0 255 255 0 255 255 0 255 255 0 255 255 0 255
255 0 255 255 0 255 255 0 255 255 0 255 255 0 255 255 0 255 255 0 255 255 0 255 255 0 255 255 0 255 255 0 255 255 0 255
255 0 255 255 0 255 255 0 255 255 0 255 255 0 255 255 0 255 255 0 255 255 0 255 255 0 255 255 0 255 255 0 255 255 0 255
255 0 255 255 0 255 255 0 255 255 0 255 255 0 255 255 0 255 255 0 255 255 0 255 255 0 255 255 0 255 255 0 255 255 0 255
255 0 255 255 0 255 255 0 255 31 34 36 110 112 113 105 105 105 255 0 255 255 0 255 255 0 255 255 0 255 255 0 255 255 0 255
255 0 255 255 0 255 255 0 255 255 0 255 255 0 255 255 0 255 255 0 255 255 0 255 255 0 255 255 0 255 255 0 255 255 0 255
255 0 255 255 0 255 255 0 255 255 0 255 255 0 255 255 0 255 255 0 255 255 0 255 255 0 255 255 0 255 255 0 255 255 0 255
255 0 255 255 0 255 255 0 255 255 0 255 255 0 255 255 0 255 255 0 255 255 0 255 255 0 255 255 0 255 255 0 255 255 0 255
255 0 255 255 0 255 255 0 255 255 0 255 255 0 255 255 0 255 255 0 255 255 0 255 255 0 255 255 0 255 255 0 255 255 0 255
255 0 255 255 0 255 255 0 255 255 0 255 255 0 255 255 0 255 255 0 255 255 0 255 255 0 255 255 0 255 255 0 255 255 0 255
255 0 255 255 0 255 255 0 255 255 0 255 255 0 255 255 0 255 255 0 255 32 37 41 94 97 99 110 109 109 255 0 255 255 0 255
255 0 255 255 0 255 82 83 85 97 95 95 255 0 255 255 0 255 255 0 255 255 0 255 255 0 255 255 0 255 255 0 255 255 0 255
255 0 255 255 0 255 255 0 255 255 0 255 255 0 255 255 0 255 255 0 255 255 0 255 255 0 255 255 0 255 255 0 255 255 0 255
255 0 255 255 0 255 255 0 255 255 0 255 255 0 255 255 0 255 255 0 255 255 0 255 255 0 255 255 0 255 255 0 255 255 0 255
255 0 255 255 0 255 255 0 255 255 0 255 255 0 255 255 0 255 255 0 255 255 0 255 255 0 255 255 0 255 255 0 255 255 0 255
255 0 255 255 0 255 255 0 255 255 0 255 255 0 255 255 0 255 255 0 255 255 0 255 255 0 255 255 0 255 255 0 255 255 0 255
255 0 255 255 0 255 255 0 255 255 0 255 255 0 255 255 0 255 255 0 255 255 0 255 255 0 255 255 0 255 85 85 86 30 35 39
71 72 73 127 127 125 68 68 70 255 0 255 255 0 255 51 52 54 68 72 77 125 124 124 255 0 255 255 0 255 255 0 255 255 0 255
255 0 255 255 0 255 255 0 255 255 0 255 255 0 255 255 0 255 255 0 255 255 0 255 255 0 255 255 0 255 255 0 255 255 0 255
255 0 255 255 0 255 255 0 255 255 0 255 255 0 255 255 0 255 255 0 255 255 0 255 255 0 255 255 0 255 255 0 255 255 0 255
255 0 255 255 0 255 255 0 255 255 0 255 255 0 255 255 0 255 255 0 255 255 0 255 255 0 255 255 0 255 255 0 255 255 0 255
255 0 255 255 0 255 255 0 255 255 0 255 255 0 255 255 0 255 255 0 255 255 0 255 255 0 255 255 0 255 255 0 255 255 0 255
255 0 255 255 0 255 255 0 255 255 0 255 255 0 255 255 0 255 255 0 255 255 0 255 255 0 255 255 0 255 255 0 255 255 0 255
255 0 255 255 0 255 48 49 51 22 26 30 56 58 58 131 130 130 87 87 87 255 0 255 255 0 255 44 47 50 54 59 63 121 121 121
89 89 89 255 0 255 255 0 255 255 0 255 255 0 255 255 0 255 255 0 255 255 0 255 255 0 255 255 0 255 255 0 255 255 0 255
255 0 255 255 0 255 255 0 255 255 0 255 255 0 255 255 0 255 255 0 255 255 0 255 255 0 255 255 0 255 255 0 255 255 0 255
255 0 255 255 0 255 255 0 255 255 0 255 255 0 255 255 0 255 255 0 255 255 0 255 255 0 255 255 0 255 255 0 255 255 0 255
255 0 255 255 0 255 255 0 255 255 0 255 255 0 255 255 0 255 255 0 255 255 0 255 255 0 255 255 0 255 255 0 255 255 0 255
255 0 255 255 0 255 255 0 255 255 0 255 255 0 255 255 0 255 255 0 255 255 0 255 255 0 255 255 0 255 255 0 255 255 0 255
255 0 255 255 0 255 255 0 255 255 0 255 255 0 255 255 0 255 43 45 48 25 29 33 45 47 49 133 132 132 93 94 94 255 0 255
255 0 255 64 67 70 53 58 62 111 112 112 86 86 86 255 0 255 255 0 255 255 0 255 255 0 255 255 0 255 255 0 255 255 0 255
255 0 255 255 0 255 255 0 255 255 0 255 255 0 255 255 0 255 255 0 255 255 0 255 255 0 255 255 0 255 255 0 255 255 0 255
255 0 255 255 0 255 255 0 255 255 0 255 255 0 255 255 0 255 255 0 255 255 0 255 255 0 255 255 0 255 255 0 255 255 0 255
255 0 255 255 0 255 255 0 255 255 0 255 255 0 255 255 0 255 255 0 255 255 0 255 255 0 255 255 0 255 255 0 255 255 0 255
255 0 255 255 0 255 255 0 255 255 0 255 255 0 255 255 0 255 255 0 255 255 0 255 255 0 255 255 0 255 255 0 255 255 0 255
255 0 255 255 0 255 255 0 255 255 0 255 255 0 255 255 0 255 255 0 255 255 0 255 255 0 255 255 0 255 46 49 53 30 35 40
30 33 35 118 117 118 106 106 107 255 0 255 255 0 255 65 67 71 51 56 59 88 91 93 100 100 101 255 0 255 255 0 255 255 0 255
255 0 255 255 0 255 255 0 255 255 0 255 255 0 255 255 0 255 255 0 255 255 0 255 255 0 255 255 0 255 255 0 255 255 0 255
255 0 255 255 0 255 255 0 255 255 0 255 255 0 255 255 0 255 255 0 255 255 0 255 255 0 255 255 0 255 255 0 255 255 0 255
255 0 255 255 0 255 255 0 255 255 0 255 255 0 255 255 0 255 255 0 255 255 0 255 255 0 255 255 0 255 255 0 255 255 0 255
255 0 255 255 0 255 255 0 255 255 0 255 255 0 255 255 0 255 255 0 255 255 0 255 255 0 255 255 0 255 255 0 255 255 0 255
255 0 255 255 0 255 255 0 255 255 0 255 255 0 255 255 0 255 255 0 255 255 0 255 255 0 255 255 0 255 255 0 255 255 0 255
255 0 255 255 0 255 47 51 54 27 32 35 17 19 22 101 101 102 126 127 128 97 99 99 255 0 255 58 62 65 48 53 57 73 76 78
121 120 121 255 0 255 255 0 255 255 0 255 255 0 255 255 0 255 255 0 255 255 0 255 255 0 255 255 0 255 255 0 255 255 0 255
255 0 255 255 0 255 255 0 255 255 0 255 255 0 255 255 0 255 255 0 255 255 0 255 255 0 255 255 0 255 255 0 255 255 0 255
255 0 255 255 0 255 255 0 255 255 0 255 255 0 255 255 0 255 255 0 255 255 0 255 255 0 255 255 0 255 255 0 255 255 0 255
255 0 255 255 0 255 255 0 255 255 0 255 255 0 255 255 0 255 255 0 255 255 0 255 255 0 255 255 0 255 255 0 255 255 0 255
255 0 255 255 0 255 255 0 255 255 0 255 255 0 255 255 0 255 255 0 255 255 0 255 255 0 255 255 0 255 255 0 255 255 0 255
255 0 255 255 0 255 255 0 255 255 0 255 255 0 255 255 0 255 40 45 48 30 34 38 18 21 24 97 98 99 121 122 123 88 88 89
54 56 59 50 55 60 56 60 63 65 70 73 123 123 124 75 75 76 255 0 255 255 0 255 255 0 255 255 0 255 255 0 255 255 0 255
255 0 255 255 0 255 255 0 255 255 0 255 255 0 255 255 0 255 255 0 255 255 0 255 255 0 255 255 0 255 255 0 255 255 0 255
255 0 255 255 0 255 255 0 255 255 0 255 255 0 255 255 0 255 255 0 255 255 0 255 255 0 255 255 0 255 255 0 255 255 0 255
255 0 255 255 0 255 255 0 255 255 0 255 255 0 255 255 0 255 255 0 255 255 0 255 255 0 255 255 0 255 255 0 255 255 0 255
255 0 255 255 0 255 255 0 255 255 0 255 255 0 255 255 0 255 255 0 255 255 0 255 255 0 255 255 0 255 255 0 255 255 0 255
255 0 255 255 0 255 255 0 255 255 0 255 255 0 255 255 0 255 255 0 255 255 0 255 255 0 255 67 67 70 38 42 46 31 35 39
18 22 25 69 71 72 116 117 118 91 92 93 38 40 43 52 57 62 59 63 67 62 68 71 117 118 119 85 85 85 255 0 255 255 0 255
255 0 255 255 0 255 255 0 255 255 0 255 255 0 255 255 0 255 255 0 255 255 0 255 255 0 255 255 0 255 255 0 255 255 0 255
255 0 255 255 0 255 255 0 255 255 0 255 255 0 255 255 0 255 255 0 255 255 0 255 255 0 255 255 0 255 255 0 255 255 0 255
255 0 255 255 0 255 255 0 255 255 0 255 255 0 255 255 0 255 255 0 255 255 0 255 255 0 255 255 0 255 255 0 255 255 0 255
255 0 255 255 0 255 255 0 255 255 0 255 255 0 255 255 0 255 255 0 255 255 0 255 255 0 255 255 0 255 255 0 255 255 0 255
255 0 255 255 0 255 255 0 255 255 0 255 255 0 255 255 0 255 255 0 255 255 0 255 255 0 255 255 0 255 255 0 255 255 0 255
255 0 255 70 72 74 36 40 44 31 35 39 18 22 26 52 55 56 118 119 120 107 108 109 51 53 55 46 51 56 53 57 61 54 58 61
103 104 106 97 97 99 255 0 255 255 0 255 255 0 255 255 0 255 255 0 255 255 0 255 255 0 255 255 0 255 255 0 255 255 0 255
255 0 255 255 0 255 255 0 255 255 0 255 255 0 255 255 0 255 255 0 255 255 0 255 255 0 255 255 0 255 255 0 255 255 0 255
255 0 255 255 0 255 255 0 255 255 0 255 255 0 255 255 0 255 255 0 255 255 0 255 255 0 255 255 0 255 255 0 255 255 0 255
255 0 255 255 0 255 255 0 255 255 0 255 255 0 255 255 0 255 255 0 255 255 0 255 255 0 255 255 0 255 255 0 255 255 0 255
255 0 255 255 0 255 255 0 255 255 0 255 255 0 255 255 0 255 255 0 255 255 0 255 255 0 255 255 0 255 255 0 255 255 0 255
255 0 255 255 0 255 255 0 255 255 0 255 255 0 255 56 58 60 33 38 41 33 37 41 23 27 31 40 41 44 120 121 122 115 117 118
70 71 72 41 46 50 52 56 61 47 52 56 87 88 91 108 108 110 86 86 88 255 0 255 255 0 255 255 0 255 255 0 255 255 0 255
255 0 255 255 0 255 255 0 255 255 0 255 255 0 255 255 0 255 255 0 255 255 0 255 255 0 255 255 0 255 255 0 255 255 0 255
255 0 255 255 0 255 255 0 255 255 0 255 255 0 255 255 0 255 255 0 255 255 0 255 255 0 255 255 0 255 255 0 255 255 0 255
255 0 255 255 0 255 255 0 255 255 0 255 255 0 255 255 0 255 255 0 255 255 0 255 255 0 255 255 0 255 255 0 255 255 0 255
255 0 255 255 0 255 255 0 255 255 0 255 255 0 255 255 0 255 255 0 255 255 0 255 255 0 255 255 0 255 255 0 255 255 0 255
255 0 255 255 0 255 255 0 255 255 0 255 255 0 255 255 0 255 255 0 255 255 0 255 255 0 255 51 55 57 32 37 40 35 38 43
26 30 34 31 33 36 117 117 118 111 112 114 85 85 85 34 38 41 48 52 57 41 46 50 68 71 73 105 106 108 84 85 87 255 0 255
255 0 255 255 0 255 255 0 255 255 0 255 255 0 255 255 0 255 255 0 255 255 0 255 255 0 255 255 0 255 255 0 255 255 0 255
255 0 255 255 0 255 255 0 255 255 0 255 255 0 255 255 0 255 255 0 255 255 0 255 255 0 255 255 0 255 255 0 255 255 0 255
255 0 255 255 0 255 255 0 255 255 0 255 255 0 255 255 0 255 255 0 255 255 0 255 255 0 255 255 0 255 255 0 255 255 0 255
255 0 255 255 0 255 255 0 255 255 0 255 255 0 255 255 0 255 255 0 255 255 0 255 255 0 255 255 0 255 255 0 255 255 0 255
255 0 255 255 0 255 255 0 255 255 0 255 255 0 255 255 0 255 255 0 255 255 0 255 255 0 255 255 0 255 255 0 255 255 0 255
255 0 255 59 62 66 33 37 41 35 39 44 30 34 38 15 19 22 96 96 96 108 110 110 104 104 104 47 49 50 67 69 69 59 62 63
61 64 66 72 73 76 49 53 56 255 0 255 255 0 255 255 0 255 255 0 255 255 0 255 255 0 255 255 0 255 255 0 255 255 0 255
255 0 255 255 0 255 255 0 255 255 0 255 255 0 255 255 0 255 255 0 255 255 0 255 255 0 255 255 0 255 255 0 255 255 0 255
255 0 255 255 0 255 255 0 255 255 0 255 255 0 255 255 0 255 255 0 255 255 0 255 255 0 255 255 0 255 255 0 255 255 0 255
255 0 255 255 0 255 255 0 255 255 0 255 255 0 255 255 0 255 255 0 255 255 0 255 255 0 255 255 0 255 255 0 255 255 0 255
255 0 255 255 0 255 255 0 255 255 0 255 255 0 255 255 0 255 255 0 255 255 0 255 255 0 255 255 0 255 255 0 255 255 0 255
255 0 255 255 0 255 255 0 255 255 0 255 68 70 72 54 57 60 33 38 42 36 40 44 29 33 37 10 13 16 91 92 92 101 102 103
78 79 81 129 127 124 206 200 194 193 187 182 189 184 180 164 161 158 131 128 125 120 117 114 255 0 255 255 0 255 255 0 255 255 0 255
255 0 255 255 0 255 255 0 255 255 0 255 255 0 255 255 0 255 255 0 255 255 0 255 255 0 255 255 0 255 255 0 255 255 0 255
255 0 255 255 0 255 255 0 255 255 0 255 255 0 255 255 0 255 255 0 255 255 0 255 255 0 255 255 0 255 255 0 255 255 0 255
255 0 255 255 0 255 255 0 255 255 0 255 255 0 255 255 0 255 255 0 255 255 0 255 255 0 255 255 0 255 255 0 255 255 0 255
255 0 255 255 0 255 255 0 255 255 0 255 255 0 255 255 0 255 255 0 255 255 0 255 255 0 255 255 0 255 255 0 255 255 0 255
255 0 255 255 0 255 255 0 255 255 0 255 255 0 255 255 0 255 255 0 255 255 0 255 72 72 73 52 55 58 33 37 41 35 39 44
23 27 30 7 9 12 75 76 76 100 102 103 110 111 112 100 99 99 181 176 171 221 213 206 220 212 205 225 218 211 225 218 210 224 218 212
216 212 208 171 168 165 136 133 129 255 0 255 255 0 255 255 0 255 255 0 255 255 0 255 255 0 255 255 0 255 255 0 255 255 0 255
255 0 255 255 0 255 255 0 255 255 0 255 255 0 255 255 0 255 255 0 255 255 0 255 255 0 255 255 0 255 255 0 255 255 0 255
255 0 255 255 0 255 255 0 255 255 0 255 255 0 255 255 0 255 255 0 255 255 0 255 255 0 255 255 0 255 255 0 255 255 0 255
255 0 255 255 0 255 255 0 255 255 0 255 255 0 255 255 0 255 255 0 255 255 0 255 255 0 255 255 0 255 255 0 255 255 0 255
255 0 255 255 0 255 255 0 255 255 0 255 255 0 255 255 0 255 255 0 255 255 0 255 255 0 255 255 0 255 255 0 255 255 0 255
65 66 67 42 45 48 31 35 39 37 41 45 25 30 34 18 22 26 57 60 62 113 114 115 108 108 109 65 65 66 133 131 128 166 162 157
203 198 193 233 228 222 235 231 226 223 219 214 225 220 214 227 221 215 226 220 214 195 191 186 154 151 149 255 0 255 255 0 255 255 0 255
255 0 255 255 0 255 255 0 255 255 0 255 255 0 255 255 0 255 255 0 255 255 0 255 255 0 255 255 0 255 255 0 255 255 0 255
255 0 255 255 0 255 255 0 255 255 0 255 255 0 255 255 0 255 255 0 255 255 0 255 255 0 255 255 0 255 255 0 255 255 0 255
255 0 255 255 0 255 255 0 255 255 0 255 255 0 255 255 0 255 255 0 255 255 0 255 255 0 255 255 0 255 255 0 255 255 0 255
255 0 255 255 0 255 255 0 255 255 0 255 255 0 255 255 0 255 255 0 255 255 0 255 255 0 255 255 0 255 255 0 255 255 0 255
255 0 255 255 0 255 255 0 255 255 0 255 59 62 63 62 63 65 37 41 45 33 37 40 24 23 24 26 30 34 69 73 76 58 60 62
34 37 40 86 85 85 226 220 214 198 193 188 173 170 167 177 175 173 207 205 203 241 238 233 229 225 220 228 224 219 231 226 222 234 229 224
237 232 226 204 200 195 153 149 148 255 0 255 255 0 255 255 0 255 255 0 255 255 0 255 255 0 255 255 0 255 255 0 255 255 0 255
255 0 255 255 0 255 255 0 255 255 0 255 255 0 255 255 0 255 255 0 255 255 0 255 255 0 255 255 0 255 255 0 255 255 0 255
255 0 255 255 0 255 255 0 255 255 0 255 255 0 255 255 0 255 255 0 255 255 0 255 255 0 255 255 0 255 255 0 255 255 0 255
255 0 255 255 0 255 255 0 255 255 0 255 255 0 255 255 0 255 255 0 255 255 0 255 255 0 255 255 0 255 255 0 255 255 0 255
255 0 255 255 0 255 255 0 255 255 0 255 255 0 255 255 0 255 255 0 255 255 0 255 37 39 42 68 71 74 46 48 50 24 31 35
47 92 115 25 37 44 58 62 66 63 74 86 34 39 44 137 133 127 223 216 207 226 221 215 237 233 228 223 220 216 165 162 160 173 170 167
250 247 244 242 240 238 242 240 237 235 231 227 229 224 219 230 226 220 230 224 217 196 191 186 146 143 140 255 0 255 255 0 255 255 0 255
255 0 255 255 0 255 255 0 255 255 0 255 255 0 255 255 0 255 255 0 255 255 0 255 255 0 255 255 0 255 255 0 255 255 0 255
255 0 255 255 0 255 255 0 255 255 0 255 255 0 255 255 0 255 255 0 255 255 0 255 255 0 255 255 0 255 255 0 255 255 0 255
255 0 255 255 0 255 255 0 255 255 0 255 255 0 255 255 0 255 255 0 255 255 0 255 255 0 255 255 0 255 255 0 255 255 0 255
255 0 255 255 0 255 255 0 255 255 0 255 255 0 255 255 0 255 255 0 255 255 0 255 255 0 255 255 0 255 70 70 72 72 74 77
25 28 32 55 58 61 59 60 61 20 27 30 22 58 74 24 33 38 57 60 64 43 56 66 43 46 49 192 187 180 217 211 205 217 213 207
221 216 210 222 216 210 236 232 226 165 162 160 218 214 211 248 245 243 241 239 236 241 239 236 239 236 231 233 229 223 227 222 216 232 227 221
231 227 222 180 179 177 255 0 255 255 0 255 255 0 255 255 0 255 255 0 255 255 0 255 255 0 255 255 0 255 255 0 255 255 0 255
255 0 255 255 0 255 255 0 255 255 0 255 255 0 255 255 0 255 255 0 255 255 0 255 255 0 255 255 0 255 255 0 255 255 0 255
255 0 255 255 0 255 255 0 255 255 0 255 255 0 255 255 0 255 255 0 255 255 0 255 255 0 255 255 0 255 255 0 255 255 0 255
255 0 255 255 0 255 255 0 255 255 0 255 255 0 255 255 0 255 255 0 255 255 0 255 255 0 255 255 0 255 255 0 255 255 0 255
255 0 255 76 76 76 74 76 80 49 53 58 19 21 24 35 37 39 64 66 69 6 7 7 10 7 4 41 45 47 73 76 80 33 37 41
80 80 80 218 212 205 204 196 188 210 203 195 216 210 203 220 215 209 226 221 217 225 223 221 162 159 155 238 234 228 233 230 226 237 234 231
240 238 235 242 239 236 237 233 230 230 226 221 231 226 220 239 234 228 200 197 193 255 0 255 255 0 255 255 0 255 255 0 255 255 0 255
255 0 255 255 0 255 255 0 255 255 0 255 255 0 255 255 0 255 255 0 255 255 0 255 255 0 255 255 0 255 255 0 255 255 0 255
255 0 255 255 0 255 255 0 255 255 0 255 255 0 255 255 0 255 255 0 255 255 0 255 255 0 255 255 0 255 255 0 255 255 0 255
255 0 255 255 0 255 255 0 255 255 0 255 255 0 255 255 0 255 255 0 255 255 0 255 255 0 255 255 0 255 255 0 255 255 0 255
255 0 255 255 0 255 126 128 126 152 150 147 77 76 75 67 70 73 48 52 55 52 55 59 32 36 41 25 28 32 62 65 68 74 76 78
78 82 85 45 50 53 69 72 74 30 34 37 150 147 145 203 196 189 198 190 182 206 199 191 210 203 195 214 207 201 213 207 202 226 221 213
162 159 154 183 180 177 254 250 245 245 241 236 241 237 232 235 232 228 233 231 227 239 237 234 216 210 205 205 199 192 220 213 206 171 168 166
255 0 255 255 0 255 255 0 255 255 0 255 255 0 255 255 0 255 255 0 255 255 0 255 255 0 255 255 0 255 255 0 255 255 0 255
255 0 255 255 0 255 255 0 255 255 0 255 255 0 255 255 0 255 255 0 255 255 0 255 255 0 255 255 0 255 255 0 255 255 0 255
255 0 255 255 0 255 255 0 255 255 0 255 255 0 255 255 0 255 255 0 255 255 0 255 255 0 255 255 0 255 255 0 255 255 0 255
255 0 255 255 0 255 255 0 255 255 0 255 255 0 255 156 153 151 211 207 202 183 177 171 49 48 48 44 47 51 66 68 71 73 75 78
27 32 37 22 26 30 50 53 56 58 62 66 45 49 54 38 42 45 51 54 56 33 35 38 178 174 169 147 142 136 192 185 178 205 198 191
204 198 191 207 201 193 198 191 183 179 172 164 214 209 202 119 121 122 165 171 176 204 208 208 232 231 227 247 241 235 242 235 228 238 234 228
219 213 207 197 191 183 207 202 196 225 220 214 140 139 138 255 0 255 255 0 255 255 0 255 255 0 255 255 0 255 255 0 255 255 0 255
255 0 255 255 0 255 255 0 255 255 0 255 255 0 255 255 0 255 255 0 255 255 0 255 255 0 255 255 0 255 255 0 255 255 0 255
255 0 255 255 0 255 255 0 255 255 0 255 255 0 255 255 0 255 255 0 255 255 0 255 255 0 255 255 0 255 255 0 255 255 0 255
255 0 255 255 0 255 67 67 67 84 83 82 82 83 82 93 94 94 65 65 66 38 39 39 158 154 149 219 212 205 201 194 187 173 168 163
35 36 38 67 70 74 51 54 57 86 88 90 33 36 39 9 11 15 63 66 69 54 57 61 38 40 41 52 54 56 56 56 57 3 4 5
57 57 57 192 187 181 203 196 190 196 190 184 202 195 188 206 199 190 209 200 192 204 198 190 152 149 146 38 41 43 19 27 34 34 49 59
51 81 105 107 141 164 168 187 197 214 219 218 241 240 236 213 206 199 204 198 192 212 205 198 194 189 185 255 0 255 255 0 255 255 0 255
255 0 255 255 0 255 255 0 255 255 0 255 255 0 255 255 0 255 255 0 255 255 0 255 255 0 255 255 0 255 255 0 255 255 0 255
255 0 255 255 0 255 255 0 255 255 0 255 255 0 255 255 0 255 255 0 255 255 0 255 255 0 255 255 0 255 255 0 255 255 0 255
255 0 255 255 0 255 255 0 255 255 0 255 255 0 255 255 0 255 89 90 90 87 91 95 77 82 86 86 90 93 81 83 84 34 36 40
137 133 128 211 205 197 200 195 188 216 212 205 62 61 60 54 56 58 82 85 87 122 122 125 37 39 41 20 23 26 34 36 39 76 78 80
78 82 85 64 68 72 100 100 102 87 87 88 24 25 27 84 86 87 199 193 187 192 184 177 212 205 198 180 174 167 157 153 147 142 140 136
56 56 55 22 28 32 42 47 51 8 58 82 81 157 178 79 148 173 37 122 157 42 110 144 90 117 135 146 152 156 191 189 185 205 200 193
209 203 197 122 121 120 255 0 255 255 0 255 255 0 255 255 0 255 255 0 255 255 0 255 255 0 255 255 0 255 255 0 255 255 0 255
255 0 255 255 0 255 255 0 255 255 0 255 255 0 255 255 0 255 255 0 255 255 0 255 255 0 255 255 0 255 255 0 255 255 0 255
255 0 255 255 0 255 255 0 255 255 0 255 255 0 255 255 0 255 255 0 255 255 0 255 255 0 255 255 0 255 87 88 89 82 85 89
66 71 75 72 75 78 55 56 58 31 34 39 113 111 109 223 218 210 209 205 199 231 226 220 90 87 84 68 71 73 82 83 85 69 72 75
36 39 41 27 29 32 45 48 50 86 89 91 34 38 41 43 43 44 33 35 36 99 101 102 99 99 100 12 15 17 118 115 112 147 141 135
112 111 107 150 149 147 181 179 177 214 210 207 200 197 193 85 85 86 43 51 58 67 90 105 87 161 191 213 255 255 232 255 255 156 225 231
20 74 101 6 13 21 52 59 63 60 64 66 60 64 66 82 84 84 255 0 255 255 0 255 255 0 255 255 0 255 255 0 255 255 0 255
255 0 255 255 0 255 255 0 255 255 0 255 255 0 255 255 0 255 255 0 255 255 0 255 255 0 255 255 0 255 255 0 255 255 0 255
255 0 255 255 0 255 255 0 255 255 0 255 255 0 255 255 0 255 255 0 255 255 0 255 255 0 255 255 0 255 255 0 255 255 0 255
255 0 255 255 0 255 91 92 93 88 91 95 81 85 88 91 94 96 65 66 67 33 38 41 80 80 79 232 227 219 217 212 207 240 236 231
149 145 141 43 45 48 38 40 43 63 66 69 34 36 38 23 25 28 64 66 69 28 30 32 41 41 41 59 65 73 80 85 88 31 33 33
105 107 108 43 46 49 28 28 29 160 156 152 204 200 194 227 221 215 228 223 216 222 216 210 229 224 217 232 227 220 136 137 138 65 71 77
50 72 88 60 122 152 122 192 213 111 199 220 47 98 120 29 34 40 30 36 39 54 60 64 30 36 40 37 40 41 255 0 255 255 0 255
255 0 255 255 0 255 255 0 255 255 0 255 255 0 255 255 0 255 255 0 255 255 0 255 255 0 255 255 0 255 255 0 255 255 0 255
255 0 255 255 0 255 255 0 255 255 0 255 255 0 255 255 0 255 255 0 255 255 0 255 255 0 255 255 0 255 255 0 255 255 0 255
255 0 255 255 0 255 255 0 255 255 0 255 255 0 255 255 0 255 106 106 106 105 107 109 102 104 106 119 120 121 77 77 78 47 50 52
51 52 53 225 220 214 233 230 225 252 250 247 206 204 200 66 68 69 71 74 75 55 58 60 26 28 30 27 29 32 61 65 68 41 40 40
40 62 72 77 177 197 70 126 149 46 44 48 68 71 73 53 56 58 42 44 45 197 191 183 203 195 189 217 212 207 218 214 209 219 214 209
214 208 202 224 219 214 251 246 241 198 197 195 114 117 118 63 77 84 31 65 88 12 44 69 31 41 51 34 43 49 24 27 29 93 94 94
109 110 108 140 138 134 145 143 140 255 0 255 255 0 255 255 0 255 255 0 255 255 0 255 255 0 255 255 0 255 255 0 255 255 0 255
255 0 255 255 0 255 255 0 255 255 0 255 255 0 255 255 0 255 255 0 255 255 0 255 255 0 255 255 0 255 255 0 255 255 0 255
255 0 255 255 0 255 255 0 255 255 0 255 255 0 255 255 0 255 255 0 255 255 0 255 255 0 255 255 0 255 131 130 130 156 155 155
144 143 142 135 134 133 97 96 95 86 87 88 44 47 50 223 221 218 247 245 241 241 239 236 231 227 221 73 72 70 84 86 87 46 48 51
27 31 34 28 31 34 59 63 66 41 40 41 52 71 82 70 175 201 59 120 146 43 42 45 56 61 63 35 38 41 36 37 36 189 184 177
188 181 174 199 192 186 212 207 200 219 213 208 220 216 210 217 211 206 215 211 205 214 208 203 228 223 217 220 217 214 193 190 185 141 139 135
126 128 127 123 125 124 158 156 154 224 220 215 241 236 230 230 224 217 230 225 220 190 187 182 134 131 128 255 0 255 255 0 255 255 0 255
255 0 255 255 0 255 255 0 255 255 0 255 255 0 255 255 0 255 255 0 255 255 0 255 255 0 255 255 0 255 255 0 255 255 0 255
255 0 255 255 0 255 255 0 255 255 0 255 255 0 255 255 0 255 255 0 255 255 0 255 255 0 255 255 0 255 255 0 255 255 0 255
255 0 255 255 0 255 98 99 100 95 97 101 87 90 93 90 91 93 67 68 68 70 75 80 33 36 40 191 189 187 254 252 249 216 212 207
221 214 207 115 111 107 13 17 19 34 38 41 39 42 44 12 14 16 44 46 49 58 58 59 55 57 59 53 66 79 47 54 62 39 40 40
57 61 63 16 20 24 74 73 71 198 192 185 181 175 168 185 178 172 188 180 173 200 193 185 209 203 196 199 192 184 197 190 183 168 161 155
169 163 156 199 193 186 217 211 204 225 219 213 228 223 217 231 226 222 230 226 220 237 234 229 232 229 224 230 226 221 229 224 219 233 229 223
232 228 223 184 182 180 132 130 129 255 0 255 255 0 255 255 0 255 255 0 255 255 0 255 255 0 255 255 0 255 255 0 255 255 0 255
255 0 255 255 0 255 255 0 255 255 0 255 255 0 255 255 0 255 255 0 255 255 0 255 255 0 255 255 0 255 255 0 255 255 0 255
255 0 255 255 0 255 255 0 255 255 0 255 255 0 255 255 0 255 97 97 99 90 92 95 81 82 85 90 91 93 70 71 72 72 76 80
31 35 39 145 142 139 177 173 169 206 199 192 214 207 201 175 170 167 35 38 40 80 82 84 35 37 38 16 18 19 24 28 32 62 65 67
63 66 67 45 45 45 44 44 43 55 57 58 37 41 44 14 17 20 156 151 146 203 196 188 183 176 170 185 177 170 184 177 170 186 178 171
189 182 175 203 196 189 186 180 173 174 168 161 179 173 166 182 175 167 186 178 170 182 175 167 187 179 172 195 188 180 190 182 175 208 202 195
227 224 219 237 234 230 240 237 233 233 230 225 229 225 220 233 228 223 224 220 216 174 172 167 124 123 121 255 0 255 255 0 255 255 0 255
255 0 255 255 0 255 255 0 255 255 0 255 255 0 255 255 0 255 255 0 255 255 0 255 255 0 255 255 0 255 255 0 255 255 0 255
255 0 255 255 0 255 255 0 255 255 0 255 255 0 255 255 0 255 255 0 255 255 0 255 255 0 255 255 0 255 83 85 87 76 79 82
73 77 79 78 81 83 63 64 67 67 71 75 19 24 28 122 118 114 203 195 189 202 195 188 200 194 186 217 211 204 67 66 66 19 22 25
45 46 47 20 22 24 17 19 21 23 27 30 44 47 50 50 54 57 44 48 52 34 37 42 6 11 15 79 77 74 196 187 178 147 141 135
182 174 167 185 177 170 184 177 170 184 176 169 186 178 171 198 192 186 177 171 165 176 170 163 178 172 165 181 175 168 192 184 177 191 184 177
199 193 186 210 203 197 198 191 183 200 193 186 200 194 187 208 202 197 222 218 213 233 230 226 237 234 231 231 227 223 227 223 217 230 225 219
220 215 209 181 179 175 255 0 255 255 0 255 255 0 255 255 0 255 255 0 255 255 0 255 255 0 255 255 0 255 255 0 255 255 0 255
255 0 255 255 0 255 255 0 255 255 0 255 255 0 255 255 0 255 255 0 255 255 0 255 255 0 255 255 0 255 255 0 255 255 0 255
255 0 255 255 0 255 72 74 76 79 82 85 77 81 83 75 76 78 46 47 49 52 55 59 19 23 26 125 121 117 219 211 204 200 194 187
197 190 183 216 209 201 126 120 116 19 22 24 55 57 58 39 41 42 18 21 25 15 18 20 15 18 21 8 13 16 12 16 20 17 21 24
34 37 38 39 40 42 156 152 148 102 100 98 145 139 133 187 179 171 181 175 168 183 176 169 185 177 168 181 173 166 172 166 160 175 169 163
178 171 165 178 172 165 186 179 172 188 180 174 201 193 187 208 201 195 197 190 183 202 196 190 204 198 193 204 198 191 202 196 188 207 200 193
222 217 212 233 230 225 237 234 230 232 227 222 231 224 217 172 170 166 113 114 114 61 61 62 255 0 255 255 0 255 255 0 255 255 0 255
255 0 255 255 0 255 255 0 255 255 0 255 255 0 255 255 0 255 255 0 255 255 0 255 255 0 255 255 0 255 255 0 255 255 0 255
255 0 255 255 0 255 255 0 255 255 0 255 255 0 255 255 0 255 76 77 79 80 82 86 69 72 74 60 61 65 38 39 41 41 45 49
25 29 33 132 129 126 206 201 196 191 184 178 192 184 177 197 190 182 199 193 186 44 46 48 42 46 49 37 40 41 21 24 27 19 24 27
32 35 38 55 57 59 57 60 62 69 70 72 74 76 78 27 31 35 33 36 39 172 167 163 192 184 175 184 176 168 181 174 167 181 175 169
177 172 167 173 167 161 188 180 172 188 180 172 180 172 165 175 168 162 181 174 168 191 184 177 208 200 194 203 196 190 196 189 182 198 191 184
200 193 187 206 199 193 211 206 199 212 207 201 216 211 204 228 223 217 213 206 199 235 231 227 149 149 147 83 85 86 96 98 98 97 98 98
84 85 85 86 87 89 255 0 255 255 0 255 255 0 255 255 0 255 255 0 255 255 0 255 255 0 255 255 0 255 255 0 255 255 0 255
255 0 255 255 0 255 255 0 255 255 0 255 255 0 255 255 0 255 255 0 255 255 0 255 255 0 255 255 0 255 60 62 66 59 64 70
52 57 61 56 58 61 43 45 47 42 46 49 18 21 26 123 122 121 205 196 188 191 183 175 192 185 179 189 182 175 217 211 204 118 115 113
23 28 31 35 37 41 53 54 56 16 19 22 15 18 20 75 77 79 76 80 84 65 68 71 51 55 58 62 64 68 32 36 40 44 46 49
105 105 106 83 85 87 65 68 71 51 55 59 47 52 57 47 51 55 81 82 83 125 124 125 174 168 164 195 187 180 181 174 167 191 184 176
202 195 188 189 181 174 191 184 177 194 187 180 197 190 183 201 194 187 206 199 192 209 203 196 220 214 207 236 233 229 198 191 184 199 191 183
82 82 80 47 50 53 83 84 85 92 93 93 60 65 69 62 65 68 255 0 255 255 0 255 255 0 255 255 0 255 255 0 255 255 0 255
255 0 255 255 0 255 255 0 255 255 0 255 255 0 255 255 0 255 255 0 255 255 0 255 255 0 255 255 0 255 255 0 255 255 0 255
255 0 255 255 0 255 49 52 55 56 60 66 57 62 66 61 64 67 39 41 43 40 44 47 12 16 21 125 122 119 142 155 161 153 156 156
200 192 184 187 181 175 191 184 177 187 181 176 38 39 40 57 60 61 62 64 67 28 31 34 12 16 19 40 44 48 68 70 72 51 55 59
76 78 79 76 78 80 72 74 77 43 46 48 27 31 34 30 34 37 5 7 7 12 15 17 22 26 30 28 33 38 18 23 27 15 20 25
41 45 48 95 97 98 160 156 151 197 188 181 192 185 179 187 180 174 188 181 174 189 182 175 193 186 179 194 187 180 196 188 181 201 193 185
208 200 192 211 204 197 191 184 177 199 193 187 156 152 148 21 26 28 19 22 25 14 16 20 27 33 38 47 50 52 255 0 255 255 0 255
255 0 255 255 0 255 255 0 255 255 0 255 255 0 255 255 0 255 255 0 255 255 0 255 255 0 255 255 0 255 255 0 255 255 0 255
255 0 255 255 0 255 255 0 255 255 0 255 255 0 255 255 0 255 36 40 44 35 40 46 36 42 46 46 50 54 31 34 37 30 34 38
9 15 19 125 118 117 93 151 173 95 152 175 192 181 174 188 182 176 180 174 168 216 210 203 128 125 122 20 22 25 31 33 36 62 64 65
20 23 25 7 10 14 54 57 60 69 72 75 57 61 65 60 63 67 61 64 67 68 71 74 62 64 68 73 75 78 64 65 67 7 9 11
21 24 27 61 68 76 69 75 81 51 55 59 24 27 29 6 9 12 33 37 41 148 146 144 203 196 189 184 178 172 188 180 174 187 180 173
188 181 174 190 183 176 191 184 177 193 186 179 196 189 181 193 185 177 186 179 172 186 179 172 175 170 165 71 69 66 20 24 26 33 38 44
38 41 43 255 0 255 255 0 255 255 0 255 255 0 255 255 0 255 255 0 255 255 0 255 255 0 255 255 0 255 255 0 255 255 0 255
255 0 255 255 0 255 255 0 255 255 0 255 255 0 255 255 0 255 255 0 255 255 0 255 255 0 255 255 0 255 41 45 50 30 36 43
27 33 38 29 32 36 21 23 26 29 34 38 10 15 20 141 134 133 151 185 191 78 170 195 153 164 169 190 180 170 197 190 184 166 163 159
127 124 123 28 29 29 45 48 50 76 78 81 41 42 44 6 7 9 14 17 20 50 52 55 63 67 70 72 75 78 68 72 75 62 65 69
56 60 64 59 61 64 68 71 74 64 66 66 42 44 44 37 38 39 32 34 36 33 37 40 40 43 47 38 41 44 20 23 27 31 35 41
159 156 153 192 184 177 176 168 162 184 176 170 187 180 173 191 184 177 195 188 181 188 181 174 190 182 175 189 182 175 188 180 173 184 177 169
119 120 121 125 124 123 34 37 39 31 37 41 255 0 255 255 0 255 255 0 255 255 0 255 255 0 255 255 0 255 255 0 255 255 0 255
255 0 255 255 0 255 255 0 255 255 0 255 255 0 255 255 0 255 255 0 255 255 0 255 255 0 255 255 0 255 255 0 255 255 0 255
255 0 255 255 0 255 31 34 37 20 23 26 22 25 28 25 28 29 18 20 22 25 29 33 9 12 15 76 76 77 178 180 176 79 175 196
117 163 182 205 191 182 154 154 153 103 105 105 195 190 186 153 151 147 46 48 50 42 46 50 26 28 31 31 33 34 13 14 16 9 11 14
24 26 29 38 41 43 51 53 56 64 66 68 60 63 66 61 63 65 46 50 52 61 64 66 74 77 80 63 65 67 58 60 61 54 55 57
50 50 51 47 48 49 37 40 43 10 13 15 32 33 35 172 167 162 180 172 165 194 187 179 192 184 178 176 169 162 167 161 155 193 186 179
188 181 174 183 177 170 190 182 173 144 141 137 112 113 115 128 128 128 107 105 103 78 76 75 255 0 255 255 0 255 255 0 255 255 0 255
255 0 255 255 0 255 255 0 255 255 0 255 255 0 255 255 0 255 255 0 255 255 0 255 255 0 255 255 0 255 255 0 255 255 0 255
255 0 255 255 0 255 255 0 255 255 0 255 255 0 255 255 0 255 33 37 40 22 25 29 24 27 29 25 29 32 13 14 16 15 16 17
12 15 17 15 22 28 161 150 145 141 187 198 82 173 201 128 142 147 112 113 114 180 175 169 166 161 155 204 199 193 103 99 94 6 9 12
27 31 34 46 49 52 30 34 37 18 22 25 15 17 19 9 11 13 10 13 16 15 19 23 22 26 30 29 33 38 31 34 38 29 32 35
34 39 42 35 39 42 40 44 47 51 55 60 62 65 69 67 70 73 65 66 68 62 63 63 30 32 34 37 40 44 96 98 102 149 146 143
186 178 170 195 189 182 132 130 126 174 167 160 184 178 171 195 187 180 162 157 151 103 103 104 118 117 116 122 121 119 103 101 101 255 0 255
255 0 255 255 0 255 255 0 255 255 0 255 255 0 255 255 0 255 255 0 255 255 0 255 255 0 255 255 0 255 255 0 255 255 0 255
255 0 255 255 0 255 255 0 255 255 0 255 255 0 255 255 0 255 255 0 255 255 0 255 255 0 255 255 0 255 48 51 55 30 36 42
26 30 34 27 30 35 21 27 33 13 23 31 36 39 41 38 44 50 68 69 71 178 178 175 59 112 131 95 118 127 186 179 174 172 169 165
171 168 164 173 168 162 192 187 180 68 67 65 22 27 31 33 36 40 23 28 32 32 37 42 23 28 32 15 16 18 11 14 16 15 19 22
22 27 33 24 32 39 26 33 40 18 23 28 15 21 25 19 26 31 20 26 31 23 27 32 30 36 41 39 45 51 35 39 45 35 38 43
45 48 53 43 46 50 28 32 36 24 28 33 49 52 54 109 110 109 154 151 149 180 173 165 200 192 182 175 170 164 123 122 123 130 130 131
115 116 115 89 90 92 255 0 255 255 0 255 255 0 255 255 0 255 255 0 255 255 0 255 255 0 255 255 0 255 255 0 255 255 0 255
255 0 255 255 0 255 255 0 255 255 0 255 255 0 255 255 0 255 255 0 255 255 0 255 255 0 255 255 0 255 255 0 255 255 0 255
255 0 255 255 0 255 56 61 65 28 38 48 27 34 42 30 38 47 25 33 39 41 48 54 32 36 40 33 38 45 26 31 36 88 92 94
154 148 144 191 186 182 177 175 172 174 172 168 174 171 166 165 159 153 174 169 163 192 187 182 52 53 53 10 14 19 27 31 35 23 25 27
24 26 28 30 38 47 42 57 69 35 40 44 255 0 255 255 0 255 255 0 255 255 0 255 255 0 255 255 0 255 255 0 255 255 0 255
255 0 255 255 0 255 56 60 61 42 45 46 37 42 45 38 43 48 42 47 52 36 40 45 29 35 42 19 25 32 22 27 33 51 53 55
100 100 100 75 79 85 69 73 76 61 64 66 63 66 68 255 0 255 255 0 255 255 0 255 255 0 255 255 0 255 255 0 255 255 0 255
255 0 255 255 0 255 255 0 255 255 0 255 255 0 255 255 0 255 255 0 255 255 0 255 255 0 255 255 0 255 255 0 255 255 0 255
255 0 255 255 0 255 255 0 255 255 0 255 255 0 255 255 0 255 255 0 255 255 0 255 255 0 255 255 0 255 255 0 255 255 0 255
39 44 46 33 40 48 13 20 28 97 96 96 182 177 170 161 156 151 172 167 162 173 168 162 171 164 159 170 164 159 161 155 151 185 180 176
152 149 146 65 63 63 20 22 23 10 14 16 17 29 39 38 53 64 255 0 255 255 0 255 255 0 255 255 0 255 255 0 255 255 0 255
255 0 255 255 0 255 255 0 255 255 0 255 255 0 255 255 0 255 255 0 255 255 0 255 255 0 255 255 0 255 255 0 255 57 59 61
37 41 44 46 52 56 35 41 46 23 30 35 22 29 36 28 35 40 36 41 46 255 0 255 255 0 255 255 0 255 255 0 255 255 0 255
255 0 255 255 0 255 255 0 255 255 0 255 255 0 255 255 0 255 255 0 255 255 0 255 255 0 255 255 0 255 255 0 255 255 0 255
255 0 255 255 0 255 255 0 255 255 0 255 255 0 255 255 0 255 255 0 255 255 0 255 255 0 255 255 0 255 255 0 255 255 0 255
255 0 255 255 0 255 255 0 255 255 0 255 255 0 255 255 0 255 29 34 36 62 62 61 166 158 151 150 145 140 170 163 157 169 162 156
168 161 156 164 158 152 160 155 150 157 151 145 98 98 98 135 134 132 144 141 136 88 88 86 85 86 86 119 117 113 255 0 255 255 0 255
255 0 255 255 0 255 255 0 255 255 0 255 255 0 255 255 0 255 255 0 255 255 0 255 255 0 255 255 0 255 255 0 255 255 0 255
255 0 255 255 0 255 255 0 255 255 0 255 255 0 255 255 0 255 255 0 255 255 0 255 255 0 255 255 0 255 255 0 255 255 0 255
255 0 255 255 0 255 255 0 255 255 0 255 255 0 255 255 0 255 255 0 255 255 0 255 255 0 255 255 0 255 255 0 255 255 0 255
255 0 255 255 0 255 255 0 255 255 0 255 255 0 255 255 0 255 255 0 255 255 0 255 255 0 255 255 0 255 255 0 255 255 0 255
255 0 255 255 0 255 255 0 255 255 0 255 255 0 255 255 0 255 255 0 255 255 0 255 255 0 255 255 0 255 255 0 255 81 82 84
156 151 146 148 144 139 165 159 153 164 158 153 164 159 153 163 158 153 173 167 160 118 117 117 87 90 93 96 99 101 108 110 112 122 124 128
140 139 139 94 96 96 255 0 255 255 0 255 255 0 255 255 0 255 255 0 255 255 0 255 255 0 255 255 0 255 255 0 255 255 0 255
255 0 255 255 0 255 255 0 255 255 0 255 255 0 255 255 0 255 255 0 255 255 0 255 255 0 255 255 0 255 255 0 255 255 0 255
255 0 255 255 0 255 255 0 255 255 0 255 255 0 255 255 0 255 255 0 255 255 0 255 255 0 255 255 0 255 255 0 255 255 0 255
255 0 255 255 0 255 255 0 255 255 0 255 255 0 255 255 0 255 255 0 255 255 0 255 255 0 255 255 0 255 255 0 255 255 0 255
255 0 255 255 0 255 255 0 255 255 0 255 255 0 255 255 0 255 255 0 255 255 0 255 255 0 255 255 0 255 255 0 255 255 0 255
255 0 255 255 0 255 255 0 255 255 0 255 85 86 89 161 154 149 173 167 160 166 160 155 164 158 153 176 170 163 130 127 126 84 87 92
95 98 102 95 95 97 91 98 107 118 124 131 87 87 87 255 0 255 255 0 255 255 0 255 255 0 255 255 0 255 255 0 255 255 0 255
255 0 255 255 0 255 255 0 255 255 0 255 255 0 255 255 0 255 255 0 255 255 0 255 255 0 255 255 0 255 255 0 255 255 0 255
255 0 255 255 0 255 255 0 255 255 0 255 255 0 255 255 0 255 255 0 255 255 0 255 255 0 255 255 0 255 255 0 255 255 0 255
255 0 255 255 0 255 255 0 255 255 0 255 255 0 255 255 0 255 255 0 255 255 0 255 255 0 255 255 0 255 255 0 255 255 0 255
255 0 255 255 0 255 255 0 255 255 0 255 255 0 255 255 0 255 255 0 255 255 0 255 255 0 255 255 0 255 255 0 255 255 0 255
255 0 255 255 0 255 255 0 255 255 0 255 255 0 255 255 0 255 255 0 255 255 0 255 255 0 255 81 82 88 160 156 153 131 125 121
145 139 134 127 125 122 81 84 88 97 100 103 95 97 99 91 99 107 124 138 148 115 111 110 255 0 255 255 0 255 255 0 255 255 0 255
255 0 255 255 0 255 255 0 255 255 0 255 255 0 255 255 0 255 255 0 255 255 0 255 255 0 255 255 0 255 255 0 255 255 0 255
255 0 255 255 0 255 255 0 255 255 0 255 255 0 255 255 0 255 255 0 255 255 0 255 255 0 255 255 0 255 255 0 255 255 0 255
255 0 255 255 0 255 255 0 255 255 0 255 255 0 255 255 0 255 255 0 255 255 0 255 255 0 255 255 0 255 255 0 255 255 0 255
255 0 255 255 0 255 255 0 255 255 0 255 255 0 255 255 0 255 255 0 255 255 0 255 255 0 255 255 0 255 255 0 255 255 0 255
255 0 255 255 0 255 255 0 255 255 0 255 255 0 255 255 0 255 255 0 255 255 0 255 255 0 255 255 0 255 255 0 255 255 0 255
255 0 255 255 0 255 74 74 77 125 120 119 123 122 120 82 85 90 101 103 107 95 99 101 89 95 101 112 124 132 109 108 107 255 0 255
255 0 255 255 0 255 255 0 255 255 0 255 255 0 255 255 0 255 255 0 255 255 0 255 255 0 255 255 0 255 255 0 255 255 0 255
255 0 255 255 0 255 255 0 255 255 0 255 255 0 255 255 0 255 255 0 255 255 0 255 255 0 255 255 0 255 255 0 255 255 0 255
255 0 255 255 0 255 255 0 255 255 0 255 255 0 255 255 0 255 255 0 255 255 0 255 255 0 255 255 0 255 255 0 255 255 0 255
255 0 255 255 0 255 255 0 255 255 0 255 255 0 255 255 0 255 255 0 255 255 0 255 255 0 255 255 0 255 255 0 255 255 0 255
255 0 255 255 0 255 255 0 255 255 0 255 255 0 255 255 0 255 255 0 255 255 0 255 255 0 255 255 0 255 255 0 255 255 0 255
255 0 255 255 0 255 255 0 255 255 0 255 255 0 255 255 0 255 255 0 255 255 0 255 81 85 88 107 110 115 106 109 113 99 103 109
116 123 129 111 110 109 255 0 255 255 0 255 255 0 255 255 0 255 255 0 255 255 0 255 255 0 255 255 0 255 255 0 255 255 0 255
255 0 255 255 0 255 255 0 255 255 0 255 255 0 255 255 0 255 255 0 255 255 0 255 255 0 255 255 0 255 255 0 255 255 0 255
255 0 255 255 0 255 255 0 255 255 0 255 255 0 255 255 0 255 255 0 255 255 0 255 255 0 255 255 0 255 255 0 255 255 0 255
255 0 255 255 0 255 255 0 255 255 0 255 255 0 255 255 0 255 255 0 255 255 0 255 255 0 255 255 0 255 255 0 255 255 0 255
255 0 255 255 0 255 255 0 255 255 0 255 255 0 255 255 0 255 255 0 255 255 0 255 255 0 255 255 0 255 255 0 255 255 0 255
255 0 255 255 0 255 255 0 255 255 0 255 255 0 255 255 0 255 255 0 255 255 0 255 255 0 255 255 0 255 255 0 255 255 0 255
255 0 255 79 81 83 83 86 88 82 83 87 102 103 104 255 0 255 255 0 255 255 0 255 255 0 255 255 0 255 255 0 255 255 0 255
255 0 255 255 0 255 255 0 255 255 0 255 255 0 255 255 0 255 255 0 255 255 0 255 255 0 255 255 0 255 255 0 255 255 0 255
255 0 255 255 0 255 255 0 255 255 0 255 255 0 255 255 0 255 255 0 255 255 0 255 255 0 255 255 0 255 255 0 255 255 0 255
255 0 255 255 0 255 255 0 255 255 0 255 255 0 255 255 0 255 255 0 255 255 0 255 255 0 255 255 0 255 255 0 255 255 0 255
255 0 255 255 0 255 255 0 255 255 0 255 255 0 255 255 0 255 255 0 255 255 0 255 255 0 255 255 0 255 255 0 255 255 0 255
255 0 255 255 0 255 255 0 255 255 0 255 255 0 255 255 0 255 255 0 255 255 0 255 255 0 255 255 0 255 255 0 255 255 0 255
255 0 255 255 0 255 255 0 255 255 0 255 255 0 255 255 0 255 255 0 255 255 0 255 255 0 255 255 0 255 255 0 255 255 0 255
255 0 255 255 0 255 255 0 255 255 0 255 255 0 255 255 0 255 255 0 255 255 0 255 255 0 255 255 0 255 255 0 255 255 0 255
255 0 255 255 0 255 255 0 255 255 0 255 255 0 255 255 0 255 255 0 255 255 0 255 255 0 255 255 0 255 255 0 255 255 0 255
255 0 255 255 0 255 255 0 255 255 0 255 255 0 255 255 0 255 255 0 255 255 0 255 255 0 255 255 0 255 255 0 255 255 0 255
255 0 255 255 0 255 255 0 255 255 0 255 255 0 255 255 0 255 255 0 255 255 0 255 255 0 255 255 0 255 255 0 255 255 0 255
255 0 255 255 0 255 255 0 255 255 0 255 255 0 255 255 0 255 255 0 255 255 0 255 255 0 255 255 0 255 255 0 255 255 0 255
255 0 255 255 0 255 255 0 255 255 0 255 255 0 255 255 0 255 255 0 255 255 0 255 255 0 255 255 0 255 255 0 255 255 0 255
255 0 255 255 0 255 255 0 255 255 0 255 255 0 255 255 0 255 255 0 255 255 0 255 255 0 255 255 0 255 255 0 255 255 0 255
255 0 255 255 0 255 255 0 255 255 0 255 255 0 255 255 0 255 255 0 255 255 0 255 255 0 255 255 0 255 255 0 255 255 0 255
255 0 255 255 0 255 255 0 255 255 0 255 255 0 255 255 0 255 255 0 255 255 0 255 255 0 255 255 0 255 255 0 255 255 0 255
255 0 255 255 0 255 255 0 255 255 0 255 255 0 255 255 0 255 255 0 255 255 0 255 255 0 255 255 0 255 255 0 255 255 0 255
255 0 255 255 0 255 255 0 255 255 0 255 255 0 255 255 0 255 255 0 255 255 0 255 255 0 255 255 0 255 255 0 255 255 0 255
255 0 255 255 0 255 255 0 255 255 0 255 255 0 255 255 0 255 255 0 255 255 0 255 255 0 255 255 0 255 255 0 255 255 0 255
255 0 255 255 0 255 255 0 255 255 0 255 255 0 255 255 0 255 255 0 255 255 0 255 255 0 255 255 0 255 255 0 255 255 0 255
255 0 255 255 0 255 255 0 255 255 0 255 255 0 255 255 0 255 255 0 255 255 0 255 255 0 255 255 0 255 255 0 255 255 0 255
255 0 255 255 0 255 255 0 255 255 0 255 255 0 255 255 0 255 255 0 255 255 0 255 255 0 255 255 0 255 255 0 255 255 0 255
255 0 255 255 0 255 255 0 255 255 0 255 255 0 255 255 0 255 255 0 255 255 0 255 255 0 255 255 0 255 255 0 255 255 0 255
255 0 255 255 0 255 255 0 255 255 0 255 255 0 255 255 0 255 255 0 255 255 0 255 255 0 255 255 0 255 255 0 255 255 0 255
255 0 255 255 0 255 255 0 255 255 0 255 255 0 255 255 0 255 255 0 255 255 0 255 255 0 255 255 0 255 255 0 255 255 0 255
255 0 255 255 0 255 255 0 255 255 0 255 255 0 255 255 0 255 255 0 255 255 0 255 255 0 255 255 0 255 255 0 255 255 0 255
255 0 255 255 0 255 255 0 255 255 0 255 255 0 255 255 0 255 255 0 255 255 0 255 255 0 255 255 0 255 255 0 255 255 0 255
255 0 255 255 0 255 255 0 255 255 0 255 255 0 255 255 0 255 255 0 255 255 0 255 255 0 255 255 0 255 255 0 255 255 0 255
255 0 255 255 0 255 255 0 255 255 0 255 255 0 255 255 0 255 255 0 255 255 0 255 255 0 255 255 0 255 255 0 255 255 0 255
255 0 255 255 0 255 255 0 255 255 0 255 255 0 255 255 0 255 255 0 255 255 0 255 255 0 255 255 0 255 255 0 255 255 0 255
255 0 255 255 0 255 255 0 255 255 0 255 255 0 255 255 0 255 255 0 255 255 0 255 255 0 255 255 0 255 255 0 255 255 0 255
255 0 255 255 0 255 255 0 255 255 0 255 255 0 255 255 0 255 255 0 255 255 0 255 255 0 255 255 0 255 255 0 255 255 0 255
255 0 255 255 0 255 255 0 255 255 0 255 255 0 255 255 0 255 255 0 255 255 0 255 255 0 255 255 0 255 255 0 255 255 0 255
255 0 255 255 0 255 255 0 255 255 0 255 255 0 255 255 0 255 255 0 255 255 0 255 255 0 255 255 0 255 255 0 255 255 0 255
255 0 255 255 0 255 255 0 255 255 0 255 255 0 255 255 0 255 255 0 255 255 0 255 255 0 255 255 0 255 255 0 255 255 0 255
255 0 255 255 0 255 255 0 255 255 0 255 255 0 255 255 0 255 255 0 255 255 0 255 255 0 255 255 0 255 255 0 255 255 0 255
