P3
46 26
255
255 0 255 255 0 255 255 0 255 255 0 255 255 0 255 255 0 255 255 0 255 255 0 255 255 0 255 255 0 255 255 0 255 255 0 255 255 0 255 255 0 255 255 0 255 255 0 255 255 0 255 255 0 255 255 0 255 255 0 255 255 0 255 255 0 255 255 0 255 255 0 255 255 0 255 255 0 255 255 0 255 255 0 255 255 0 255 255 0 255 255 0 255 255 0 255 255 0 255 255 0 255 255 0 255 255 0 255 255 0 255 255 0 255 255 0 255 255 0 255 255 0 255 255 0 255 255 0 255 255 0 255 255 0 255 255 0 255
255 0 255 255 0 255 255 0 255 255 0 255 255 0 255 255 0 255 255 0 255 255 0 255 255 0 255 255 0 255 255 0 255 255 0 255 255 0 255 255 0 255 255 0 255 255 0 255 255 0 255 255 0 255 255 0 255 255 0 255 255 0 255 255 0 255 255 0 255 255 0 255 255 0 255 255 0 255 255 0 255 255 0 255 255 0 255 255 0 255 255 0 255 255 0 255 255 0 255 255 0 255 255 0 255 255 0 255 255 0 255 255 0 255 255 0 255 255 0 255 255 0 255 255 0 255 255 0 255 255 0 255 255 0 255 255 0 255
255 0 255 255 0 255 255 0 255 255 0 255 255 0 255 255 0 255 255 0 255 255 0 255 255 0 255 255 0 255 255 0 255 255 0 255 255 0 255 255 0 255 212 15 214 106 52 116 80 87 94 91 67 104 228 17 229 255 0 255 255 0 255 255 0 255 255 0 255 255 0 255 255 0 255 255 0 255 255 0 255 255 0 255 255 0 255 255 0 255 255 0 255 255 0 255 255 0 255 255 0 255 255 0 255 255 0 255 255 0 255 255 0 255 255 0 255 255 0 255 255 0 255 255 0 255 255 0 255 255 0 255 255 0 255 255 0 255
255 0 255 255 0 255 255 0 255 255 0 255 255 0 255 255 0 255 255 0 255 255 0 255 255 0 255 235 14 235 185 24 189 162 24 170 179 28 184 226 15 227 137 35 142 35 52 56 76 89 96 69 84 89 156 49 160 255 2 255 255 0 255 255 0 255 255 0 255 255 0 255 255 0 255 255 0 255 255 0 255 255 0 255 255 0 255 255 0 255 255 0 255 255 0 255 255 0 255 255 0 255 255 0 255 255 0 255 255 0 255 255 0 255 255 0 255 255 0 255 255 0 255 255 0 255 255 0 255 255 0 255 255 0 255 255 0 255
255 0 255 255 0 255 255 0 255 255 0 255 255 0 255 255 0 255 255 0 255 255 2 255 195 20 198 92 60 107 66 79 89 74 94 100 93 109 116 102 87 122 69 47 77 24 34 41 48 59 66 61 75 80 75 63 89 219 22 220 255 0 255 255 0 255 255 0 255 255 0 255 255 0 255 255 0 255 255 0 255 255 0 255 255 0 255 255 0 255 255 0 255 255 0 255 255 0 255 255 0 255 255 0 255 255 0 255 255 0 255 255 0 255 255 0 255 255 0 255 255 0 255 255 0 255 255 0 255 255 0 255 255 0 255 255 0 255
255 0 255 255 0 255 255 0 255 255 0 255 255 0 255 255 0 255 255 0 255 206 27 207 70 56 89 38 55 61 36 46 53 39 49 56 60 71 77 106 121 127 84 98 106 37 50 60 36 47 56 60 72 80 48 63 67 143 31 147 250 6 250 255 0 255 255 0 255 255 0 255 255 0 255 255 0 255 255 0 255 255 0 255 255 0 255 255 0 255 255 0 255 255 0 255 255 0 255 255 0 255 255 0 255 255 0 255 255 0 255 255 0 255 255 0 255 255 0 255 255 0 255 255 0 255 255 0 255 255 0 255 255 0 255 255 0 255
255 0 255 255 0 255 255 0 255 255 0 255 255 0 255 255 0 255 255 0 255 112 49 122 35 50 57 26 35 41 21 29 35 31 39 44 64 74 79 52 64 72 76 92 103 57 74 86 41 56 67 34 41 47 69 72 72 141 126 133 193 110 186 241 9 240 255 0 255 255 0 255 255 0 255 255 0 255 255 0 255 255 0 255 255 0 255 255 0 255 255 0 255 255 0 255 255 0 255 255 0 255 255 0 255 255 0 255 255 0 255 255 0 255 255 0 255 255 0 255 255 0 255 255 0 255 255 0 255 255 0 255 255 0 255 255 0 255
255 0 255 255 0 255 255 0 255 255 0 255 255 0 255 255 0 255 255 0 255 54 57 71 27 36 44 24 32 38 16 22 27 21 30 37 36 47 54 37 50 59 57 72 82 40 52 61 28 35 40 94 95 94 200 192 183 212 203 191 190 184 174 199 79 193 252 0 252 255 0 255 255 0 255 255 0 255 255 0 255 255 0 255 255 0 255 255 0 255 255 0 255 255 0 255 255 0 255 255 0 255 255 0 255 255 0 255 255 0 255 255 0 255 255 0 255 255 0 255 255 0 255 255 0 255 255 0 255 255 0 255 255 0 255 255 0 255
255 0 255 255 0 255 255 0 255 255 0 255 255 0 255 255 0 255 255 0 255 45 55 62 27 35 42 29 40 48 28 38 46 31 44 53 24 32 38 26 36 43 40 51 58 27 36 42 39 44 47 125 121 115 181 174 165 223 216 207 220 213 202 197 179 180 201 66 194 252 2 252 255 0 255 255 0 255 255 0 255 255 0 255 255 0 255 255 0 255 255 0 255 255 0 255 255 0 255 255 0 255 255 0 255 255 0 255 255 0 255 255 0 255 255 0 255 255 0 255 255 0 255 255 0 255 255 0 255 255 0 255 255 0 255 255 0 255
255 0 255 255 0 255 255 0 255 255 0 255 255 0 255 255 0 255 255 0 255 72 54 88 42 54 62 45 58 67 53 65 73 35 45 51 23 32 37 26 35 41 36 49 56 21 30 36 19 24 27 90 88 85 178 169 159 206 198 190 222 214 204 217 209 196 194 178 176 207 60 203 250 2 250 255 0 255 255 0 255 255 0 255 255 0 255 255 0 255 255 0 255 255 0 255 255 0 255 255 0 255 255 0 255 255 0 255 255 0 255 255 0 255 255 0 255 255 0 255 255 0 255 255 0 255 255 0 255 255 0 255 255 0 255 255 0 255
255 0 255 255 0 255 255 0 255 255 0 255 255 0 255 255 0 255 255 0 255 152 40 160 50 64 75 44 53 59 49 59 65 36 47 53 26 36 43 35 49 57 33 47 55 20 25 29 39 47 52 38 43 46 116 110 104 178 167 156 208 199 189 224 216 206 219 214 203 202 189 189 200 98 193 235 14 234 255 0 255 255 0 255 255 0 255 255 0 255 255 0 255 255 0 255 255 0 255 255 0 255 255 0 255 255 0 255 255 0 255 255 0 255 255 0 255 255 0 255 255 0 255 255 0 255 255 0 255 255 0 255 255 0 255 255 0 255
255 0 255 255 0 255 255 0 255 255 0 255 255 0 255 255 0 255 255 0 255 236 16 237 105 53 117 40 58 64 42 56 63 38 53 61 38 53 63 30 44 53 29 40 48 35 45 53 29 35 39 43 52 57 39 42 44 132 126 118 189 179 169 215 208 201 224 218 209 218 211 200 208 201 190 184 142 173 213 43 212 254 0 254 254 0 254 255 0 255 255 0 255 255 0 255 255 0 255 255 0 255 255 0 255 255 0 255 255 0 255 255 0 255 255 0 255 255 0 255 255 0 255 255 0 255 255 0 255 255 0 255 255 0 255 255 0 255
255 0 255 255 0 255 255 0 255 255 0 255 255 0 255 255 0 255 255 0 255 255 0 255 232 15 232 134 39 143 72 60 92 53 58 76 30 43 53 16 25 31 26 35 41 58 79 91 28 59 74 37 47 54 64 77 85 52 57 59 147 140 132 193 184 174 205 198 190 217 210 200 180 171 159 120 120 110 102 63 102 168 74 165 203 82 197 238 18 236 254 0 254 255 0 255 255 0 255 255 0 255 255 0 255 255 0 255 255 0 255 255 0 255 255 0 255 255 0 255 255 0 255 255 0 255 255 0 255 255 0 255 255 0 255 255 0 255
255 0 255 255 0 255 255 0 255 255 0 255 255 0 255 255 0 255 255 0 255 255 0 255 255 0 255 255 3 254 234 19 234 184 37 186 37 34 47 22 31 38 25 33 38 35 49 57 58 119 139 40 85 101 55 69 77 58 71 80 46 50 53 98 93 87 142 134 125 138 131 121 62 63 63 65 67 68 130 129 124 167 167 155 187 182 169 170 127 154 184 72 179 205 65 200 217 37 212 242 8 241 255 0 255 255 0 255 255 0 255 255 0 255 255 0 255 255 0 255 255 0 255 255 0 255 255 0 255 255 0 255 255 0 255 255 0 255
255 0 255 255 0 255 255 0 255 255 0 255 255 0 255 255 0 255 255 0 255 255 0 255 255 0 255 255 0 255 255 0 255 228 24 228 66 48 78 38 52 59 40 57 66 29 48 58 56 77 85 67 116 131 47 61 70 75 88 97 52 63 71 21 26 31 39 45 48 54 57 58 74 79 80 108 106 102 190 184 174 219 211 203 175 167 158 155 150 138 179 175 163 185 181 169 194 181 177 195 132 182 232 38 229 255 0 255 255 0 255 255 0 255 255 0 255 255 0 255 255 0 255 255 0 255 255 0 255 255 0 255 255 0 255 255 0 255
255 0 255 255 0 255 255 0 255 255 0 255 255 0 255 255 0 255 255 0 255 255 0 255 255 0 255 255 0 255 255 0 255 255 1 255 182 26 184 49 45 64 35 54 63 31 70 87 37 60 71 51 65 73 34 43 50 34 43 49 41 48 52 70 80 85 61 67 70 162 156 149 222 212 201 180 172 162 140 135 128 144 138 131 160 152 143 199 191 181 211 202 192 196 186 176 168 160 150 195 192 177 155 112 144 219 15 220 255 0 255 255 0 255 255 0 255 255 0 255 255 0 255 255 0 255 255 0 255 255 0 255 255 0 255 255 0 255
255 0 255 255 0 255 255 0 255 255 0 255 255 0 255 255 0 255 255 0 255 255 0 255 255 0 255 255 0 255 255 0 255 255 0 255 255 3 255 160 28 166 42 52 64 33 52 62 25 36 44 43 54 61 60 74 81 42 52 57 22 28 32 54 66 72 98 97 95 164 155 147 189 180 169 193 184 173 211 203 194 207 201 193 179 172 164 134 126 118 158 149 139 197 185 172 163 152 141 104 99 92 58 60 58 79 50 93 185 35 190 252 2 252 255 0 255 255 0 255 255 0 255 255 0 255 255 0 255 255 0 255 255 0 255 255 0 255
255 0 255 255 0 255 255 0 255 255 0 255 255 0 255 255 0 255 255 0 255 255 0 255 255 0 255 255 0 255 255 0 255 255 0 255 255 0 255 248 5 248 116 48 125 24 37 39 28 36 41 23 30 33 39 49 54 62 76 84 30 38 43 32 43 49 74 73 71 147 140 132 153 145 136 163 153 142 183 173 163 198 189 178 204 194 182 168 158 148 112 107 100 126 119 112 72 71 70 34 37 39 56 65 73 65 78 83 67 72 87 169 33 176 254 1 254 255 0 255 255 0 255 255 0 255 255 0 255 255 0 255 255 0 255 255 0 255
255 0 255 255 0 255 255 0 255 255 0 255 255 0 255 255 0 255 255 0 255 255 0 255 255 0 255 255 0 255 255 0 255 255 0 255 255 0 255 255 0 255 222 30 222 58 39 68 24 33 35 33 40 43 42 52 59 33 41 50 30 37 42 28 36 39 26 29 30 75 72 68 110 104 97 145 136 126 168 160 150 173 164 154 170 161 151 99 95 89 48 49 48 33 37 40 59 70 78 56 63 68 38 45 49 67 78 85 53 67 74 61 55 79 193 25 195 255 0 255 255 0 255 255 0 255 255 0 255 255 0 255 255 0 255 255 0 255
255 0 255 255 0 255 255 0 255 255 0 255 255 0 255 255 0 255 255 0 255 255 0 255 255 0 255 255 0 255 255 0 255 255 0 255 255 0 255 255 0 255 255 3 254 121 49 129 40 53 54 38 45 48 28 35 40 26 33 40 16 21 25 17 24 25 25 31 33 30 35 38 47 52 56 47 48 48 79 78 74 121 115 108 89 84 77 42 48 53 81 92 99 41 50 56 37 47 55 61 70 78 58 67 72 34 44 51 46 58 66 31 44 48 95 49 103 255 0 255 255 0 255 255 0 255 255 0 255 255 0 255 255 0 255 255 0 255
255 0 255 255 0 255 255 0 255 255 0 255 255 0 255 255 0 255 255 0 255 255 0 255 255 0 255 255 0 255 255 0 255 255 0 255 255 0 255 255 0 255 255 0 255 203 26 205 62 53 78 36 52 54 30 43 47 28 43 47 34 32 42 65 28 68 35 32 44 47 56 62 64 71 77 34 38 41 41 46 50 46 51 54 27 30 33 38 48 56 62 75 84 75 87 94 30 38 44 32 41 49 51 63 71 31 41 47 28 45 52 41 49 59 54 51 63 255 0 255 255 0 255 255 0 255 255 0 255 255 0 255 255 0 255 255 0 255
255 0 255 255 0 255 255 0 255 255 0 255 255 0 255 255 0 255 255 0 255 255 0 255 255 0 255 255 0 255 255 0 255 255 0 255 255 0 255 255 0 255 255 0 255 255 1 255 196 22 198 108 32 116 92 33 101 107 37 113 188 24 191 238 10 238 106 32 115 41 58 60 40 48 52 44 49 53 53 59 64 67 74 80 37 42 47 27 39 46 32 44 53 47 59 68 36 44 52 21 32 38 34 49 56 50 48 66 71 43 84 64 52 76 171 39 173 255 0 255 255 0 255 255 0 255 255 0 255 255 0 255 255 0 255 255 0 255
255 0 255 255 0 255 255 0 255 255 0 255 255 0 255 255 0 255 255 0 255 255 0 255 255 0 255 255 0 255 255 0 255 255 0 255 255 0 255 255 0 255 255 0 255 255 0 255 255 0 255 253 3 253 250 4 249 252 5 252 255 0 255 255 0 255 221 14 223 109 35 117 42 35 52 32 37 42 34 44 48 39 53 59 29 39 42 24 29 34 37 45 55 36 48 56 40 50 57 75 43 82 66 41 78 61 47 73 206 33 206 202 26 203 243 6 243 255 0 255 255 0 255 255 0 255 255 0 255 255 0 255 255 0 255 255 0 255
255 0 255 255 0 255 255 0 255 255 0 255 255 0 255 255 0 255 255 0 255 255 0 255 255 0 255 255 0 255 255 0 255 255 0 255 255 0 255 255 0 255 255 0 255 255 0 255 255 0 255 255 0 255 255 0 255 255 0 255 255 0 255 255 0 255 255 0 255 244 3 243 196 9 197 146 15 149 112 27 120 91 27 102 103 27 110 158 24 159 171 29 174 117 33 125 67 57 79 180 36 183 229 10 229 181 28 183 242 9 243 255 0 255 255 0 255 255 0 255 255 0 255 255 0 255 255 0 255 255 0 255 255 0 255 255 0 255
255 0 255 255 0 255 255 0 255 255 0 255 255 0 255 255 0 255 255 0 255 255 0 255 255 0 255 255 0 255 255 0 255 255 0 255 255 0 255 255 0 255 255 0 255 255 0 255 255 0 255 255 0 255 255 0 255 255 0 255 255 0 255 255 0 255 255 0 255 255 0 255 255 0 255 255 0 255 255 0 255 255 0 255 255 0 255 255 0 255 255 0 255 255 0 255 255 0 255 255 0 255 255 0 255 255 0 255 255 0 255 255 0 255 255 0 255 255 0 255 255 0 255 255 0 255 255 0 255 255 0 255 255 0 255 255 0 255
255 0 255 255 0 255 255 0 255 255 0 255 255 0 255 255 0 255 255 0 255 255 0 255 255 0 255 255 0 255 255 0 255 255 0 255 255 0 255 255 0 255 255 0 255 255 0 255 255 0 255 255 0 255 255 0 255 255 0 255 255 0 255 255 0 255 255 0 255 255 0 255 255 0 255 255 0 255 255 0 255 255 0 255 255 0 255 255 0 255 255 0 255 255 0 255 255 0 255 255 0 255 255 0 255 255 0 255 255 0 255 255 0 255 255 0 255 255 0 255 255 0 255 255 0 255 255 0 255 255 0 255 255 0 255 255 0 255
