P3
52 28
255
255 0 255 255 0 255 255 0 255 255 0 255 255 0 255 255 0 255 255 0 255 255 0 255 255 0 255 255 0 255 255 0 255 255 0 255
255 0 255 255 0 255 255 0 255 255 0 255 255 0 255 255 0 255 255 0 255 255 0 255 255 0 255 255 0 255 255 0 255 255 0 255
255 0 255 255 0 255 255 0 255 255 0 255 255 0 255 255 0 255 255 0 255 255 0 255 255 0 255 255 0 255 255 0 255 255 0 255
255 0 255 255 0 255 255 0 255 255 0 255 255 0 255 255 0 255 255 0 255 255 0 255 255 0 255 255 0 255 255 0 255 255 0 255
255 0 255 255 0 255 255 0 255 255 0 255 255 0 255 255 0 255 255 0 255 255 0 255 255 0 255 255 0 255 255 0 255 255 0 255
255 0 255 255 0 255 255 0 255 255 0 255 255 0 255 255 0 255 255 0 255 255 0 255 255 0 255 255 0 255 255 0 255 255 0 255
255 0 255 255 0 255 255 0 255 255 0 255 255 0 255 255 0 255 255 0 255 255 0 255 145 142 140 157 151 145 173 167 160 126 121 116
96 96 95 255 0 255 255 0 255 255 0 255 255 0 255 255 0 255 255 0 255 255 0 255 255 0 255 255 0 255 255 0 255 255 0 255
255 0 255 255 0 255 255 0 255 255 0 255 255 0 255 255 0 255 255 0 255 255 0 255 255 0 255 255 0 255 255 0 255 255 0 255
255 0 255 255 0 255 255 0 255 255 0 255 255 0 255 255 0 255 255 0 255 255 0 255 255 0 255 255 0 255 255 0 255 255 0 255
255 0 255 255 0 255 255 0 255 255 0 255 255 0 255 255 0 255 255 0 255 255 0 255 255 0 255 147 143 140 174 170 165 208 202 196
221 214 205 221 213 202 228 219 209 153 146 139 113 109 105 255 0 255 255 0 255 255 0 255 255 0 255 255 0 255 255 0 255 255 0 255
255 0 255 255 0 255 255 0 255 255 0 255 255 0 255 255 0 255 255 0 255 255 0 255 255 0 255 255 0 255 255 0 255 255 0 255
255 0 255 255 0 255 255 0 255 255 0 255 255 0 255 255 0 255 255 0 255 255 0 255 255 0 255 255 0 255 255 0 255 255 0 255
255 0 255 255 0 255 255 0 255 255 0 255 255 0 255 255 0 255 255 0 255 255 0 255 255 0 255 255 0 255 255 0 255 178 176 172
198 194 187 233 228 218 235 228 217 226 219 207 227 220 209 222 216 206 224 218 209 149 142 137 96 92 89 16 18 19 32 34 38 68 68 68
87 87 85 73 71 71 255 0 255 255 0 255 255 0 255 255 0 255 255 0 255 255 0 255 255 0 255 255 0 255 255 0 255 255 0 255
255 0 255 255 0 255 255 0 255 255 0 255 255 0 255 255 0 255 255 0 255 255 0 255 255 0 255 255 0 255 255 0 255 255 0 255
255 0 255 255 0 255 255 0 255 255 0 255 255 0 255 255 0 255 255 0 255 255 0 255 255 0 255 255 0 255 255 0 255 255 0 255
151 147 141 185 179 172 232 226 218 237 230 220 229 221 209 227 220 209 225 218 208 228 221 210 227 221 212 219 211 203 206 195 184 174 166 157
79 77 75 5 9 14 29 35 43 50 58 66 83 86 89 105 104 103 70 74 77 55 61 65 67 70 70 68 70 71 66 71 74 255 0 255
255 0 255 255 0 255 255 0 255 255 0 255 255 0 255 255 0 255 255 0 255 255 0 255 255 0 255 255 0 255 255 0 255 255 0 255
255 0 255 255 0 255 255 0 255 255 0 255 255 0 255 255 0 255 255 0 255 255 0 255 255 0 255 255 0 255 255 0 255 255 0 255
255 0 255 255 0 255 179 175 170 206 201 194 239 233 224 231 223 213 226 219 210 224 216 206 227 219 208 230 223 212 227 220 211 212 204 193
202 191 180 202 191 180 171 166 159 177 173 166 161 155 147 33 33 34 20 28 35 55 60 64 81 82 83 98 96 93 78 80 81 68 72 76
75 76 77 51 55 60 34 46 59 48 57 66 85 90 93 255 0 255 255 0 255 255 0 255 255 0 255 255 0 255 255 0 255 255 0 255
255 0 255 255 0 255 255 0 255 255 0 255 255 0 255 255 0 255 255 0 255 255 0 255 255 0 255 255 0 255 255 0 255 255 0 255
255 0 255 255 0 255 255 0 255 255 0 255 182 176 171 219 212 203 241 235 225 236 229 221 229 222 213 225 219 209 233 227 219 243 240 234
230 225 216 211 202 191 206 197 186 206 196 185 192 183 170 179 172 161 167 162 154 184 179 170 147 142 134 34 37 41 35 45 54 56 62 67
59 64 68 58 63 67 66 71 75 79 83 87 78 81 83 59 62 64 37 46 55 35 46 58 41 52 64 37 44 51 69 74 75 255 0 255
255 0 255 255 0 255 255 0 255 255 0 255 255 0 255 255 0 255 255 0 255 255 0 255 255 0 255 255 0 255 255 0 255 255 0 255
255 0 255 255 0 255 255 0 255 255 0 255 255 0 255 255 0 255 180 174 169 229 223 217 239 232 222 229 222 211 226 218 209 230 223 213
238 231 221 240 234 225 233 228 220 220 216 210 222 211 198 212 198 186 213 201 187 197 188 177 181 174 164 187 178 165 168 159 148 98 95 91
20 20 21 10 13 18 30 35 41 29 32 35 27 31 32 27 29 31 28 31 32 42 46 50 62 66 72 72 75 78 60 63 65 56 61 64
49 55 63 30 40 51 35 47 58 51 59 65 87 87 87 255 0 255 255 0 255 255 0 255 255 0 255 255 0 255 255 0 255 255 0 255
255 0 255 255 0 255 255 0 255 255 0 255 255 0 255 255 0 255 255 0 255 255 0 255 152 147 144 205 201 195 250 245 236 239 233 225
232 225 216 237 231 221 243 237 228 244 238 228 236 229 218 214 208 199 207 198 185 219 204 187 172 179 180 106 143 162 85 127 157 207 201 192
178 171 160 106 104 100 30 34 37 8 14 22 17 25 34 12 14 16 30 30 29 41 41 41 36 38 38 34 35 34 39 39 38 31 32 33
24 26 28 37 39 40 56 59 61 66 69 69 64 66 68 57 60 63 47 53 59 33 47 58 42 54 64 255 0 255 255 0 255 255 0 255
255 0 255 255 0 255 255 0 255 255 0 255 255 0 255 255 0 255 255 0 255 255 0 255 255 0 255 255 0 255 255 0 255 177 172 166
238 232 222 240 233 223 232 224 215 235 228 219 242 236 227 247 242 235 241 236 230 222 214 204 209 200 189 224 210 192 184 180 172 103 137 159
85 166 201 75 183 219 41 129 174 116 119 118 57 60 64 17 30 44 22 34 47 17 24 31 36 42 48 38 43 45 15 16 18 73 71 70
64 64 65 35 36 38 17 19 21 47 49 48 46 47 48 12 14 16 11 13 15 50 52 54 49 53 55 58 61 63 69 71 70 59 66 70
40 50 59 255 0 255 255 0 255 255 0 255 255 0 255 255 0 255 255 0 255 255 0 255 255 0 255 255 0 255 255 0 255 255 0 255
255 0 255 142 136 129 214 208 201 245 238 228 235 227 217 234 227 218 243 237 229 245 239 232 241 235 227 228 221 213 219 211 203 222 213 201
219 203 188 136 153 170 75 145 179 74 182 216 78 183 218 87 133 153 75 80 85 18 27 37 27 40 54 43 59 74 31 42 54 13 16 19
36 45 50 2 2 2 84 81 76 92 92 90 31 35 38 50 53 52 63 63 61 3 6 8 53 53 52 45 47 51 7 9 12 22 25 27
12 15 17 10 12 14 32 36 40 16 19 23 14 18 21 52 54 57 255 0 255 255 0 255 255 0 255 255 0 255 255 0 255 255 0 255
255 0 255 255 0 255 255 0 255 161 159 156 195 191 184 206 198 188 243 236 226 225 217 207 235 228 218 246 242 234 249 246 240 236 230 223
218 208 198 213 203 193 220 212 201 178 173 167 72 124 153 65 177 215 97 198 226 75 147 173 75 93 104 49 54 62 19 35 49 35 50 64
46 61 75 51 66 78 9 15 22 27 28 31 49 53 53 0 0 0 65 62 59 54 56 58 17 28 34 56 59 59 62 65 63 9 14 18
63 64 63 41 43 45 10 12 15 45 50 53 32 37 41 4 6 9 33 34 37 66 65 64 32 39 45 24 33 43 42 46 48 255 0 255
255 0 255 255 0 255 255 0 255 255 0 255 255 0 255 255 0 255 190 184 178 244 239 232 233 226 218 204 198 189 231 225 214 237 228 217
238 230 218 239 234 224 227 219 210 219 210 201 218 208 198 203 194 183 200 191 178 131 128 127 22 85 117 96 183 199 112 122 130 65 58 57
26 36 47 27 46 63 41 57 72 39 55 69 30 42 53 20 26 31 35 42 48 16 18 20 60 63 64 38 43 47 2 4 6 27 28 29
36 38 40 41 43 46 27 30 33 64 65 65 61 63 64 8 9 10 24 25 25 68 69 65 41 44 45 33 40 47 10 15 20 19 19 18
41 46 52 38 50 61 34 39 44 255 0 255 255 0 255 255 0 255 255 0 255 255 0 255 171 166 160 227 221 213 237 229 218 231 224 216
242 237 231 227 223 218 220 214 207 255 251 242 233 225 213 216 204 192 216 207 195 222 213 204 209 202 193 187 179 170 187 180 170 217 208 196
142 134 126 61 55 56 44 42 46 21 36 50 37 50 63 46 61 76 32 44 57 20 26 31 26 29 32 61 68 74 46 58 70 23 33 43
18 27 35 32 38 42 51 55 58 37 40 43 35 38 42 43 45 50 68 69 70 57 58 60 23 28 32 15 21 25 51 55 56 73 72 70
53 51 49 24 30 34 24 30 34 11 14 16 10 17 22 23 29 35 255 0 255 255 0 255 255 0 255 255 0 255 255 0 255 156 152 146
240 235 227 238 232 223 227 220 210 229 222 212 242 237 229 211 205 199 217 212 205 233 227 219 208 199 189 206 196 185 205 196 185 202 195 185
192 185 176 194 186 175 199 191 181 123 119 114 40 41 42 13 28 40 35 56 72 51 68 83 42 57 72 19 28 38 32 35 37 69 74 78
48 55 63 22 30 41 23 34 45 28 43 56 40 52 60 41 43 44 255 0 255 58 60 63 44 47 51 48 52 55 47 51 57 255 0 255
67 74 78 55 63 69 42 49 56 42 51 57 46 48 49 73 70 66 93 88 85 57 59 62 41 47 52 32 37 41 33 34 38 255 0 255
255 0 255 255 0 255 147 140 134 236 229 220 218 212 204 229 222 212 237 230 219 238 231 222 234 228 219 209 200 189 172 162 152 213 204 194
219 211 201 220 211 200 208 198 186 199 190 180 194 186 176 158 153 144 76 74 71 17 21 26 20 30 39 44 59 73 54 72 88 32 48 62
21 28 37 54 59 62 72 79 84 41 50 61 37 49 62 35 49 64 37 47 55 65 71 73 255 0 255 255 0 255 255 0 255 255 0 255
255 0 255 255 0 255 255 0 255 255 0 255 255 0 255 255 0 255 85 87 89 37 39 41 67 67 67 91 90 89 26 29 31 44 49 53
41 44 48 56 65 71 23 32 37 255 0 255 255 0 255 145 139 135 221 214 205 240 232 222 215 207 198 221 214 203 237 233 225 221 215 205
216 207 197 225 214 202 177 166 155 175 168 158 170 163 156 134 128 123 130 125 119 124 120 114 106 103 98 22 22 21 0 0 2 31 40 50
38 48 58 19 24 29 20 24 28 42 46 49 73 81 87 73 84 93 35 45 55 26 37 48 31 43 55 45 54 63 255 0 255 255 0 255
255 0 255 255 0 255 255 0 255 255 0 255 255 0 255 255 0 255 255 0 255 255 0 255 255 0 255 255 0 255 255 0 255 255 0 255
84 85 84 73 75 77 43 47 50 45 48 51 60 63 65 56 61 66 48 54 57 255 0 255 255 0 255 176 171 163 240 235 227 230 222 212
238 231 220 224 218 210 188 179 169 214 205 194 195 188 179 124 120 117 56 57 58 39 42 45 48 52 58 40 49 57 37 46 53 31 39 47
27 36 46 23 32 41 17 22 29 18 24 31 8 12 17 13 12 10 66 66 61 70 73 73 45 51 58 32 42 53 34 46 57 47 56 65
57 63 67 255 0 255 255 0 255 255 0 255 255 0 255 255 0 255 255 0 255 255 0 255 255 0 255 255 0 255 255 0 255 255 0 255
255 0 255 255 0 255 255 0 255 255 0 255 255 0 255 86 88 88 68 72 75 53 57 62 65 68 70 255 0 255 255 0 255 255 0 255
255 0 255 189 182 173 242 237 229 232 225 215 232 226 217 193 184 173 197 187 176 145 139 130 34 35 35 32 40 46 72 85 94 73 84 92
54 63 71 42 51 60 38 46 54 44 51 58 62 66 70 60 64 67 47 53 60 38 48 57 27 36 44 15 17 19 23 25 26 30 38 46
24 30 37 31 42 51 39 45 48 255 0 255 255 0 255 255 0 255 255 0 255 255 0 255 255 0 255 255 0 255 255 0 255 255 0 255
255 0 255 255 0 255 255 0 255 255 0 255 255 0 255 255 0 255 255 0 255 255 0 255 255 0 255 255 0 255 255 0 255 255 0 255
255 0 255 255 0 255 255 0 255 255 0 255 255 0 255 179 171 160 237 230 220 239 235 228 209 203 196 197 187 176 149 142 132 24 27 29
55 65 71 109 120 126 68 78 87 24 30 38 4 10 15 14 22 29 18 25 33 13 20 29 14 22 30 24 30 35 40 42 43 61 65 66
46 58 68 32 42 50 8 10 13 33 42 51 35 47 59 41 50 57 92 93 93 255 0 255 255 0 255 255 0 255 255 0 255 255 0 255
255 0 255 255 0 255 255 0 255 255 0 255 255 0 255 255 0 255 255 0 255 255 0 255 255 0 255 255 0 255 255 0 255 255 0 255
255 0 255 255 0 255 255 0 255 255 0 255 255 0 255 255 0 255 255 0 255 255 0 255 255 0 255 177 167 156 237 230 221 226 221 213
193 186 176 190 183 173 52 50 48 32 41 49 105 114 121 55 58 63 6 8 11 23 27 34 95 96 98 162 157 153 95 96 96 56 63 71
29 38 49 14 19 26 12 19 24 27 28 29 56 59 63 39 50 60 22 27 32 19 22 26 49 55 59 255 0 255 255 0 255 255 0 255
255 0 255 255 0 255 255 0 255 255 0 255 255 0 255 255 0 255 255 0 255 255 0 255 255 0 255 255 0 255 255 0 255 255 0 255
255 0 255 255 0 255 255 0 255 255 0 255 255 0 255 255 0 255 255 0 255 255 0 255 255 0 255 255 0 255 255 0 255 255 0 255
255 0 255 162 157 148 235 228 219 213 205 196 187 179 168 144 140 133 16 17 19 65 78 90 81 94 104 12 12 12 12 14 15 76 76 76
181 175 166 80 80 82 33 40 45 56 62 66 65 70 76 29 37 46 15 20 25 7 12 18 43 41 39 47 54 62 32 42 50 78 78 78
255 0 255 255 0 255 255 0 255 255 0 255 255 0 255 255 0 255 255 0 255 255 0 255 255 0 255 255 0 255 255 0 255 255 0 255
255 0 255 255 0 255 255 0 255 255 0 255 255 0 255 255 0 255 255 0 255 255 0 255 255 0 255 255 0 255 255 0 255 255 0 255
255 0 255 255 0 255 255 0 255 255 0 255 255 0 255 140 136 130 209 202 192 219 210 200 186 177 166 148 143 137 18 20 22 57 70 83
81 93 102 17 19 19 11 12 15 51 53 56 101 100 98 49 54 58 22 34 42 50 58 66 72 73 77 34 41 50 19 29 39 11 18 23
51 49 46 41 49 57 37 46 52 255 0 255 255 0 255 255 0 255 255 0 255 255 0 255 255 0 255 255 0 255 255 0 255 255 0 255
255 0 255 255 0 255 255 0 255 255 0 255 255 0 255 255 0 255 255 0 255 255 0 255 255 0 255 255 0 255 255 0 255 255 0 255
255 0 255 255 0 255 255 0 255 255 0 255 255 0 255 255 0 255 255 0 255 255 0 255 255 0 255 255 0 255 140 135 128 230 223 213
196 188 177 173 165 155 65 63 60 21 28 36 87 94 101 65 68 71 6 8 11 17 22 28 35 41 46 61 66 66 52 59 62 53 60 64
32 41 49 21 31 41 20 31 40 52 53 53 67 70 73 32 40 48 53 58 58 255 0 255 255 0 255 255 0 255 255 0 255 255 0 255
255 0 255 255 0 255 255 0 255 255 0 255 255 0 255 255 0 255 255 0 255 255 0 255 255 0 255 255 0 255 255 0 255 255 0 255
255 0 255 255 0 255 255 0 255 255 0 255 255 0 255 255 0 255 255 0 255 255 0 255 255 0 255 255 0 255 255 0 255 255 0 255
255 0 255 255 0 255 255 0 255 151 146 142 220 214 207 185 177 167 144 138 129 49 48 46 34 39 46 70 79 88 49 58 66 22 26 31
10 13 17 11 15 22 18 24 33 17 24 32 23 29 36 34 40 44 63 63 62 72 76 81 42 51 61 47 51 54 255 0 255 255 0 255
255 0 255 255 0 255 255 0 255 255 0 255 255 0 255 255 0 255 255 0 255 255 0 255 255 0 255 255 0 255 255 0 255 255 0 255
255 0 255 255 0 255 255 0 255 255 0 255 255 0 255 255 0 255 255 0 255 255 0 255 255 0 255 255 0 255 255 0 255 255 0 255
255 0 255 255 0 255 255 0 255 255 0 255 255 0 255 255 0 255 255 0 255 255 0 255 137 133 130 181 176 171 191 184 174 163 157 146
69 68 65 27 30 34 53 62 71 59 68 79 48 53 58 35 39 40 39 42 44 32 36 40 45 51 54 65 69 72 55 61 71 46 51 61
55 57 60 255 0 255 255 0 255 255 0 255 255 0 255 255 0 255 255 0 255 255 0 255 255 0 255 255 0 255 255 0 255 255 0 255
255 0 255 255 0 255 255 0 255 255 0 255 255 0 255 255 0 255 255 0 255 255 0 255 255 0 255 255 0 255 255 0 255 255 0 255
255 0 255 255 0 255 255 0 255 255 0 255 255 0 255 255 0 255 255 0 255 255 0 255 255 0 255 255 0 255 255 0 255 255 0 255
255 0 255 255 0 255 141 140 137 122 119 117 118 116 113 98 95 91 255 0 255 75 79 84 56 61 67 57 62 69 62 67 73 55 61 67
53 58 64 56 62 68 62 69 72 255 0 255 255 0 255 255 0 255 255 0 255 255 0 255 255 0 255 255 0 255 255 0 255 255 0 255
255 0 255 255 0 255 255 0 255 255 0 255 255 0 255 255 0 255 255 0 255 255 0 255 255 0 255 255 0 255 255 0 255 255 0 255
255 0 255 255 0 255 255 0 255 255 0 255 255 0 255 255 0 255 255 0 255 255 0 255 255 0 255 255 0 255 255 0 255 255 0 255
255 0 255 255 0 255 255 0 255 255 0 255 255 0 255 255 0 255 255 0 255 255 0 255 255 0 255 255 0 255 255 0 255 255 0 255
255 0 255 255 0 255 255 0 255 255 0 255 255 0 255 255 0 255 255 0 255 255 0 255 255 0 255 255 0 255 255 0 255 255 0 255
255 0 255 255 0 255 255 0 255 255 0 255 255 0 255 255 0 255 255 0 255 255 0 255 255 0 255 255 0 255 255 0 255 255 0 255
255 0 255 255 0 255 255 0 255 255 0 255 255 0 255 255 0 255 255 0 255 255 0 255 255 0 255 255 0 255 255 0 255 255 0 255
255 0 255 255 0 255 255 0 255 255 0 255
