P3
96 56
255
255 0 255 255 0 255 255 0 255 255 0 255 255 0 255 255 0 255 255 0 255 255 0 255 255 0 255 255 0 255 255 0 255 255 0 255
255 0 255 255 0 255 255 0 255 255 0 255 255 0 255 255 0 255 255 0 255 255 0 255 255 0 255 255 0 255 255 0 255 255 0 255
255 0 255 255 0 255 255 0 255 255 0 255 255 0 255 255 0 255 255 0 255 255 0 255 255 0 255 255 0 255 255 0 255 255 0 255
255 0 255 255 0 255 255 0 255 255 0 255 255 0 255 255 0 255 255 0 255 255 0 255 255 0 255 255 0 255 255 0 255 255 0 255
255 0 255 255 0 255 255 0 255 255 0 255 255 0 255 255 0 255 255 0 255 255 0 255 255 0 255 255 0 255 255 0 255 255 0 255
255 0 255 255 0 255 255 0 255 255 0 255 255 0 255 255 0 255 255 0 255 255 0 255 255 0 255 255 0 255 255 0 255 255 0 255
255 0 255 255 0 255 255 0 255 255 0 255 255 0 255 255 0 255 255 0 255 255 0 255 255 0 255 255 0 255 255 0 255 255 0 255
255 0 255 255 0 255 255 0 255 255 0 255 255 0 255 255 0 255 255 0 255 255 0 255 255 0 255 255 0 255 255 0 255 255 0 255
255 0 255 255 0 255 255 0 255 255 0 255 255 0 255 255 0 255 255 0 255 255 0 255 255 0 255 255 0 255 255 0 255 255 0 255
255 0 255 255 0 255 255 0 255 255 0 255 255 0 255 255 0 255 255 0 255 255 0 255 255 0 255 255 0 255 255 0 255 255 0 255
255 0 255 255 0 255 255 0 255 255 0 255 255 0 255 255 0 255 255 0 255 255 0 255 255 0 255 255 0 255 255 0 255 255 0 255
255 0 255 255 0 255 255 0 255 255 0 255 255 0 255 255 0 255 255 0 255 255 0 255 255 0 255 255 0 255 255 0 255 255 0 255
255 0 255 255 0 255 255 0 255 255 0 255 255 0 255 255 0 255 255 0 255 255 0 255 255 0 255 255 0 255 255 0 255 255 0 255
255 0 255 255 0 255 255 0 255 255 0 255 255 0 255 255 0 255 255 0 255 255 0 255 255 0 255 255 0 255 255 0 255 255 0 255
255 0 255 255 0 255 255 0 255 255 0 255 255 0 255 255 0 255 255 0 255 255 0 255 255 0 255 255 0 255 255 0 255 255 0 255
255 0 255 255 0 255 255 0 255 255 0 255 255 0 255 255 0 255 255 0 255 255 0 255 255 0 255 255 0 255 255 0 255 255 0 255
255 0 255 255 0 255 255 0 255 255 0 255 255 0 255 255 0 255 255 0 255 255 0 255 255 0 255 255 0 255 255 0 255 255 0 255
255 0 255 255 0 255 255 0 255 255 0 255 255 0 255 255 0 255 255 0 255 255 0 255 255 0 255 255 0 255 255 0 255 255 0 255
255 0 255 255 0 255 255 0 255 255 0 255 255 0 255 255 0 255 255 0 255 255 0 255 255 0 255 255 0 255 255 0 255 255 0 255
255 0 255 255 0 255 255 0 255 255 0 255 255 0 255 255 0 255 255 0 255 255 0 255 255 0 255 255 0 255 255 0 255 255 0 255
255 0 255 255 0 255 255 0 255 255 0 255 255 0 255 255 0 255 255 0 255 255 0 255 255 0 255 255 0 255 255 0 255 255 0 255
255 0 255 255 0 255 255 0 255 255 0 255 255 0 255 255 0 255 255 0 255 255 0 255 255 0 255 255 0 255 255 0 255 255 0 255
255 0 255 255 0 255 255 0 255 255 0 255 255 0 255 255 0 255 255 0 255 255 0 255 255 0 255 255 0 255 255 0 255 255 0 255
255 0 255 255 0 255 255 0 255 255 0 255 255 0 255 255 0 255 255 0 255 255 0 255 255 0 255 255 0 255 255 0 255 255 0 255
255 0 255 255 0 255 255 0 255 255 0 255 255 0 255 255 0 255 255 0 255 255 0 255 255 0 255 255 0 255 255 0 255 255 0 255
255 0 255 255 0 255 255 0 255 255 0 255 255 0 255 255 0 255 255 0 255 255 0 255 255 0 255 255 0 255 255 0 255 255 0 255
255 0 255 255 0 255 255 0 255 255 0 255 255 0 255 255 0 255 255 0 255 255 0 255 255 0 255 255 0 255 255 0 255 255 0 255
255 0 255 255 0 255 255 0 255 255 0 255 255 0 255 255 0 255 255 0 255 255 0 255 255 0 255 255 0 255 255 0 255 255 0 255
255 0 255 255 0 255 255 0 255 255 0 255 255 0 255 255 0 255 255 0 255 255 0 255 255 0 255 255 0 255 255 0 255 255 0 255
255 0 255 255 0 255 255 0 255 255 0 255 255 0 255 255 0 255 255 0 255 255 0 255 255 0 255 255 0 255 255 0 255 255 0 255
255 0 255 255 0 255 255 0 255 255 0 255 255 0 255 255 0 255 255 0 255 255 0 255 255 0 255 255 0 255 255 0 255 255 0 255
255 0 255 255 0 255 255 0 255 255 0 255 255 0 255 255 0 255 255 0 255 255 0 255 255 0 255 255 0 255 255 0 255 255 0 255
255 0 255 255 0 255 255 0 255 255 0 255 255 0 255 255 0 255 255 0 255 255 0 255 255 0 255 255 0 255 255 0 255 255 0 255
255 0 255 255 0 255 255 0 255 255 0 255 255 0 255 255 0 255 255 0 255 255 0 255 255 0 255 255 0 255 255 0 255 255 0 255
255 0 255 255 0 255 255 0 255 255 0 255 255 0 255 255 0 255 255 0 255 255 0 255 255 0 255 255 0 255 255 0 255 255 0 255
255 0 255 255 0 255 255 0 255 255 0 255 255 0 255 255 0 255 255 0 255 255 0 255 255 0 255 255 0 255 255 0 255 255 0 255
255 0 255 255 0 255 255 0 255 255 0 255 255 0 255 255 0 255 255 0 255 255 0 255 255 0 255 255 0 255 255 0 255 255 0 255
255 0 255 255 0 255 255 0 255 255 0 255 255 0 255 255 0 255 255 0 255 255 0 255 255 0 255 255 0 255 255 0 255 255 0 255
255 0 255 255 0 255 255 0 255 255 0 255 255 0 255 255 0 255 255 0 255 255 0 255 255 0 255 255 0 255 255 0 255 255 0 255
255 0 255 255 0 255 255 0 255 255 0 255 255 0 255 255 0 255 255 0 255 255 0 255 255 0 255 255 0 255 255 0 255 255 0 255
255 0 255 255 0 255 255 0 255 255 0 255 255 0 255 255 0 255 255 0 255 255 0 255 255 0 255 255 0 255 255 0 255 255 0 255
255 0 255 255 0 255 255 0 255 255 0 255 255 0 255 255 0 255 255 0 255 255 0 255 255 0 255 255 0 255 255 0 255 255 0 255
255 0 255 255 0 255 255 0 255 255 0 255 255 0 255 255 0 255 255 0 255 255 0 255 255 0 255 255 0 255 255 0 255 255 0 255
255 0 255 255 0 255 255 0 255 255 0 255 255 0 255 254 0 254 255 1 255 255 0 255 255 0 255 255 0 255 255 0 255 255 0 255
255 0 255 255 0 255 255 0 255 255 0 255 255 0 255 255 0 255 255 1 255 255 3 255 254 3 254 254 3 254 254 1 254 254 0 254
254 1 254 255 0 255 254 3 254 255 4 254 254 3 254 254 2 254 254 2 254 255 1 255 255 0 255 255 0 255 255 0 255 255 0 255
255 0 255 255 0 255 255 0 255 255 0 255 255 0 255 255 0 255 255 0 255 255 0 255 255 0 255 255 0 255 255 0 255 255 0 255
255 0 255 255 0 255 255 0 255 255 0 255 255 0 255 255 0 255 255 0 255 255 0 255 255 0 255 255 0 255 255 0 255 255 0 255
255 0 255 255 0 255 255 0 255 255 0 255 255 0 255 255 0 255 255 0 255 255 0 255 255 0 255 255 0 255 255 0 255 255 0 255
255 0 255 255 0 255 255 0 255 255 0 255 255 0 255 255 0 255 255 0 255 255 0 255 255 0 255 255 0 255 255 0 255 255 0 255
255 0 255 255 0 255 255 0 255 255 0 255 255 0 255 255 0 255 255 0 255 255 0 255 255 0 255 255 0 255 255 0 255 254 2 254
254 3 254 255 3 254 255 1 255 255 0 255 255 2 255 255 0 255 255 0 255 255 0 255 236 11 233 235 19 233 240 23 237 238 21 234
235 19 232 235 26 232 235 35 231 236 20 234 245 8 244 250 0 250 255 0 255 255 0 255 255 0 255 255 0 255 255 0 255 255 0 255
255 0 255 255 0 255 255 0 255 255 0 255 255 0 255 255 0 255 255 0 255 255 0 255 255 2 255 254 3 253 254 2 254 255 1 255
255 0 255 255 0 255 255 0 255 255 0 255 255 0 255 255 0 255 255 0 255 255 0 255 255 0 255 255 0 255 255 0 255 255 0 255
255 0 255 255 0 255 255 0 255 255 0 255 255 0 255 255 0 255 255 0 255 255 0 255 255 0 255 255 0 255 255 0 255 255 0 255
255 0 255 255 0 255 255 0 255 255 0 255 255 0 255 255 0 255 255 0 255 255 0 255 255 0 255 255 0 255 255 0 255 255 0 255
255 0 255 255 0 255 255 0 255 255 0 255 255 0 255 255 0 255 255 0 255 255 0 255 255 0 255 255 0 255 255 0 255 255 0 255
255 0 255 255 0 255 255 0 255 255 0 255 255 0 255 255 0 255 255 0 254 255 1 255 254 2 254 255 2 254 255 0 255 255 0 255
255 0 255 255 0 255 255 0 255 255 0 255 255 0 255 224 7 222 185 133 172 225 175 217 212 200 198 221 214 205 214 208 201 219 211 201
223 214 204 225 219 211 230 224 217 223 217 210 215 194 201 216 177 203 208 150 191 210 126 198 222 102 215 225 76 220 232 22 228 244 0 244
176 109 169 221 174 213 218 107 208 220 104 213 225 69 221 228 41 224 234 29 231 244 0 244 255 0 255 255 0 255 255 0 255 255 0 255
255 2 255 254 3 254 255 2 254 254 0 254 255 0 255 255 0 255 255 0 255 255 0 255 255 0 255 255 0 255 255 0 255 255 0 255
255 0 255 255 0 255 255 0 255 255 0 255 255 0 255 255 0 255 255 0 255 255 0 255 255 0 255 255 0 255 255 0 255 255 0 255
255 0 255 255 0 255 255 0 255 255 0 255 255 0 255 255 0 255 255 0 255 255 0 255 255 0 255 255 0 255 255 0 255 255 0 255
255 0 255 255 0 255 255 0 255 255 0 255 255 0 255 255 0 255 255 0 255 255 0 255 255 0 255 255 0 255 255 0 255 255 0 255
255 0 255 255 1 255 254 2 254 254 3 254 254 3 254 255 3 255 255 0 255 255 0 255 255 0 255 255 0 255 255 3 255 227 46 226
213 89 205 213 110 203 212 158 200 214 162 203 219 140 210 195 32 194 122 104 113 204 196 187 240 232 222 240 233 223 229 222 212 213 205 194
220 212 202 241 234 226 239 231 223 239 232 222 243 236 226 245 239 230 246 239 230 249 243 235 250 244 237 243 236 227 215 204 198 204 66 199
133 85 126 209 203 196 252 244 234 245 238 227 240 233 224 236 230 222 216 208 199 213 181 200 211 133 201 217 95 209 228 51 224 240 6 238
255 0 255 255 0 255 255 0 255 255 0 255 254 3 254 255 1 255 253 0 253 254 3 253 253 2 253 254 1 254 255 0 255 255 0 255
255 0 255 255 0 255 255 0 255 255 0 255 255 0 255 255 0 255 255 0 255 255 0 255 255 0 255 255 0 255 255 0 255 255 0 255
255 0 255 255 0 255 255 0 255 255 0 255 255 0 255 255 0 255 255 0 255 255 0 255 255 0 255 255 0 255 255 0 255 255 0 255
255 0 255 255 0 255 255 0 255 255 0 255 255 0 255 255 0 255 255 0 255 255 0 255 255 0 255 255 0 255 254 1 254 254 3 254
255 3 254 255 0 255 255 0 255 255 0 255 255 0 255 255 0 255 245 0 245 242 4 240 234 46 231 238 30 236 231 0 231 154 148 140
250 242 231 240 232 221 246 238 229 250 244 236 255 250 242 187 177 178 38 27 40 22 18 18 124 115 108 217 211 203 245 240 231 234 229 220
197 188 177 214 205 194 226 217 207 224 216 206 228 220 212 229 220 214 224 215 208 228 219 213 232 222 218 234 223 220 246 242 233 228 222 217
79 56 79 34 30 30 185 173 168 243 232 227 236 227 222 239 229 224 239 233 224 248 242 232 252 245 236 244 237 227 235 229 221 214 190 202
207 139 194 216 85 209 233 29 229 250 0 250 255 0 255 255 0 255 255 0 255 255 0 255 255 0 255 255 0 255 255 1 255 254 3 253
254 1 254 255 0 255 255 0 255 255 0 255 255 0 255 255 0 255 255 0 255 255 0 255 255 0 255 255 0 255 255 0 255 255 0 255
255 0 255 255 0 255 255 0 255 255 0 255 255 0 255 255 0 255 255 0 255 255 0 255 255 0 255 255 0 255 255 0 255 255 0 255
255 0 255 255 0 255 255 0 255 255 0 255 255 0 255 255 0 255 255 0 255 254 0 254 254 2 253 255 2 255 255 0 255 255 0 255
255 0 255 244 7 243 232 35 229 222 95 215 217 115 208 218 135 208 207 173 192 211 187 197 230 223 214 224 217 209 197 80 194 94 45 90
174 163 158 236 225 222 228 219 213 225 215 208 223 211 203 233 223 211 177 171 162 57 60 60 12 18 21 77 75 72 190 181 172 220 212 201
233 225 214 234 226 217 236 231 223 236 230 223 236 231 223 232 225 216 230 222 212 229 221 212 232 225 218 228 223 215 216 209 199 223 214 204
190 181 173 48 50 51 62 61 60 200 191 182 230 226 219 215 207 196 226 218 207 227 218 211 228 217 210 233 222 218 235 227 220 243 236 227
247 240 230 244 238 229 220 212 203 208 158 193 217 89 210 244 4 243 221 22 219 208 109 203 223 55 219 235 12 232 255 0 255 255 0 255
255 0 255 255 1 255 254 2 254 255 0 254 255 0 255 255 0 255 255 0 255 255 0 255 255 0 255 255 0 255 255 0 255 255 0 255
255 0 255 255 0 255 255 0 255 255 0 255 255 0 255 255 0 255 255 0 255 255 0 255 255 0 255 255 0 255 255 0 255 255 0 255
255 0 255 255 0 255 255 0 255 255 0 255 255 0 255 255 0 255 255 1 255 255 0 255 255 0 255 255 0 255 238 27 236 217 78 209
202 115 193 204 180 191 225 218 209 247 241 233 249 242 233 250 242 233 245 238 229 242 236 227 232 223 216 240 234 225 236 229 221 70 71 72
32 32 32 175 167 158 233 226 217 226 217 206 230 222 211 228 220 211 236 228 219 239 232 223 138 137 134 11 15 17 29 27 25 167 160 151
247 242 235 241 235 226 242 236 226 243 236 227 242 236 227 243 237 229 247 242 234 244 239 230 239 233 223 239 232 222 236 229 219 225 218 209
232 225 218 224 219 214 48 51 52 44 43 42 195 187 177 240 233 222 233 226 215 233 226 217 229 221 212 229 222 214 223 216 207 220 211 201
226 216 210 229 218 212 234 226 216 244 237 228 252 243 233 215 160 205 156 51 153 179 173 165 238 232 223 198 182 177 199 136 186 218 73 210
235 21 232 255 0 255 255 0 255 255 0 255 254 3 254 254 1 254 255 0 255 255 0 255 255 0 255 255 0 255 255 0 255 255 0 255
255 0 255 255 0 255 255 0 255 255 0 255 255 0 255 255 0 255 255 0 255 255 0 255 255 0 255 255 0 255 255 0 255 255 0 255
255 0 255 255 0 255 255 0 255 255 0 255 255 0 255 254 0 254 255 0 255 254 2 254 225 55 222 210 139 201 211 191 196 235 227 215
242 235 225 222 215 206 220 211 202 233 222 219 228 217 212 224 213 206 230 221 215 228 220 212 225 218 208 225 218 211 225 213 208 215 207 195
56 57 58 52 50 48 218 210 200 252 248 240 248 244 236 252 248 241 245 240 232 238 230 219 247 236 224 206 201 195 60 64 66 28 30 32
172 166 159 252 248 240 250 245 239 251 248 243 251 248 244 250 245 239 249 244 236 247 243 234 244 239 230 243 237 228 243 238 229 240 234 226
236 229 220 246 238 227 222 216 206 33 36 39 64 61 59 223 216 207 244 239 231 240 233 224 243 237 228 246 240 233 242 237 228 235 229 220
233 227 218 227 220 211 221 214 204 227 217 210 228 218 212 253 245 235 147 135 142 29 22 26 181 172 166 245 238 227 249 243 235 248 241 233
220 208 205 206 138 197 217 55 211 243 0 242 255 0 255 255 0 255 255 3 255 254 1 254 255 0 255 255 0 255 255 0 255 255 0 255
255 0 255 255 0 255 255 0 255 255 0 255 255 0 255 255 0 255 255 0 255 255 0 255 255 0 255 255 0 255 255 0 255 255 0 255
255 0 255 255 0 255 255 0 255 255 0 255 254 1 254 255 1 255 245 16 246 169 109 164 221 213 204 245 236 226 241 233 222 230 219 212
224 213 206 217 208 198 215 207 197 229 222 215 229 223 213 231 224 214 239 232 224 241 234 225 242 236 226 245 239 231 235 227 217 242 234 223
227 221 213 47 52 53 108 104 100 246 241 234 243 238 230 244 238 229 246 241 233 245 240 232 234 227 220 248 240 230 227 221 211 51 57 60
44 47 49 218 210 201 238 233 226 228 222 213 246 240 232 244 237 228 240 233 223 239 232 224 239 232 223 239 232 223 240 234 225 240 233 224
237 229 219 232 225 215 245 237 224 187 184 178 23 28 34 131 126 120 251 249 244 246 242 236 248 244 239 250 246 241 250 246 239 249 245 239
247 242 234 241 235 227 239 232 225 233 226 218 226 219 210 216 204 195 228 219 208 73 71 68 37 36 34 203 196 189 217 208 202 224 214 210
237 230 220 246 238 227 237 229 221 210 171 195 210 93 202 234 21 231 255 0 255 255 0 255 255 3 254 255 0 255 255 0 255 255 0 255
255 0 255 255 0 255 255 0 255 255 0 255 255 0 255 255 0 255 255 0 255 255 0 255 255 0 255 255 0 255 255 0 255 255 0 255
255 0 255 255 0 255 255 0 255 253 1 253 255 0 255 253 0 253 216 34 216 88 76 84 95 87 87 155 145 144 197 189 181 229 223 212
231 227 219 221 212 201 238 230 221 241 235 226 242 236 228 244 239 233 248 243 235 252 247 240 249 245 237 244 238 229 236 229 219 230 224 214
250 243 234 185 184 180 27 29 30 179 173 166 219 211 202 209 200 188 229 222 213 237 232 225 237 231 223 227 219 209 243 235 224 189 186 181
14 21 28 110 107 102 231 223 214 222 214 203 225 217 206 227 219 209 230 223 214 235 229 221 234 226 217 231 223 213 227 220 210 233 227 218
233 229 220 230 224 214 232 225 216 255 252 243 116 118 119 26 26 25 194 186 176 241 235 226 234 228 220 238 231 222 243 237 228 244 239 232
245 239 231 242 236 229 239 233 224 236 229 220 237 230 221 233 227 217 232 225 215 228 223 215 63 63 64 99 95 89 231 224 216 229 222 213
224 215 205 224 214 208 232 223 219 241 235 225 246 240 231 216 204 204 212 116 201 228 26 223 255 0 255 255 0 255 255 0 255 255 0 255
255 0 255 255 0 255 255 0 255 255 0 255 255 0 255 255 0 255 255 0 255 255 0 255 255 0 255 255 0 255 255 0 255 255 0 255
255 0 255 255 0 255 255 0 255 255 0 255 248 0 248 251 5 250 95 63 91 84 79 83 27 26 29 16 16 16 54 52 50 109 97 90
175 160 150 235 226 215 244 238 230 238 232 223 242 235 225 244 238 230 246 241 233 246 241 235 243 238 231 238 233 225 234 228 218 237 230 218
229 220 208 242 234 222 68 68 66 76 73 69 224 214 201 212 202 190 207 194 181 195 178 166 199 184 171 215 205 192 205 195 184 215 205 191
44 44 43 26 28 29 203 193 180 215 205 193 211 202 191 212 203 192 212 203 191 214 203 191 215 205 193 213 204 192 213 203 191 223 207 191
221 204 189 223 207 192 220 211 199 227 220 211 205 200 192 19 21 22 119 115 106 227 222 212 228 218 206 228 218 205 231 224 215 233 228 220
234 227 217 240 234 226 242 236 228 239 232 222 236 230 222 237 230 222 234 228 219 249 243 233 196 193 187 17 18 19 175 167 158 254 247 239
244 239 231 240 235 227 231 225 216 224 215 207 229 219 215 234 227 218 243 235 224 211 203 196 204 107 195 255 0 255 255 0 255 255 0 255
255 0 255 255 0 255 255 0 255 255 0 255 255 0 255 255 0 255 255 0 255 255 0 255 255 0 255 255 0 255 255 0 255 255 0 255
255 0 255 254 0 254 254 2 254 191 47 190 103 78 108 116 58 123 39 29 42 35 35 35 73 72 71 94 93 88 11 14 18 3 55 76
30 76 90 85 84 85 205 194 184 241 235 225 227 219 209 230 223 213 231 225 218 224 217 208 223 215 205 225 217 207 212 198 185 189 173 162
172 159 149 194 184 171 121 117 110 19 18 16 152 148 140 188 172 159 107 142 153 48 152 181 37 130 156 144 153 151 223 210 196 122 114 105
43 45 47 38 41 42 156 150 142 205 196 184 192 183 172 202 192 180 217 208 195 218 208 197 216 206 195 216 206 194 213 201 187 129 151 157
113 149 160 120 149 156 191 187 179 203 193 181 200 191 180 32 33 33 63 62 59 199 189 176 173 163 154 192 178 170 212 196 185 223 210 198
215 205 193 220 211 199 225 217 206 230 223 214 235 230 223 237 231 222 237 231 221 229 221 210 250 241 228 107 107 104 57 55 51 234 230 225
236 233 229 248 242 235 250 245 238 248 244 238 239 233 223 225 216 206 222 211 205 233 226 216 242 235 225 255 0 255 255 0 255 255 0 255
255 0 255 255 0 255 255 0 255 255 0 255 255 0 255 255 0 255 255 0 255 255 0 255 255 0 255 255 0 255 255 0 255 255 0 255
254 0 254 255 0 255 243 0 243 46 49 59 72 81 88 82 89 94 91 97 101 62 67 71 53 56 58 47 48 46 44 42 41 46 102 121
57 161 193 55 151 179 90 121 127 197 184 172 204 195 184 202 193 182 212 203 192 217 207 195 216 208 196 222 207 192 92 133 147 55 159 187
48 147 178 105 119 123 53 47 41 15 19 23 13 15 17 28 25 24 34 53 61 79 122 133 128 159 162 179 178 169 122 117 112 12 28 37
34 38 39 23 25 26 30 30 29 158 150 141 199 190 179 186 177 167 200 191 180 207 199 188 207 198 187 215 203 188 167 165 157 61 140 167
90 189 210 51 157 186 51 73 85 70 63 57 48 47 45 15 17 20 30 32 33 88 80 75 58 124 148 68 165 193 71 149 172 172 173 167
215 203 190 212 202 190 214 204 192 215 205 194 215 206 195 217 207 196 221 212 200 229 222 212 239 232 223 209 205 197 35 34 32 167 162 154
190 183 173 227 219 209 238 232 225 242 238 232 243 238 230 240 233 225 237 231 223 228 220 211 220 209 202 255 0 255 255 0 255 255 0 255
255 0 255 255 0 255 255 0 255 255 0 255 255 0 255 255 0 255 255 0 255 255 0 255 255 0 255 255 0 255 255 0 255 255 0 255
254 1 254 255 0 255 252 37 252 118 79 126 25 30 41 50 51 61 86 89 94 87 100 113 80 93 104 75 87 98 51 59 65 55 52 52
56 60 67 50 99 123 26 64 88 116 105 98 200 191 180 203 194 181 195 185 173 198 189 179 203 194 183 188 176 163 128 149 156 142 188 202
127 159 166 42 47 47 13 20 27 39 41 41 58 58 57 55 56 55 19 20 23 39 31 29 131 116 105 116 103 91 20 45 53 15 114 138
42 45 47 89 86 82 36 39 40 53 51 49 183 176 166 194 185 173 194 184 172 198 189 177 198 187 176 182 174 163 191 183 173 200 187 177
185 176 166 65 65 65 0 1 5 40 39 37 62 61 58 30 31 32 39 43 46 19 24 27 89 107 111 136 182 196 96 157 178 123 134 136
193 179 164 194 185 174 207 198 188 215 207 195 216 206 193 211 202 189 211 201 189 215 205 194 216 208 198 230 224 214 59 58 56 76 73 69
188 181 170 203 193 181 222 213 202 228 215 203 233 222 209 238 232 224 240 234 227 244 238 230 239 232 223 255 0 255 255 0 255 255 0 255
255 0 255 255 0 255 255 0 255 255 0 255 255 0 255 255 0 255 255 0 255 255 0 255 255 0 255 255 0 255 255 0 255 255 0 255
255 1 255 253 0 253 255 17 255 180 63 179 31 37 47 24 28 37 33 40 49 42 56 69 53 67 79 71 87 101 90 107 121 98 114 125
71 80 85 43 42 45 30 37 46 15 22 29 77 73 70 185 175 163 176 169 157 194 185 174 204 194 183 187 179 169 210 196 180 212 193 176
86 76 69 15 23 32 74 78 79 163 158 149 182 177 169 172 167 159 123 120 115 20 23 26 26 31 37 31 33 38 23 32 37 48 55 57
100 98 95 97 97 95 33 34 34 3 4 6 67 65 61 121 115 107 122 117 111 141 135 127 151 143 134 152 145 136 171 162 151 178 167 154
80 77 70 6 5 5 103 100 97 146 142 137 114 110 106 126 123 118 69 70 70 11 14 17 50 45 44 192 177 165 211 193 179 193 181 168
187 178 166 200 191 180 194 185 174 197 188 176 198 188 176 190 181 170 184 176 167 194 186 175 203 195 183 97 95 91 14 17 19 4 6 7
23 23 23 76 74 71 158 150 141 141 149 146 161 164 159 210 197 186 222 210 197 226 219 209 236 229 219 255 0 255 255 0 255 255 0 255
255 0 255 255 0 255 255 0 255 255 0 255 255 0 255 255 0 255 255 0 255 255 0 255 255 0 255 255 0 255 255 0 255 255 0 255
254 0 254 255 0 255 243 0 243 64 49 73 54 57 66 17 18 22 9 12 15 19 26 33 30 41 52 45 61 76 51 70 86 70 87 102
88 104 118 79 92 102 46 56 63 28 37 45 22 29 37 63 62 60 104 100 93 107 101 96 103 98 94 88 85 82 94 91 87 78 77 75
10 14 18 41 43 44 161 155 147 93 91 86 26 26 26 22 21 20 76 74 70 104 103 101 24 28 31 56 56 58 91 88 85 86 86 85
67 72 74 13 15 15 15 20 27 43 55 67 26 37 50 25 34 44 13 18 23 17 24 31 24 28 32 28 30 31 40 41 42 37 37 38
5 7 10 76 75 73 91 90 86 35 34 33 58 57 55 34 34 32 100 100 99 34 35 36 15 20 26 80 78 74 137 132 123 136 128 119
152 145 136 170 163 154 184 174 162 181 171 160 193 184 172 192 183 172 190 182 172 190 182 170 71 70 68 13 15 19 66 65 62 115 113 109
96 97 95 41 42 40 7 5 6 37 119 146 66 184 213 64 149 178 149 153 152 218 204 189 213 203 192 255 0 255 255 0 255 255 0 255
255 0 255 255 0 255 255 0 255 255 0 255 255 0 255 255 0 255 255 0 255 255 0 255 255 0 255 255 0 255 255 0 255 255 0 255
254 0 254 253 1 254 248 3 248 99 50 108 56 65 74 52 55 59 47 51 60 45 54 63 23 33 43 20 30 39 33 44 54 44 60 75
38 55 72 46 62 77 68 83 96 40 45 50 20 25 29 22 32 42 12 18 25 4 11 18 9 19 28 4 12 20 0 0 1 16 19 23
13 16 20 73 72 71 95 93 91 11 13 15 109 106 102 118 116 112 14 13 13 86 85 84 57 59 58 52 53 53 81 82 82 47 50 51
16 21 24 30 34 37 48 54 57 34 39 42 30 40 51 26 37 46 22 31 40 26 38 50 17 25 33 14 23 31 14 22 31 2 3 7
26 29 31 95 94 91 29 31 32 92 91 88 130 128 124 56 53 50 36 37 36 57 57 57 9 13 18 18 22 26 16 20 24 24 28 34
23 27 31 43 45 46 53 53 53 58 58 58 98 95 93 103 100 96 136 132 125 73 72 69 14 18 24 84 83 82 115 114 110 65 67 66
55 55 54 96 94 89 42 43 42 44 48 50 155 178 181 110 163 182 122 142 150 205 192 177 202 194 183 255 0 255 255 0 255 255 0 255
255 0 255 255 0 255 255 0 255 255 0 255 255 0 255 255 0 255 255 0 255 255 0 255 255 0 255 255 0 255 255 0 255 255 0 255
255 0 255 254 0 254 255 0 255 245 10 244 138 34 144 55 47 70 45 55 65 63 73 84 58 68 78 37 45 54 15 20 25 13 20 26
32 44 56 51 67 83 49 68 85 51 66 81 51 62 74 28 37 46 31 37 42 57 68 75 51 62 71 49 58 66 59 69 76 114 117 114
46 47 45 73 73 74 43 43 45 43 43 43 54 55 58 54 58 63 60 60 60 50 50 50 56 56 55 31 31 31 36 37 37 22 26 31
40 49 56 66 80 92 82 96 107 76 90 102 67 82 95 65 78 90 62 75 86 65 78 89 61 74 85 33 41 46 73 76 74 73 74 71
33 34 36 71 70 69 33 35 39 66 67 68 31 35 39 61 61 62 33 34 34 52 53 53 42 44 45 66 70 73 26 32 36 23 35 44
21 33 43 13 22 32 13 24 35 15 26 38 15 27 40 4 9 14 6 6 6 4 9 15 32 33 33 100 99 97 31 30 31 99 95 89
106 103 98 20 20 20 76 76 74 14 13 13 116 104 97 213 195 178 208 196 182 197 189 178 192 183 171 255 0 255 255 0 255 255 0 255
255 0 255 255 0 255 255 0 255 254 0 254 255 0 255 255 0 255 255 0 255 255 0 255 255 0 255 255 0 255 255 0 255 255 0 255
255 0 255 255 0 255 255 0 255 255 0 255 255 0 255 237 13 236 124 33 126 17 22 27 28 33 41 44 54 64 58 68 77 46 52 57
11 18 26 17 23 29 46 60 72 35 49 63 41 54 69 34 42 47 58 67 75 89 105 117 70 87 102 72 90 107 55 70 85 59 75 88
40 48 55 44 44 46 49 51 52 22 24 26 69 69 70 75 78 81 35 36 38 55 56 56 29 30 31 5 4 5 19 22 24 60 77 92
47 61 75 37 51 64 36 52 68 41 56 70 42 58 73 46 63 80 52 70 87 50 66 83 47 61 75 30 38 44 45 54 63 55 66 78
21 26 32 56 56 58 25 27 29 38 40 43 80 79 78 35 37 39 57 59 59 41 44 46 49 63 75 62 78 92 58 68 76 72 85 96
74 89 102 67 81 93 65 80 92 55 69 78 41 50 56 36 41 46 75 78 80 59 59 57 42 42 43 49 51 52 31 31 32 67 69 70
58 61 64 52 52 51 51 51 51 33 35 36 21 23 25 57 57 57 85 83 80 112 107 101 145 137 129 255 0 255 255 0 255 255 0 255
255 0 255 255 0 255 255 0 255 255 0 255 255 0 255 255 0 255 255 0 255 255 0 255 255 0 255 255 0 255 255 0 255 255 0 255
255 0 255 255 0 255 255 0 255 254 0 254 251 1 251 255 0 255 242 19 241 42 42 48 22 25 31 17 22 28 32 40 48 69 72 73
57 63 66 21 25 29 5 8 12 44 58 71 35 40 45 45 55 64 44 60 74 37 50 63 19 27 35 19 28 37 23 32 42 28 37 48
8 12 18 21 24 29 62 64 66 45 48 47 33 35 35 32 34 33 49 50 49 65 67 67 14 18 24 26 35 43 44 53 61 38 50 61
35 47 58 16 23 30 21 29 37 18 25 31 17 24 31 18 26 34 19 26 33 17 22 27 12 17 22 24 30 37 38 49 61 19 23 28
3 4 6 35 37 41 57 59 59 41 43 43 33 35 37 53 53 52 62 63 63 7 10 12 26 39 51 41 57 72 31 42 51 37 52 66
40 56 73 39 55 71 40 55 70 40 54 68 57 73 87 43 53 61 56 65 76 56 64 73 27 31 36 55 55 56 18 20 21 45 49 51
57 58 59 33 35 35 59 59 59 23 26 27 21 22 22 8 16 24 10 20 31 6 12 20 17 23 28 255 0 255 255 0 255 255 0 255
255 0 255 255 0 255 255 0 255 248 12 248 255 0 255 254 0 254 255 0 255 255 0 255 255 0 255 255 0 255 255 0 255 255 0 255
255 0 255 255 0 255 255 0 255 255 0 255 255 0 255 252 1 252 255 0 255 119 43 127 55 63 72 39 37 43 4 7 10 5 6 8
62 64 65 76 82 86 20 26 31 10 16 23 23 29 36 51 63 76 41 54 67 6 11 16 7 12 17 26 44 57 9 14 18 1 4 7
23 28 32 19 21 24 37 39 42 73 74 75 68 68 67 61 61 59 60 61 60 21 22 24 8 10 13 25 30 34 43 54 64 21 29 38
7 9 12 5 9 13 20 30 40 25 37 49 22 33 46 22 31 43 17 25 34 9 14 20 19 27 35 14 20 25 13 17 21 5 6 7
12 14 16 17 20 23 27 30 33 53 54 54 58 57 56 37 38 38 9 11 13 34 34 34 15 18 20 21 29 35 15 22 29 15 22 30
15 22 28 12 17 23 11 16 20 12 18 24 15 22 29 25 33 41 33 42 51 20 26 32 3 5 6 39 40 43 58 60 60 38 41 41
38 40 40 63 63 61 37 39 41 23 30 37 69 79 87 58 69 78 53 67 79 41 52 61 32 41 47 255 0 255 255 0 255 255 0 255
255 0 255 255 0 255 255 0 255 205 39 205 255 0 255 253 1 253 255 0 255 255 0 255 255 0 255 255 0 255 255 0 255 255 0 255
255 0 255 255 0 255 255 0 255 255 0 255 255 0 255 254 1 254 254 0 254 221 12 222 44 50 59 49 51 60 38 40 44 13 16 21
18 26 35 25 30 38 28 34 42 14 18 22 10 14 20 14 20 26 21 23 23 37 35 32 39 45 48 33 57 75 52 58 62 52 53 54
52 51 49 60 60 59 0 1 2 21 23 26 33 35 36 32 32 34 19 21 22 14 17 20 24 28 34 32 36 40 10 13 17 16 22 29
32 40 48 33 38 44 34 42 49 35 43 49 36 44 51 42 51 59 45 55 64 33 40 47 36 42 46 22 29 35 16 22 28 23 29 34
62 60 58 25 29 33 27 29 32 29 29 29 29 30 30 14 14 14 10 12 15 32 34 37 18 21 23 15 19 25 19 27 36 23 30 37
23 29 35 29 36 44 30 39 46 21 30 39 15 21 26 8 12 15 11 15 21 14 18 22 29 32 35 10 12 16 41 43 46 61 61 62
61 62 62 35 36 37 2 3 5 22 30 40 40 57 73 35 45 57 30 43 54 30 43 56 42 57 72 255 0 255 255 0 255 255 0 255
255 0 255 255 0 255 255 0 255 250 5 250 255 0 255 255 0 255 255 0 255 255 0 255 255 0 255 255 0 255 255 0 255 255 0 255
255 0 255 255 0 255 255 0 255 255 0 255 255 0 255 255 0 255 254 1 254 255 0 255 168 34 172 45 54 63 71 70 79 54 52 54
14 17 19 5 10 17 28 37 46 26 33 39 59 60 60 26 28 30 33 36 39 77 78 78 66 69 71 51 59 67 60 69 77 57 64 69
8 10 12 58 58 56 23 24 24 34 36 38 42 42 41 58 58 57 32 36 40 22 24 28 69 68 66 21 22 23 40 45 50 45 49 52
44 49 53 56 67 76 47 61 74 46 59 72 46 60 74 48 63 77 42 56 69 39 49 59 60 69 78 28 32 37 27 27 27 35 37 38
72 72 70 14 16 19 47 48 47 44 43 41 45 45 44 38 38 38 53 52 50 21 22 24 31 39 46 39 48 58 47 52 58 46 54 61
48 58 67 51 63 73 55 67 78 43 53 63 46 52 59 28 32 35 10 13 17 56 57 59 58 59 58 11 14 19 36 37 38 20 20 21
16 18 20 16 16 17 44 43 42 26 27 30 9 12 14 12 14 17 11 14 18 19 25 31 22 29 36 255 0 255 255 0 255 255 0 255
255 0 255 255 0 255 255 0 255 255 0 255 255 0 255 255 0 255 255 0 255 255 0 255 255 0 255 255 0 255 255 0 255 255 0 255
255 0 255 255 0 255 255 0 255 255 0 255 255 0 255 255 0 255 255 0 255 251 0 252 255 0 255 150 37 154 43 50 58 36 43 53
47 48 52 33 32 29 13 15 16 4 5 6 36 36 37 35 37 39 4 9 14 13 19 27 23 31 39 28 39 51 4 7 11 0 0 0
38 37 35 91 91 88 15 17 20 81 80 77 43 44 43 36 38 38 64 65 64 16 19 22 52 54 55 41 39 37 28 35 45 39 43 55
33 35 46 23 23 31 28 29 37 32 35 46 32 35 46 25 27 37 18 18 27 20 20 28 23 30 39 13 17 22 43 45 46 80 78 77
30 31 32 14 15 16 76 80 82 41 49 55 56 63 68 34 37 39 16 17 19 53 51 50 21 24 35 29 30 39 32 31 37 23 28 38
33 39 53 30 35 49 28 31 44 21 23 33 26 35 47 29 35 42 56 55 52 56 54 51 33 33 33 18 19 20 63 64 65 28 31 32
40 41 42 30 33 36 44 46 46 13 13 17 31 32 40 44 44 51 41 42 49 44 43 50 45 43 48 255 0 255 255 0 255 255 0 255
255 0 255 255 0 255 255 0 255 254 0 254 255 0 255 255 0 255 255 0 255 255 0 255 255 0 255 255 0 255 255 0 255 255 0 255
255 0 255 255 0 255 255 0 255 255 0 255 255 0 255 255 0 255 255 0 255 255 0 255 252 1 253 255 0 255 171 29 173 74 38 84
38 43 45 61 59 63 61 59 62 33 32 32 35 36 36 21 24 26 8 11 15 7 10 17 6 13 20 3 7 12 19 20 24 41 44 45
51 50 47 39 42 44 14 14 15 67 74 79 51 62 69 52 61 68 53 57 60 3 4 6 28 28 29 52 55 57 11 19 28 27 36 46
23 30 37 37 46 55 39 49 60 34 44 54 32 42 52 29 38 47 26 32 38 27 35 43 19 27 34 16 16 24 40 41 44 40 42 44
4 6 9 42 44 47 48 58 69 40 54 69 47 60 75 16 17 21 33 29 31 57 60 62 19 27 35 27 35 44 25 32 39 35 45 54
36 45 55 29 37 46 25 31 38 23 32 39 21 29 40 14 11 18 48 47 46 43 45 46 4 4 6 53 54 54 40 48 54 48 56 65
40 42 46 8 11 17 45 42 45 34 34 34 28 34 40 39 47 56 37 44 53 30 37 43 28 32 37 255 0 255 255 0 255 255 0 255
255 0 255 255 0 255 255 0 255 255 0 255 255 0 255 255 0 255 255 0 255 255 0 255 255 0 255 255 0 255 255 0 255 255 0 255
255 0 255 255 0 255 255 0 255 255 0 255 255 0 255 255 0 255 255 0 255 255 0 255 255 0 255 253 0 253 255 0 255 251 10 249
95 43 100 37 43 50 26 32 37 29 37 46 56 60 73 46 45 50 65 63 66 63 62 67 47 45 48 42 42 46 36 43 51 40 47 56
20 23 33 10 12 17 38 39 41 42 51 62 44 51 59 45 52 65 16 19 30 33 30 36 50 52 57 35 43 50 75 40 81 94 33 98
121 20 126 124 26 133 124 24 132 122 22 129 119 19 126 119 19 126 121 21 128 111 23 118 29 36 41 30 39 47 25 30 34 12 9 13
29 26 31 47 47 55 46 42 45 35 40 48 23 31 37 31 36 42 42 49 58 59 50 71 147 43 149 139 39 144 142 41 148 145 44 152
142 41 148 135 36 142 141 40 145 114 43 119 29 34 40 25 31 41 17 19 22 12 10 16 49 46 50 53 54 62 34 35 39 24 32 40
19 23 28 51 52 56 50 55 61 75 37 81 91 22 96 90 28 100 96 29 106 141 42 147 190 24 191 255 0 255 255 0 255 255 0 255
255 0 255 255 0 255 255 0 255 255 0 255 255 0 255 255 0 255 255 0 255 255 0 255 255 0 255 255 0 255 255 0 255 255 0 255
255 0 255 255 0 255 255 0 255 255 0 255 255 0 255 255 0 255 255 0 255 255 0 255 255 0 255 255 0 255 252 1 252 255 0 255
253 5 253 186 18 188 96 31 103 42 42 60 27 37 47 29 37 46 42 50 60 35 41 50 30 37 44 36 44 54 25 28 36 19 24 30
16 22 28 27 28 30 43 48 52 33 38 42 47 48 49 28 37 45 20 28 35 32 45 56 38 46 54 165 38 167 255 1 255 255 0 255
255 0 255 255 0 255 255 0 255 255 0 255 255 0 255 255 0 255 255 0 255 255 0 255 209 22 211 141 49 144 35 32 39 34 39 45
46 53 61 35 43 52 38 47 55 33 38 44 59 22 64 64 35 81 97 45 110 224 19 224 255 0 255 255 0 255 255 0 255 255 0 255
255 0 255 255 0 255 255 0 255 255 0 255 208 30 209 142 32 144 38 29 43 43 49 55 46 53 59 33 42 50 42 50 58 62 26 69
37 40 54 40 49 56 109 42 116 244 11 244 255 0 255 255 0 255 255 0 255 255 0 255 255 0 255 255 0 255 255 0 255 255 0 255
255 0 255 255 0 255 255 0 255 255 0 255 255 0 255 255 0 255 255 0 255 255 0 255 255 0 255 255 0 255 255 0 255 255 0 255
255 0 255 255 0 255 255 0 255 255 0 255 255 0 255 255 0 255 255 0 255 255 0 255 255 0 255 255 0 255 255 0 255 254 0 254
255 0 255 255 0 255 255 0 255 233 9 231 185 11 186 184 11 187 183 11 187 180 7 182 180 6 183 181 9 184 217 6 218 188 17 188
69 42 76 55 47 68 38 31 49 42 35 55 40 34 54 113 27 117 156 13 158 147 14 153 195 21 197 255 0 255 255 0 255 254 0 254
251 0 252 252 1 252 252 1 252 251 1 252 251 1 252 251 1 252 251 1 252 252 1 253 255 0 255 255 0 255 223 23 223 163 28 168
154 17 159 158 21 162 157 21 161 189 26 191 255 1 255 253 0 252 255 0 255 255 0 255 251 0 251 251 0 251 251 0 251 251 0 252
251 0 252 251 0 251 251 0 251 253 0 253 255 0 255 255 0 255 226 25 228 175 41 181 169 30 171 173 37 176 194 33 197 255 9 254
233 12 233 230 21 229 255 0 255 255 0 255 253 1 253 253 1 254 252 1 253 251 0 252 253 1 253 255 0 255 255 0 255 255 0 255
255 0 255 255 0 255 255 0 255 255 0 255 255 0 255 255 0 255 255 0 255 255 0 255 255 0 255 255 0 255 255 0 255 255 0 255
255 0 255 255 0 255 255 0 255 255 0 255 255 0 255 255 0 255 255 0 255 255 0 255 255 0 255 255 0 255 255 0 255 255 0 255
254 0 254 253 1 253 253 0 253 255 0 255 255 0 255 255 0 255 255 0 255 255 0 255 255 0 255 255 0 255 255 0 255 255 0 255
247 3 247 232 0 232 234 0 233 233 0 233 234 1 233 255 0 255 255 0 255 255 0 255 255 0 255 254 0 254 255 0 255 255 0 255
255 0 255 255 0 255 255 0 255 255 0 255 255 0 255 255 0 255 255 0 255 255 0 255 253 1 253 252 0 252 255 0 255 255 0 255
255 0 255 255 0 255 255 0 255 255 0 255 255 0 255 255 0 255 254 0 254 254 1 254 255 0 255 255 0 255 255 0 255 255 0 255
255 0 255 255 0 255 255 0 255 255 0 255 253 0 254 251 0 251 255 0 255 255 0 255 255 0 255 255 0 255 255 0 255 255 0 255
255 0 255 255 0 255 255 0 255 254 0 254 255 0 255 255 0 255 255 0 255 255 0 255 255 0 255 255 0 255 255 0 255 255 0 255
255 0 255 255 0 255 255 0 255 255 0 255 255 0 255 255 0 255 255 0 255 255 0 255 255 0 255 255 0 255 255 0 255 255 0 255
255 0 255 255 0 255 255 0 255 255 0 255 255 0 255 255 0 255 255 0 255 255 0 255 255 0 255 255 0 255 255 0 255 255 0 255
255 0 255 255 0 255 255 0 255 253 0 253 251 0 252 251 0 252 251 0 252 251 0 251 252 0 252 251 0 252 253 0 253 252 0 252
255 0 255 255 0 255 255 0 255 255 0 255 255 0 255 254 0 254 251 0 251 251 1 252 253 1 253 255 0 255 255 0 255 255 0 255
255 0 255 255 0 255 255 0 255 255 0 255 255 0 255 255 0 255 255 0 255 255 0 255 255 0 255 255 0 255 254 1 254 252 1 252
251 1 252 252 1 252 252 1 252 253 1 253 254 0 254 254 0 254 255 0 255 255 0 255 255 0 255 255 0 255 255 0 255 255 0 255
255 0 255 255 0 255 255 0 255 255 0 255 255 0 255 255 0 255 254 1 254 252 1 252 252 1 252 252 1 252 252 1 252 254 0 254
253 1 254 254 1 254 254 0 254 255 0 255 255 0 255 255 0 255 255 0 255 255 0 255 255 0 255 255 0 255 255 0 255 255 0 255
255 0 255 255 0 255 255 0 255 255 0 255 255 0 255 255 0 255 255 0 255 255 0 255 255 0 255 255 0 255 255 0 255 255 0 255
255 0 255 255 0 255 255 0 255 255 0 255 255 0 255 255 0 255 255 0 255 255 0 255 255 0 255 255 0 255 255 0 255 255 0 255
255 0 255 255 0 255 255 0 255 255 0 255 255 0 255 255 0 255 255 0 255 255 0 255 255 0 255 255 0 255 255 0 255 255 0 255
254 0 254 254 0 254 254 0 254 254 0 254 254 0 254 255 0 255 255 0 255 255 0 255 255 0 255 255 0 255 255 0 255 255 0 255
255 0 255 255 0 255 255 0 255 255 0 255 255 0 255 255 0 255 255 0 255 255 0 255 255 0 255 255 0 255 255 0 255 255 0 255
255 0 255 255 0 255 255 0 255 255 0 255 255 0 255 255 0 255 255 0 255 255 0 255 255 0 255 255 0 255 255 0 255 255 0 255
255 0 255 255 0 255 255 0 255 255 0 255 255 0 255 255 0 255 255 0 255 255 0 255 255 0 255 255 0 255 255 0 255 255 0 255
255 0 255 255 0 255 255 0 255 255 0 255 255 0 255 255 0 255 255 0 255 255 0 255 255 0 255 255 0 255 255 0 255 255 0 255
255 0 255 255 0 255 255 0 255 255 0 255 255 0 255 255 0 255 255 0 255 255 0 255 255 0 255 255 0 255 255 0 255 255 0 255
255 0 255 255 0 255 255 0 255 255 0 255 255 0 255 255 0 255 255 0 255 255 0 255 255 0 255 255 0 255 255 0 255 255 0 255
255 0 255 255 0 255 255 0 255 255 0 255 255 0 255 255 0 255 255 0 255 255 0 255 255 0 255 255 0 255 255 0 255 255 0 255
255 0 255 255 0 255 255 0 255 255 0 255 255 0 255 255 0 255 255 0 255 255 0 255 255 0 255 255 0 255 255 0 255 255 0 255
255 0 255 255 0 255 255 0 255 255 0 255 255 0 255 255 0 255 255 0 255 255 0 255 255 0 255 255 0 255 255 0 255 255 0 255
255 0 255 255 0 255 255 0 255 255 0 255 255 0 255 255 0 255 255 0 255 255 0 255 255 0 255 255 0 255 255 0 255 255 0 255
255 0 255 255 0 255 255 0 255 255 0 255 255 0 255 255 0 255 255 0 255 255 0 255 255 0 255 255 0 255 255 0 255 255 0 255
255 0 255 255 0 255 255 0 255 255 0 255 255 0 255 255 0 255 255 0 255 255 0 255 255 0 255 255 0 255 255 0 255 255 0 255
255 0 255 255 0 255 255 0 255 255 0 255 255 0 255 255 0 255 255 0 255 255 0 255 255 0 255 255 0 255 255 0 255 255 0 255
255 0 255 255 0 255 255 0 255 255 0 255 255 0 255 255 0 255 255 0 255 255 0 255 255 0 255 255 0 255 255 0 255 255 0 255
255 0 255 255 0 255 255 0 255 255 0 255 255 0 255 255 0 255 255 0 255 255 0 255 255 0 255 255 0 255 255 0 255 255 0 255
255 0 255 255 0 255 255 0 255 255 0 255 255 0 255 255 0 255 255 0 255 255 0 255 255 0 255 255 0 255 255 0 255 255 0 255
255 0 255 255 0 255 255 0 255 255 0 255 255 0 255 255 0 255 255 0 255 255 0 255 255 0 255 255 0 255 255 0 255 255 0 255
255 0 255 255 0 255 255 0 255 255 0 255 255 0 255 255 0 255 255 0 255 255 0 255 255 0 255 255 0 255 255 0 255 255 0 255
255 0 255 255 0 255 255 0 255 255 0 255 255 0 255 255 0 255 255 0 255 255 0 255 255 0 255 255 0 255 255 0 255 255 0 255
255 0 255 255 0 255 255 0 255 255 0 255 255 0 255 255 0 255 255 0 255 255 0 255 255 0 255 255 0 255 255 0 255 255 0 255
255 0 255 255 0 255 255 0 255 255 0 255 255 0 255 255 0 255 255 0 255 255 0 255 255 0 255 255 0 255 255 0 255 255 0 255
255 0 255 255 0 255 255 0 255 255 0 255 255 0 255 255 0 255 255 0 255 255 0 255 255 0 255 255 0 255 255 0 255 255 0 255
255 0 255 255 0 255 255 0 255 255 0 255 255 0 255 255 0 255 255 0 255 255 0 255 255 0 255 255 0 255 255 0 255 255 0 255
255 0 255 255 0 255 255 0 255 255 0 255 255 0 255 255 0 255 255 0 255 255 0 255 255 0 255 255 0 255 255 0 255 255 0 255
255 0 255 255 0 255 255 0 255 255 0 255 255 0 255 255 0 255 255 0 255 255 0 255 255 0 255 255 0 255 255 0 255 255 0 255
255 0 255 255 0 255 255 0 255 255 0 255 255 0 255 255 0 255 255 0 255 255 0 255 255 0 255 255 0 255 255 0 255 255 0 255
255 0 255 255 0 255 255 0 255 255 0 255 255 0 255 255 0 255 255 0 255 255 0 255 255 0 255 255 0 255 255 0 255 255 0 255
255 0 255 255 0 255 255 0 255 255 0 255 255 0 255 255 0 255 255 0 255 255 0 255 255 0 255 255 0 255 255 0 255 255 0 255
255 0 255 255 0 255 255 0 255 255 0 255 255 0 255 255 0 255 255 0 255 255 0 255 255 0 255 255 0 255 255 0 255 255 0 255
255 0 255 255 0 255 255 0 255 255 0 255 255 0 255 255 0 255 255 0 255 255 0 255 255 0 255 255 0 255 255 0 255 255 0 255
255 0 255 255 0 255 255 0 255 255 0 255 255 0 255 255 0 255 255 0 255 255 0 255 255 0 255 255 0 255 255 0 255 255 0 255
255 0 255 255 0 255 255 0 255 255 0 255 255 0 255 255 0 255 255 0 255 255 0 255 255 0 255 255 0 255 255 0 255 255 0 255
255 0 255 255 0 255 255 0 255 255 0 255 255 0 255 255 0 255 255 0 255 255 0 255 255 0 255 255 0 255 255 0 255 255 0 255
255 0 255 255 0 255 255 0 255 255 0 255 255 0 255 255 0 255 255 0 255 255 0 255 255 0 255 255 0 255 255 0 255 255 0 255
255 0 255 255 0 255 255 0 255 255 0 255 255 0 255 255 0 255 255 0 255 255 0 255 255 0 255 255 0 255 255 0 255 255 0 255
255 0 255 255 0 255 255 0 255 255 0 255 255 0 255 255 0 255 255 0 255 255 0 255 255 0 255 255 0 255 255 0 255 255 0 255
255 0 255 255 0 255 255 0 255 255 0 255 255 0 255 255 0 255 255 0 255 255 0 255 255 0 255 255 0 255 255 0 255 255 0 255
255 0 255 255 0 255 255 0 255 255 0 255 255 0 255 255 0 255 255 0 255 255 0 255 255 0 255 255 0 255 255 0 255 255 0 255
255 0 255 255 0 255 255 0 255 255 0 255 255 0 255 255 0 255 255 0 255 255 0 255 255 0 255 255 0 255 255 0 255 255 0 255
255 0 255 255 0 255 255 0 255 255 0 255 255 0 255 255 0 255 255 0 255 255 0 255 255 0 255 255 0 255 255 0 255 255 0 255
255 0 255 255 0 255 255 0 255 255 0 255 255 0 255 255 0 255 255 0 255 255 0 255 255 0 255 255 0 255 255 0 255 255 0 255
255 0 255 255 0 255 255 0 255 255 0 255 255 0 255 255 0 255 255 0 255 255 0 255 255 0 255 255 0 255 255 0 255 255 0 255
255 0 255 255 0 255 255 0 255 255 0 255 255 0 255 255 0 255 255 0 255 255 0 255 255 0 255 255 0 255 255 0 255 255 0 255
255 0 255 255 0 255 255 0 255 255 0 255 255 0 255 255 0 255 255 0 255 255 0 255 255 0 255 255 0 255 255 0 255 255 0 255
255 0 255 255 0 255 255 0 255 255 0 255 255 0 255 255 0 255 255 0 255 255 0 255 255 0 255 255 0 255 255 0 255 255 0 255
255 0 255 255 0 255 255 0 255 255 0 255 255 0 255 255 0 255 255 0 255 255 0 255 255 0 255 255 0 255 255 0 255 255 0 255
255 0 255 255 0 255 255 0 255 255 0 255 255 0 255 255 0 255 255 0 255 255 0 255 255 0 255 255 0 255 255 0 255 255 0 255
255 0 255 255 0 255 255 0 255 255 0 255 255 0 255 255 0 255 255 0 255 255 0 255 255 0 255 255 0 255 255 0 255 255 0 255
255 0 255 255 0 255 255 0 255 255 0 255 255 0 255 255 0 255 255 0 255 255 0 255 255 0 255 255 0 255 255 0 255 255 0 255
255 0 255 255 0 255 255 0 255 255 0 255 255 0 255 255 0 255 255 0 255 255 0 255 255 0 255 255 0 255 255 0 255 255 0 255
255 0 255 255 0 255 255 0 255 255 0 255 255 0 255 255 0 255 255 0 255 255 0 255 255 0 255 255 0 255 255 0 255 255 0 255
255 0 255 255 0 255 255 0 255 255 0 255 255 0 255 255 0 255 255 0 255 255 0 255 255 0 255 255 0 255 255 0 255 255 0 255
255 0 255 255 0 255 255 0 255 255 0 255 255 0 255 255 0 255 255 0 255 255 0 255 255 0 255 255 0 255 255 0 255 255 0 255
255 0 255 255 0 255 255 0 255 255 0 255 255 0 255 255 0 255 255 0 255 255 0 255 255 0 255 255 0 255 255 0 255 255 0 255
255 0 255 255 0 255 255 0 255 255 0 255 255 0 255 255 0 255 255 0 255 255 0 255 255 0 255 255 0 255 255 0 255 255 0 255
255 0 255 255 0 255 255 0 255 255 0 255 255 0 255 255 0 255 255 0 255 255 0 255 255 0 255 255 0 255 255 0 255 255 0 255
255 0 255 255 0 255 255 0 255 255 0 255 255 0 255 255 0 255 255 0 255 255 0 255 255 0 255 255 0 255 255 0 255 255 0 255
255 0 255 255 0 255 255 0 255 255 0 255 255 0 255 255 0 255 255 0 255 255 0 255 255 0 255 255 0 255 255 0 255 255 0 255
255 0 255 255 0 255 255 0 255 255 0 255 255 0 255 255 0 255 255 0 255 255 0 255 255 0 255 255 0 255 255 0 255 255 0 255
255 0 255 255 0 255 255 0 255 255 0 255 255 0 255 255 0 255 255 0 255 255 0 255 255 0 255 255 0 255 255 0 255 255 0 255
255 0 255 255 0 255 255 0 255 255 0 255 255 0 255 255 0 255 255 0 255 255 0 255 255 0 255 255 0 255 255 0 255 255 0 255
255 0 255 255 0 255 255 0 255 255 0 255 255 0 255 255 0 255 255 0 255 255 0 255 255 0 255 255 0 255 255 0 255 255 0 255
255 0 255 255 0 255 255 0 255 255 0 255 255 0 255 255 0 255 255 0 255 255 0 255 255 0 255 255 0 255 255 0 255 255 0 255
255 0 255 255 0 255 255 0 255 255 0 255 255 0 255 255 0 255 255 0 255 255 0 255 255 0 255 255 0 255 255 0 255 255 0 255
255 0 255 255 0 255 255 0 255 255 0 255 255 0 255 255 0 255 255 0 255 255 0 255 255 0 255 255 0 255 255 0 255 255 0 255
255 0 255 255 0 255 255 0 255 255 0 255 255 0 255 255 0 255 255 0 255 255 0 255 255 0 255 255 0 255 255 0 255 255 0 255
255 0 255 255 0 255 255 0 255 255 0 255 255 0 255 255 0 255 255 0 255 255 0 255 255 0 255 255 0 255 255 0 255 255 0 255
255 0 255 255 0 255 255 0 255 255 0 255 255 0 255 255 0 255 255 0 255 255 0 255 255 0 255 255 0 255 255 0 255 255 0 255
255 0 255 255 0 255 255 0 255 255 0 255 255 0 255 255 0 255 255 0 255 255 0 255 255 0 255 255 0 255 255 0 255 255 0 255
255 0 255 255 0 255 255 0 255 255 0 255 255 0 255 255 0 255 255 0 255 255 0 255 255 0 255 255 0 255 255 0 255 255 0 255
255 0 255 255 0 255 255 0 255 255 0 255 255 0 255 255 0 255 255 0 255 255 0 255 255 0 255 255 0 255 255 0 255 255 0 255
255 0 255 255 0 255 255 0 255 255 0 255 255 0 255 255 0 255 255 0 255 255 0 255 255 0 255 255 0 255 255 0 255 255 0 255
255 0 255 255 0 255 255 0 255 255 0 255 255 0 255 255 0 255 255 0 255 255 0 255 255 0 255 255 0 255 255 0 255 255 0 255
255 0 255 255 0 255 255 0 255 255 0 255 255 0 255 255 0 255 255 0 255 255 0 255 255 0 255 255 0 255 255 0 255 255 0 255
255 0 255 255 0 255 255 0 255 255 0 255 255 0 255 255 0 255 255 0 255 255 0 255 255 0 255 255 0 255 255 0 255 255 0 255
255 0 255 255 0 255 255 0 255 255 0 255 255 0 255 255 0 255 255 0 255 255 0 255 255 0 255 255 0 255 255 0 255 255 0 255
255 0 255 255 0 255 255 0 255 255 0 255 255 0 255 255 0 255 255 0 255 255 0 255 255 0 255 255 0 255 255 0 255 255 0 255
255 0 255 255 0 255 255 0 255 255 0 255 255 0 255 255 0 255 255 0 255 255 0 255 255 0 255 255 0 255 255 0 255 255 0 255
255 0 255 255 0 255 255 0 255 255 0 255 255 0 255 255 0 255 255 0 255 255 0 255 255 0 255 255 0 255 255 0 255 255 0 255
255 0 255 255 0 255 255 0 255 255 0 255 255 0 255 255 0 255 255 0 255 255 0 255 255 0 255 255 0 255 255 0 255 255 0 255
255 0 255 255 0 255 255 0 255 255 0 255 255 0 255 255 0 255 255 0 255 255 0 255 255 0 255 255 0 255 255 0 255 255 0 255
255 0 255 255 0 255 255 0 255 255 0 255 255 0 255 255 0 255 255 0 255 255 0 255 255 0 255 255 0 255 255 0 255 255 0 255
255 0 255 255 0 255 255 0 255 255 0 255 255 0 255 255 0 255 255 0 255 255 0 255 255 0 255 255 0 255 255 0 255 255 0 255
255 0 255 255 0 255 255 0 255 255 0 255 255 0 255 255 0 255 255 0 255 255 0 255 255 0 255 255 0 255 255 0 255 255 0 255
255 0 255 255 0 255 255 0 255 255 0 255 255 0 255 255 0 255 255 0 255 255 0 255 255 0 255 255 0 255 255 0 255 255 0 255
255 0 255 255 0 255 255 0 255 255 0 255 255 0 255 255 0 255 255 0 255 255 0 255 255 0 255 255 0 255 255 0 255 255 0 255
255 0 255 255 0 255 255 0 255 255 0 255 255 0 255 255 0 255 255 0 255 255 0 255 255 0 255 255 0 255 255 0 255 255 0 255
255 0 255 255 0 255 255 0 255 255 0 255 255 0 255 255 0 255 255 0 255 255 0 255 255 0 255 255 0 255 255 0 255 255 0 255
255 0 255 255 0 255 255 0 255 255 0 255 255 0 255 255 0 255 255 0 255 255 0 255 255 0 255 255 0 255 255 0 255 255 0 255
255 0 255 255 0 255 255 0 255 255 0 255 255 0 255 255 0 255 255 0 255 255 0 255 255 0 255 255 0 255 255 0 255 255 0 255
255 0 255 255 0 255 255 0 255 255 0 255 255 0 255 255 0 255 255 0 255 255 0 255 255 0 255 255 0 255 255 0 255 255 0 255
255 0 255 255 0 255 255 0 255 255 0 255 255 0 255 255 0 255 255 0 255 255 0 255 255 0 255 255 0 255 255 0 255 255 0 255
255 0 255 255 0 255 255 0 255 255 0 255 255 0 255 255 0 255 255 0 255 255 0 255 255 0 255 255 0 255 255 0 255 255 0 255
255 0 255 255 0 255 255 0 255 255 0 255 255 0 255 255 0 255 255 0 255 255 0 255 255 0 255 255 0 255 255 0 255 255 0 255
255 0 255 255 0 255 255 0 255 255 0 255 255 0 255 255 0 255 255 0 255 255 0 255 254 1 254 255 0 255 255 0 255 255 2 255
254 1 254 255 0 255 255 0 255 255 0 255 255 0 255 255 0 255 255 0 255 255 0 255 255 0 255 255 0 255 255 0 255 255 0 255
255 0 255 255 0 255 255 0 255 255 0 255 255 0 255 255 0 255 255 0 255 255 0 255 255 0 255 255 0 255 255 0 255 255 0 255
255 0 255 255 0 255 255 0 255 255 0 255 255 0 255 255 0 255 255 0 255 255 0 255 255 0 255 255 0 255 255 0 255 255 0 255
255 0 255 255 0 255 255 0 255 255 0 255 255 0 255 255 0 255 255 0 255 255 0 255 255 0 255 255 0 255 255 0 255 255 0 255
255 0 255 255 0 255 255 0 255 255 0 255 255 0 255 255 0 255 255 0 255 255 0 255 255 0 255 255 0 255 255 0 255 255 0 255
255 0 255 255 0 255 255 0 255 255 0 255 255 0 255 255 0 255 255 0 255 255 0 255 255 0 255 255 0 255 255 0 255 255 0 255
255 0 255 255 0 255 255 0 255 255 0 255 255 0 255 255 0 255 255 0 255 255 0 255 255 0 255 255 0 255 255 0 255 255 0 255
255 0 255 255 0 255 255 0 255 255 0 255 255 0 255 255 0 255 255 0 255 255 0 255 255 0 255 253 0 253 253 0 253 255 0 255
255 0 255 255 0 255 255 0 255 255 0 255 255 0 255 255 0 255 255 0 255 255 0 255 255 0 255 255 0 255 255 0 255 255 0 255
255 0 255 255 0 255 255 0 255 255 0 255 255 0 255 255 0 255 255 0 255 255 0 255 255 0 255 255 0 255 255 0 255 255 0 255
255 0 255 255 0 255 255 0 255 255 0 255 255 0 255 255 0 255 255 0 255 255 0 255 255 0 255 255 0 255 255 0 255 255 0 255
255 0 255 255 0 255 255 0 255 255 0 255 255 0 255 255 0 255 255 0 255 255 0 255 255 0 255 255 0 255 255 0 255 255 0 255
255 0 255 255 0 255 255 0 255 255 0 255 255 0 255 255 0 255 255 0 255 255 0 255 255 0 255 255 0 255 255 0 255 255 0 255
255 0 255 255 0 255 255 0 255 255 0 255 255 0 255 255 0 255 255 0 255 255 0 255 255 0 255 255 0 255 255 0 255 255 0 255
255 0 255 255 0 255 255 0 255 255 0 255 255 0 255 255 0 255 255 0 255 255 0 255 255 0 255 255 0 255 255 0 255 255 0 255
255 0 255 255 0 255 255 0 255 255 0 255 255 0 255 255 0 255 254 1 254 255 0 255 218 36 216 202 149 194 212 156 201 216 105 207
231 27 227 252 3 251 255 1 254 255 0 255 255 0 255 255 0 255 255 0 255 255 0 255 255 0 255 255 0 255 255 0 255 255 0 255
255 0 255 255 0 255 255 0 255 255 0 255 255 0 255 255 0 255 255 0 255 255 0 255 255 0 255 255 0 255 255 0 255 255 0 255
255 0 255 255 0 255 255 0 255 255 0 255 255 0 255 255 0 255 255 0 255 255 0 255 255 0 255 255 0 255 255 0 255 255 0 255
255 0 255 255 0 255 255 0 255 255 0 255 255 0 255 255 0 255 255 0 255 255 0 255 255 0 255 255 0 255 255 0 255 255 0 255
255 0 255 255 0 255 255 0 255 255 0 255 255 0 255 255 0 255 255 0 255 255 0 255 255 0 255 255 0 255 255 0 255 255 0 255
255 0 255 255 0 255 255 0 255 255 0 255 255 0 255 255 0 255 255 0 255 255 0 255 255 0 255 255 0 255 255 0 255 255 0 255
255 0 255 255 0 255 255 0 255 255 0 255 255 0 255 255 0 255 255 0 255 255 0 255 255 0 255 255 0 255 255 0 255 255 0 255
255 0 255 255 0 255 255 0 255 255 0 255 255 0 255 255 0 255 255 0 255 255 0 255 255 0 255 255 0 255 255 0 255 255 0 255
255 0 255 255 0 255 255 0 255 255 0 255 255 0 255 255 0 255 255 0 255 255 0 255 255 0 255 255 0 255 255 0 255 255 0 255
255 0 255 255 0 255 255 0 255 255 0 255 255 0 255 255 0 255 255 0 255 255 0 255 255 0 255 255 0 255 255 0 255 255 0 255
255 0 255 255 0 255 255 0 255 255 0 255 255 0 255 255 0 255 255 0 255 255 0 255 255 0 255 255 0 255 255 0 255 255 0 255
255 0 255 255 0 255 255 0 255 255 0 255 255 0 255 255 0 255 255 0 255 255 0 255 255 0 255 255 0 255 255 0 255 255 0 255
255 0 255 255 0 255 255 0 255 255 0 255 255 0 255 255 0 255 255 0 255 255 0 255 255 0 255 255 0 255 255 0 255 255 0 255
255 0 255 255 0 255 255 0 255 255 0 255 255 0 255 255 0 255 255 0 255 255 0 255 255 0 255 255 0 255 255 0 255 255 0 255
255 0 255 255 0 255 255 0 255 255 0 255 255 0 255 255 0 255 255 0 255 255 0 255 255 0 255 255 0 255 255 0 255 255 0 255
255 0 255 255 0 255 255 0 255 255 0 255 255 0 255 255 0 255 255 0 255 255 0 255 255 0 255 255 0 255 255 0 255 255 0 255
255 0 255 255 0 255 255 0 255 255 0 255 255 0 255 255 0 255 255 0 255 255 0 255 255 0 255 255 0 255 255 0 255 255 0 255
255 0 255 255 0 255 255 0 255 255 0 255 255 0 255 255 0 255 255 0 255 255 0 255 255 0 255 255 0 255 255 0 255 255 0 255
255 0 255 255 0 255 255 0 255 255 0 255 255 0 255 255 0 255 255 0 255 255 0 255 255 0 255 255 0 255 255 0 255 255 0 255
255 0 255 255 0 255 255 0 255 255 0 255 255 0 255 255 0 255 255 0 255 255 0 255 255 0 255 255 0 255 255 0 255 255 0 255
255 0 255 255 0 255 255 0 255 255 0 255 255 0 255 255 0 255 255 0 255 255 0 255 255 0 255 255 0 255 255 0 255 255 0 255
255 0 255 255 0 255 255 0 255 255 0 255 255 0 255 255 0 255 255 0 255 255 0 255 255 0 255 255 0 255 255 0 255 255 0 255
255 0 255 255 0 255 255 0 255 255 0 255 255 0 255 255 0 255 255 0 255 255 0 255 255 0 255 255 0 255 255 0 255 255 0 255
255 0 255 255 0 255 255 0 255 255 0 255 255 0 255 255 0 255 255 0 255 255 0 255 255 0 255 255 0 255 255 0 255 255 0 255
255 0 255 255 0 255 255 0 255 255 0 255 255 0 255 255 0 255 255 0 255 255 0 255 255 0 255 255 0 255 255 0 255 255 0 255
255 0 255 255 0 255 255 0 255 255 0 255 255 0 255 255 0 255 255 0 255 255 0 255 255 0 255 255 0 255 255 0 255 255 0 255
255 0 255 255 0 255 255 0 255 255 0 255 255 0 255 255 0 255 255 0 255 255 0 255 255 0 255 255 0 255 255 0 255 255 0 255
255 0 255 255 0 255 255 0 255 255 0 255 255 0 255 255 0 255 255 0 255 255 0 255 255 0 255 255 0 255 255 0 255 255 0 255
255 0 255 255 0 255 255 0 255 255 0 255 255 0 255 255 0 255 255 0 255 255 0 255 255 0 255 255 0 255 255 0 255 255 0 255
255 0 255 255 0 255 255 0 255 255 0 255 255 0 255 255 0 255 255 0 255 255 0 255 255 0 255 255 0 255 255 0 255 255 0 255
255 0 255 255 0 255 255 0 255 255 0 255 255 0 255 255 0 255 255 0 255 255 0 255 255 0 255 255 0 255 255 0 255 255 0 255
255 0 255 255 0 255 255 0 255 255 0 255 255 0 255 255 0 255 255 0 255 255 0 255 255 0 255 255 0 255 255 0 255 255 0 255
255 0 255 255 0 255 255 0 255 255 0 255 255 0 255 255 0 255 255 0 255 255 0 255 255 0 255 255 0 255 255 0 255 255 0 255
255 0 255 255 0 255 255 0 255 255 0 255 255 0 255 255 0 255 255 0 255 255 0 255 255 0 255 255 0 255 255 0 255 255 0 255
255 0 255 255 0 255 255 0 255 255 0 255 255 0 255 255 0 255 255 0 255 255 0 255 255 0 255 255 0 255 255 0 255 255 0 255
255 0 255 255 0 255 255 0 255 255 0 255 255 0 255 255 0 255 255 0 255 255 0 255 255 0 255 255 0 255 255 0 255 255 0 255
255 0 255 255 0 255 255 0 255 255 0 255 255 0 255 255 0 255 255 0 255 255 0 255 255 0 255 255 0 255 255 0 255 255 0 255
255 0 255 255 0 255 255 0 255 255 0 255 255 0 255 255 0 255 255 0 255 255 0 255 255 0 255 255 0 255 255 0 255 255 0 255
255 0 255 255 0 255 255 0 255 255 0 255 255 0 255 255 0 255 255 0 255 255 0 255 255 0 255 255 0 255 255 0 255 255 0 255
255 0 255 255 0 255 255 0 255 255 0 255 255 0 255 255 0 255 255 0 255 255 0 255 255 0 255 255 0 255 255 0 255 255 0 255
255 0 255 255 0 255 255 0 255 255 0 255 255 0 255 255 0 255 255 0 255 255 0 255 255 0 255 255 0 255 255 0 255 255 0 255
255 0 255 255 0 255 255 0 255 255 0 255 255 0 255 255 0 255 255 0 255 255 0 255 255 0 255 255 0 255 255 0 255 255 0 255
255 0 255 255 0 255 255 0 255 255 0 255 255 0 255 255 0 255 255 0 255 255 0 255 255 0 255 255 0 255 255 0 255 255 0 255
255 0 255 255 0 255 255 0 255 255 0 255 255 0 255 255 0 255 255 0 255 255 0 255 255 0 255 255 0 255 255 0 255 255 0 255
255 0 255 255 0 255 255 0 255 255 0 255 255 0 255 255 0 255 255 0 255 255 0 255 255 0 255 255 0 255 255 0 255 255 0 255
255 0 255 255 0 255 255 0 255 255 0 255 255 0 255 255 0 255 255 0 255 255 0 255 255 0 255 255 0 255 255 0 255 255 0 255
255 0 255 255 0 255 255 0 255 255 0 255 255 0 255 255 0 255 255 0 255 255 0 255 255 0 255 255 0 255 255 0 255 255 0 255
255 0 255 255 0 255 255 0 255 255 0 255 255 0 255 255 0 255 255 0 255 255 0 255 255 0 255 255 0 255 255 0 255 255 0 255
255 0 255 255 0 255 255 0 255 255 0 255 255 0 255 255 0 255 255 0 255 255 0 255 255 0 255 255 0 255 255 0 255 255 0 255
255 0 255 255 0 255 255 0 255 255 0 255 255 0 255 255 0 255 255 0 255 255 0 255 255 0 255 255 0 255 255 0 255 255 0 255
255 0 255 255 0 255 255 0 255 255 0 255 255 0 255 255 0 255 255 0 255 255 0 255 255 0 255 255 0 255 255 0 255 255 0 255
255 0 255 255 0 255 255 0 255 255 0 255 255 0 255 255 0 255 255 0 255 255 0 255 255 0 255 255 0 255 255 0 255 255 0 255
255 0 255 255 0 255 255 0 255 255 0 255 255 0 255 255 0 255 255 0 255 255 0 255 255 0 255 255 0 255 255 0 255 255 0 255
