P3
60 28
255
255 0 255 255 0 255 255 0 255 255 0 255 255 0 255 255 0 255 255 0 255 255 0 255 255 0 255 255 0 255 255 0 255 255 0 255
255 0 255 255 0 255 255 0 255 255 0 255 255 0 255 255 0 255 255 0 255 255 0 255 255 0 255 255 0 255 255 0 255 255 0 255
255 0 255 255 0 255 255 0 255 255 0 255 255 0 255 255 0 255 255 0 255 255 0 255 255 0 255 255 0 255 255 0 255 255 0 255
255 0 255 255 0 255 255 0 255 255 0 255 255 0 255 255 0 255 255 0 255 255 0 255 255 0 255 255 0 255 255 0 255 255 0 255
255 0 255 255 0 255 255 0 255 255 0 255 255 0 255 255 0 255 255 0 255 255 0 255 255 0 255 255 0 255 255 0 255 255 0 255
255 0 255 255 0 255 255 0 255 255 0 255 255 0 255 255 0 255 255 0 255 255 0 255 255 0 255 255 0 255 255 0 255 255 0 255
255 0 255 255 0 255 255 0 255 255 0 255 255 0 255 255 0 255 255 0 255 255 0 255 255 0 255 255 0 255 255 0 255 255 0 255
255 0 255 150 150 147 210 205 200 190 182 177 172 165 162 168 158 150 255 0 255 255 0 255 255 0 255 255 0 255 255 0 255 255 0 255
255 0 255 255 0 255 255 0 255 255 0 255 255 0 255 255 0 255 255 0 255 255 0 255 255 0 255 255 0 255 255 0 255 255 0 255
255 0 255 255 0 255 255 0 255 255 0 255 255 0 255 255 0 255 255 0 255 255 0 255 255 0 255 255 0 255 255 0 255 255 0 255
255 0 255 255 0 255 255 0 255 255 0 255 255 0 255 255 0 255 255 0 255 255 0 255 255 0 255 255 0 255 255 0 255 255 0 255
255 0 255 255 0 255 255 0 255 255 0 255 255 0 255 255 0 255 255 0 255 255 0 255 255 0 255 255 0 255 255 0 255 255 0 255
255 0 255 161 154 147 238 233 228 251 246 240 247 240 231 238 230 219 232 225 218 211 206 200 191 184 177 181 173 163 255 0 255 255 0 255
255 0 255 255 0 255 255 0 255 255 0 255 255 0 255 255 0 255 255 0 255 255 0 255 255 0 255 255 0 255 255 0 255 255 0 255
255 0 255 255 0 255 255 0 255 255 0 255 255 0 255 255 0 255 255 0 255 255 0 255 255 0 255 255 0 255 255 0 255 255 0 255
255 0 255 255 0 255 255 0 255 255 0 255 255 0 255 255 0 255 255 0 255 255 0 255 255 0 255 255 0 255 255 0 255 255 0 255
255 0 255 255 0 255 255 0 255 255 0 255 255 0 255 255 0 255 255 0 255 255 0 255 255 0 255 255 0 255 255 0 255 255 0 255
255 0 255 119 114 108 157 148 139 197 191 184 237 231 221 239 233 223 247 240 231 242 235 226 244 237 226 248 242 233 232 227 220 197 192 187
160 151 142 255 0 255 255 0 255 255 0 255 255 0 255 255 0 255 255 0 255 255 0 255 255 0 255 255 0 255 255 0 255 255 0 255
255 0 255 255 0 255 255 0 255 255 0 255 255 0 255 255 0 255 255 0 255 255 0 255 255 0 255 255 0 255 255 0 255 255 0 255
255 0 255 255 0 255 255 0 255 255 0 255 255 0 255 255 0 255 255 0 255 255 0 255 255 0 255 255 0 255 255 0 255 255 0 255
255 0 255 255 0 255 255 0 255 255 0 255 255 0 255 255 0 255 255 0 255 255 0 255 255 0 255 255 0 255 255 0 255 255 0 255
255 0 255 255 0 255 114 110 105 139 129 118 186 178 168 205 197 189 216 210 203 237 230 220 237 230 221 238 231 222 240 233 223 245 237 227
246 240 231 221 214 204 183 175 169 255 0 255 255 0 255 255 0 255 255 0 255 255 0 255 255 0 255 255 0 255 255 0 255 255 0 255
255 0 255 255 0 255 255 0 255 255 0 255 255 0 255 255 0 255 255 0 255 255 0 255 255 0 255 255 0 255 255 0 255 255 0 255
255 0 255 226 219 210 166 160 155 255 0 255 255 0 255 255 0 255 255 0 255 255 0 255 255 0 255 255 0 255 255 0 255 255 0 255
255 0 255 255 0 255 255 0 255 255 0 255 255 0 255 255 0 255 255 0 255 255 0 255 255 0 255 255 0 255 255 0 255 255 0 255
255 0 255 255 0 255 255 0 255 110 108 104 128 122 116 180 171 161 158 149 138 217 208 197 234 229 222 244 239 233 243 237 228 235 228 219
236 229 219 238 231 219 243 236 226 236 230 222 198 191 186 153 147 144 255 0 255 255 0 255 255 0 255 255 0 255 255 0 255 255 0 255
255 0 255 255 0 255 255 0 255 255 0 255 255 0 255 255 0 255 255 0 255 255 0 255 255 0 255 255 0 255 255 0 255 255 0 255
255 0 255 226 217 206 242 235 227 180 175 171 255 0 255 255 0 255 255 0 255 255 0 255 255 0 255 255 0 255 255 0 255 255 0 255
255 0 255 255 0 255 255 0 255 255 0 255 255 0 255 255 0 255 255 0 255 255 0 255 255 0 255 255 0 255 255 0 255 255 0 255
255 0 255 255 0 255 255 0 255 255 0 255 63 63 63 105 102 97 197 188 178 203 195 185 199 190 181 218 208 198 226 218 208 238 231 221
244 239 231 241 235 227 236 230 221 240 233 224 248 242 233 240 234 227 189 181 176 255 0 255 255 0 255 255 0 255 255 0 255 255 0 255
255 0 255 255 0 255 255 0 255 255 0 255 255 0 255 255 0 255 255 0 255 255 0 255 255 0 255 255 0 255 255 0 255 255 0 255
255 0 255 223 215 206 224 216 207 238 231 222 184 178 173 255 0 255 255 0 255 255 0 255 255 0 255 255 0 255 255 0 255 255 0 255
255 0 255 255 0 255 255 0 255 255 0 255 255 0 255 255 0 255 255 0 255 255 0 255 255 0 255 255 0 255 255 0 255 255 0 255
255 0 255 255 0 255 255 0 255 255 0 255 47 50 51 13 15 16 90 86 82 192 184 175 187 180 170 206 196 183 214 204 191 216 207 195
230 224 215 245 241 236 251 247 242 242 236 228 233 225 215 236 229 219 244 237 228 230 223 213 180 173 164 255 0 255 255 0 255 255 0 255
255 0 255 255 0 255 255 0 255 255 0 255 255 0 255 255 0 255 255 0 255 255 0 255 255 0 255 255 0 255 255 0 255 255 0 255
255 0 255 237 229 219 234 226 217 221 212 202 228 219 207 195 189 181 255 0 255 255 0 255 255 0 255 255 0 255 255 0 255 255 0 255
255 0 255 255 0 255 255 0 255 255 0 255 255 0 255 255 0 255 255 0 255 255 0 255 255 0 255 255 0 255 255 0 255 255 0 255
255 0 255 255 0 255 255 0 255 255 0 255 78 79 81 46 47 48 5 7 8 95 90 85 176 168 157 173 165 155 211 201 189 217 208 196
214 204 192 217 208 196 229 221 212 239 233 225 244 238 229 235 228 218 229 221 211 238 233 224 246 240 230 223 216 208 169 165 160 255 0 255
255 0 255 255 0 255 255 0 255 255 0 255 255 0 255 255 0 255 255 0 255 255 0 255 255 0 255 255 0 255 255 0 255 255 0 255
255 0 255 238 231 221 238 231 222 234 226 217 221 214 204 231 223 212 214 209 201 255 0 255 255 0 255 255 0 255 255 0 255 255 0 255
255 0 255 255 0 255 255 0 255 255 0 255 255 0 255 255 0 255 255 0 255 255 0 255 255 0 255 255 0 255 255 0 255 255 0 255
255 0 255 255 0 255 255 0 255 255 0 255 60 62 64 65 67 69 57 61 65 7 11 16 109 104 98 186 178 168 192 183 173 211 202 190
218 208 196 214 205 193 211 200 188 218 208 197 230 223 213 241 235 227 241 236 228 235 229 220 233 226 216 239 233 223 246 240 233 192 188 183
255 0 255 255 0 255 255 0 255 255 0 255 255 0 255 255 0 255 255 0 255 255 0 255 255 0 255 255 0 255 255 0 255 255 0 255
255 0 255 220 212 202 233 227 220 237 230 222 238 232 224 224 217 208 228 220 208 211 205 196 255 0 255 255 0 255 255 0 255 255 0 255
255 0 255 255 0 255 255 0 255 255 0 255 255 0 255 255 0 255 255 0 255 255 0 255 255 0 255 255 0 255 255 0 255 255 0 255
255 0 255 255 0 255 255 0 255 255 0 255 255 0 255 59 62 65 61 66 71 40 43 49 12 14 15 138 132 125 201 194 185 185 178 167
204 194 182 216 206 195 218 209 197 217 207 195 215 205 194 220 213 203 230 223 215 240 234 226 241 235 227 231 223 213 230 222 212 242 236 226
213 208 202 139 134 129 255 0 255 255 0 255 255 0 255 255 0 255 255 0 255 255 0 255 255 0 255 255 0 255 255 0 255 255 0 255
255 0 255 214 205 193 214 204 192 217 207 195 228 221 212 236 229 222 221 212 202 227 219 208 209 204 198 255 0 255 255 0 255 255 0 255
255 0 255 255 0 255 255 0 255 255 0 255 255 0 255 255 0 255 255 0 255 255 0 255 255 0 255 255 0 255 255 0 255 255 0 255
255 0 255 255 0 255 255 0 255 255 0 255 255 0 255 255 0 255 255 0 255 45 50 55 28 36 45 35 38 40 167 160 152 190 182 172
173 165 154 194 185 174 212 203 192 219 210 199 219 211 200 217 207 196 212 202 190 217 208 196 227 220 210 240 235 226 241 236 228 241 236 229
223 217 210 205 198 191 191 184 178 255 0 255 255 0 255 255 0 255 255 0 255 255 0 255 255 0 255 255 0 255 255 0 255 255 0 255
255 0 255 204 195 183 205 194 182 208 197 184 210 200 189 216 207 197 228 221 209 233 227 218 242 236 227 204 201 195 255 0 255 255 0 255
255 0 255 255 0 255 255 0 255 255 0 255 255 0 255 255 0 255 255 0 255 255 0 255 255 0 255 255 0 255 255 0 255 255 0 255
255 0 255 255 0 255 255 0 255 255 0 255 255 0 255 255 0 255 255 0 255 92 92 92 44 53 61 4 8 14 60 57 55 179 171 161
177 171 161 185 177 168 191 183 172 194 186 175 198 188 176 207 197 184 216 206 194 214 204 192 217 208 197 217 210 200 199 193 184 201 194 183
200 192 182 224 216 205 246 238 227 197 190 182 255 0 255 255 0 255 255 0 255 255 0 255 255 0 255 255 0 255 255 0 255 255 0 255
255 0 255 191 181 169 180 171 160 179 172 163 209 200 189 197 188 174 151 141 130 168 161 153 186 180 172 220 215 206 146 142 139 255 0 255
255 0 255 255 0 255 255 0 255 255 0 255 255 0 255 255 0 255 255 0 255 255 0 255 255 0 255 255 0 255 255 0 255 255 0 255
255 0 255 255 0 255 255 0 255 255 0 255 255 0 255 255 0 255 53 55 55 64 64 63 28 29 30 26 31 34 14 19 23 93 88 83
181 174 165 183 177 168 185 178 167 187 177 166 188 178 167 189 181 170 190 181 171 212 203 193 211 203 194 177 170 160 205 197 186 218 210 200
241 233 223 242 234 225 230 222 212 235 228 216 223 217 210 161 156 155 255 0 255 255 0 255 255 0 255 255 0 255 255 0 255 255 0 255
255 0 255 164 156 148 171 164 155 182 176 167 182 172 160 76 75 75 19 28 41 56 57 64 76 73 71 97 95 94 106 105 103 255 0 255
255 0 255 255 0 255 255 0 255 255 0 255 255 0 255 255 0 255 255 0 255 255 0 255 255 0 255 255 0 255 255 0 255 255 0 255
255 0 255 255 0 255 255 0 255 255 0 255 255 0 255 255 0 255 255 0 255 56 56 56 62 60 59 49 51 50 13 16 18 24 24 25
68 67 65 72 67 65 111 98 91 146 133 123 172 163 152 195 186 177 198 190 181 188 180 170 152 146 137 207 198 187 210 199 186 210 199 187
214 205 195 225 219 210 237 231 221 231 224 214 234 227 217 246 240 232 173 169 166 255 0 255 255 0 255 255 0 255 255 0 255 255 0 255
255 0 255 46 47 48 73 71 69 110 103 95 49 63 71 12 124 164 30 158 193 20 156 189 2 64 79 255 0 255 255 0 255 255 0 255
255 0 255 255 0 255 255 0 255 255 0 255 255 0 255 255 0 255 255 0 255 255 0 255 255 0 255 255 0 255 255 0 255 255 0 255
255 0 255 255 0 255 255 0 255 255 0 255 255 0 255 255 0 255 255 0 255 68 68 70 67 68 71 47 49 51 20 21 23 50 54 59
20 21 23 2 14 23 11 64 84 9 45 65 51 62 70 90 83 80 138 130 123 150 144 135 189 178 166 189 179 167 182 174 164 202 193 182
209 198 186 205 194 181 207 196 183 225 218 208 235 229 221 234 227 217 242 235 226 176 170 165 255 0 255 255 0 255 255 0 255 255 0 255
255 0 255 15 23 31 3 8 13 13 22 31 9 22 31 16 60 82 25 78 102 19 90 119 35 67 80 255 0 255 255 0 255 255 0 255
255 0 255 255 0 255 255 0 255 255 0 255 255 0 255 255 0 255 255 0 255 255 0 255 255 0 255 255 0 255 255 0 255 255 0 255
255 0 255 255 0 255 255 0 255 255 0 255 255 0 255 255 0 255 255 0 255 255 0 255 49 53 55 39 44 49 22 24 27 42 49 54
36 33 32 21 45 59 85 190 216 103 202 231 69 164 192 46 132 157 5 18 24 59 55 50 181 172 162 202 194 182 193 184 174 175 167 157
180 171 160 182 174 165 200 190 179 204 194 184 210 203 194 219 211 203 226 217 207 234 225 214 181 177 171 255 0 255 255 0 255 255 0 255
255 0 255 56 69 81 41 49 56 28 33 39 55 59 63 71 73 79 67 71 80 61 62 71 80 88 95 86 89 91 255 0 255 255 0 255
255 0 255 255 0 255 255 0 255 255 0 255 255 0 255 255 0 255 255 0 255 255 0 255 255 0 255 255 0 255 255 0 255 255 0 255
255 0 255 255 0 255 255 0 255 255 0 255 255 0 255 255 0 255 255 0 255 255 0 255 255 0 255 42 46 48 9 13 16 29 35 41
58 60 62 38 42 45 32 83 115 57 130 160 52 147 178 37 122 155 25 36 43 12 14 16 107 104 99 198 189 177 182 172 161 164 156 146
170 162 152 175 168 159 180 173 166 186 178 169 197 188 175 196 185 172 205 196 185 227 220 212 249 242 233 193 188 182 255 0 255 255 0 255
255 0 255 47 65 82 38 45 51 37 42 47 54 64 74 37 52 64 31 47 60 26 41 53 42 57 68 255 0 255 255 0 255 255 0 255
255 0 255 255 0 255 255 0 255 255 0 255 255 0 255 255 0 255 255 0 255 255 0 255 255 0 255 255 0 255 255 0 255 255 0 255
255 0 255 255 0 255 255 0 255 255 0 255 255 0 255 255 0 255 255 0 255 255 0 255 255 0 255 42 43 43 7 10 11 24 28 34
63 71 78 74 75 72 34 42 47 19 29 35 12 27 36 52 54 58 93 89 85 41 46 50 23 24 26 57 55 53 61 61 60 74 73 72
100 97 93 116 111 106 116 111 106 135 130 123 142 136 128 152 145 137 182 174 166 189 182 173 191 184 176 213 205 196 150 145 141 255 0 255
255 0 255 16 21 27 3 4 5 17 21 25 21 26 32 22 27 33 27 31 35 55 60 63 255 0 255 255 0 255 255 0 255 255 0 255
255 0 255 255 0 255 255 0 255 255 0 255 255 0 255 255 0 255 255 0 255 255 0 255 255 0 255 255 0 255 255 0 255 255 0 255
255 0 255 255 0 255 255 0 255 255 0 255 255 0 255 255 0 255 255 0 255 255 0 255 64 72 79 84 91 97 63 66 69 27 32 38
24 29 35 56 62 68 73 74 75 75 76 75 75 73 72 66 67 70 48 52 57 29 33 38 26 30 35 36 39 41 15 20 25 27 32 40
30 36 44 28 33 39 29 29 29 34 34 33 48 48 47 56 55 55 92 90 90 86 83 82 79 77 75 90 88 86 91 89 88 255 0 255
255 0 255 30 33 35 34 40 46 41 50 59 21 31 39 38 45 52 255 0 255 255 0 255 255 0 255 255 0 255 255 0 255 255 0 255
255 0 255 255 0 255 255 0 255 255 0 255 255 0 255 255 0 255 255 0 255 255 0 255 255 0 255 255 0 255 255 0 255 255 0 255
255 0 255 255 0 255 255 0 255 255 0 255 255 0 255 255 0 255 255 0 255 78 82 85 59 70 79 85 96 106 51 56 63 6 8 12
9 10 11 13 15 18 31 37 44 31 37 45 29 36 43 31 37 42 21 25 30 29 32 36 255 0 255 255 0 255 255 0 255 255 0 255
255 0 255 255 0 255 255 0 255 255 0 255 255 0 255 255 0 255 255 0 255 255 0 255 255 0 255 255 0 255 255 0 255 255 0 255
255 0 255 26 31 36 31 41 51 38 49 58 39 48 54 70 75 79 255 0 255 255 0 255 255 0 255 255 0 255 255 0 255 255 0 255
255 0 255 255 0 255 255 0 255 255 0 255 255 0 255 255 0 255 255 0 255 255 0 255 255 0 255 255 0 255 255 0 255 255 0 255
255 0 255 255 0 255 255 0 255 255 0 255 255 0 255 255 0 255 255 0 255 63 69 73 75 87 96 42 51 59 32 36 41 62 64 63
50 54 57 14 16 17 12 14 18 14 20 27 31 34 36 255 0 255 255 0 255 255 0 255 255 0 255 255 0 255 255 0 255 255 0 255
255 0 255 255 0 255 255 0 255 255 0 255 255 0 255 255 0 255 255 0 255 255 0 255 255 0 255 255 0 255 255 0 255 255 0 255
255 0 255 23 27 32 34 36 39 255 0 255 255 0 255 255 0 255 255 0 255 255 0 255 255 0 255 255 0 255 255 0 255 255 0 255
255 0 255 255 0 255 255 0 255 255 0 255 255 0 255 255 0 255 255 0 255 255 0 255 255 0 255 255 0 255 255 0 255 255 0 255
255 0 255 255 0 255 255 0 255 255 0 255 255 0 255 255 0 255 92 100 106 79 87 97 28 33 37 35 40 45 70 81 92 66 76 86
33 38 42 22 25 29 34 42 51 44 49 55 255 0 255 255 0 255 255 0 255 255 0 255 255 0 255 255 0 255 255 0 255 255 0 255
255 0 255 255 0 255 255 0 255 255 0 255 255 0 255 255 0 255 255 0 255 255 0 255 255 0 255 255 0 255 255 0 255 255 0 255
255 0 255 255 0 255 255 0 255 255 0 255 255 0 255 255 0 255 255 0 255 255 0 255 255 0 255 255 0 255 255 0 255 255 0 255
255 0 255 255 0 255 255 0 255 255 0 255 255 0 255 255 0 255 255 0 255 255 0 255 255 0 255 255 0 255 255 0 255 255 0 255
255 0 255 255 0 255 255 0 255 255 0 255 255 0 255 85 90 95 79 87 94 56 60 65 56 58 58 55 65 74 35 46 59 39 51 65
27 32 38 29 36 44 46 53 60 255 0 255 255 0 255 255 0 255 255 0 255 255 0 255 255 0 255 255 0 255 255 0 255 255 0 255
255 0 255 255 0 255 255 0 255 255 0 255 255 0 255 255 0 255 255 0 255 255 0 255 255 0 255 255 0 255 255 0 255 255 0 255
255 0 255 255 0 255 255 0 255 255 0 255 255 0 255 255 0 255 255 0 255 255 0 255 255 0 255 255 0 255 255 0 255 255 0 255
255 0 255 255 0 255 255 0 255 255 0 255 255 0 255 255 0 255 255 0 255 255 0 255 255 0 255 255 0 255 255 0 255 255 0 255
255 0 255 255 0 255 255 0 255 81 84 86 86 92 97 59 65 68 46 49 50 61 67 72 55 66 78 39 51 64 31 40 48 34 41 46
255 0 255 255 0 255 255 0 255 255 0 255 255 0 255 255 0 255 255 0 255 255 0 255 255 0 255 255 0 255 255 0 255 255 0 255
255 0 255 255 0 255 255 0 255 255 0 255 255 0 255 255 0 255 255 0 255 255 0 255 255 0 255 255 0 255 255 0 255 255 0 255
255 0 255 255 0 255 255 0 255 255 0 255 255 0 255 255 0 255 255 0 255 255 0 255 255 0 255 255 0 255 255 0 255 255 0 255
255 0 255 255 0 255 255 0 255 255 0 255 255 0 255 255 0 255 255 0 255 255 0 255 255 0 255 255 0 255 255 0 255 255 0 255
255 0 255 255 0 255 65 67 69 80 87 96 55 63 74 56 63 71 49 55 61 35 46 56 50 56 66 67 71 76 255 0 255 255 0 255
255 0 255 255 0 255 255 0 255 255 0 255 255 0 255 255 0 255 255 0 255 255 0 255 255 0 255 255 0 255 255 0 255 255 0 255
255 0 255 255 0 255 255 0 255 255 0 255 255 0 255 255 0 255 255 0 255 255 0 255 255 0 255 255 0 255 255 0 255 255 0 255
255 0 255 255 0 255 255 0 255 255 0 255 255 0 255 255 0 255 255 0 255 255 0 255 255 0 255 255 0 255 255 0 255 255 0 255
255 0 255 255 0 255 255 0 255 255 0 255 255 0 255 255 0 255 255 0 255 255 0 255 255 0 255 255 0 255 255 0 255 255 0 255
255 0 255 255 0 255 71 75 77 53 58 62 32 37 42 33 40 47 31 36 42 40 40 44 255 0 255 255 0 255 255 0 255 255 0 255
255 0 255 255 0 255 255 0 255 255 0 255 255 0 255 255 0 255 255 0 255 255 0 255 255 0 255 255 0 255 255 0 255 255 0 255
255 0 255 255 0 255 255 0 255 255 0 255 255 0 255 255 0 255 255 0 255 255 0 255 255 0 255 255 0 255 255 0 255 255 0 255
255 0 255 255 0 255 255 0 255 255 0 255 255 0 255 255 0 255 255 0 255 255 0 255 255 0 255 255 0 255 255 0 255 255 0 255
255 0 255 255 0 255 255 0 255 255 0 255 255 0 255 255 0 255 255 0 255 255 0 255 255 0 255 255 0 255 255 0 255 255 0 255
255 0 255 255 0 255 255 0 255 255 0 255 255 0 255 255 0 255 255 0 255 255 0 255 255 0 255 255 0 255 255 0 255 255 0 255
255 0 255 255 0 255 255 0 255 255 0 255 255 0 255 255 0 255 255 0 255 255 0 255 255 0 255 255 0 255 255 0 255 255 0 255
255 0 255 255 0 255 255 0 255 255 0 255 255 0 255 255 0 255 255 0 255 255 0 255 255 0 255 255 0 255 255 0 255 255 0 255
