P3
60 48
255
255 0 255 255 0 255 255 0 255 255 0 255 255 0 255 255 0 255 255 0 255 255 0 255 255 0 255 255 0 255 255 0 255 255 0 255
255 0 255 255 0 255 255 0 255 255 0 255 255 0 255 255 0 255 255 0 255 255 0 255 255 0 255 255 0 255 255 0 255 255 0 255
255 0 255 255 0 255 255 0 255 255 0 255 255 0 255 255 0 255 255 0 255 255 0 255 255 0 255 255 0 255 255 0 255 255 0 255
255 0 255 255 0 255 255 0 255 255 0 255 255 0 255 255 0 255 255 0 255 255 0 255 255 0 255 255 0 255 255 0 255 255 0 255
255 0 255 255 0 255 255 0 255 255 0 255 255 0 255 255 0 255 255 0 255 255 0 255 255 0 255 255 0 255 255 0 255 255 0 255
255 0 255 255 0 255 255 0 255 255 0 255 255 0 255 255 0 255 255 0 255 255 0 255 255 0 255 255 0 255 255 0 255 255 0 255
255 0 255 255 0 255 255 0 255 255 0 255 168 161 153 197 189 182 188 180 171 185 175 165 159 149 137 193 187 181 190 185 178 255 0 255
255 0 255 255 0 255 255 0 255 255 0 255 255 0 255 255 0 255 255 0 255 255 0 255 255 0 255 255 0 255 255 0 255 255 0 255
255 0 255 255 0 255 255 0 255 255 0 255 255 0 255 255 0 255 255 0 255 255 0 255 255 0 255 255 0 255 255 0 255 255 0 255
255 0 255 255 0 255 255 0 255 255 0 255 255 0 255 255 0 255 255 0 255 255 0 255 255 0 255 255 0 255 255 0 255 255 0 255
255 0 255 255 0 255 255 0 255 255 0 255 255 0 255 255 0 255 255 0 255 255 0 255 255 0 255 255 0 255 255 0 255 255 0 255
255 0 255 170 165 158 205 200 192 231 225 217 232 225 218 238 232 224 231 223 213 238 231 221 209 203 194 221 215 209 251 246 240 231 226 218
229 222 215 196 188 180 187 177 171 187 178 171 255 0 255 255 0 255 255 0 255 255 0 255 255 0 255 255 0 255 255 0 255 255 0 255
255 0 255 255 0 255 255 0 255 255 0 255 255 0 255 255 0 255 255 0 255 255 0 255 255 0 255 255 0 255 255 0 255 255 0 255
255 0 255 255 0 255 255 0 255 255 0 255 255 0 255 255 0 255 255 0 255 255 0 255 255 0 255 255 0 255 255 0 255 255 0 255
255 0 255 255 0 255 255 0 255 255 0 255 255 0 255 255 0 255 255 0 255 255 0 255 255 0 255 255 0 255 255 0 255 255 0 255
255 0 255 181 173 165 206 198 191 221 213 207 236 228 218 234 226 215 231 222 212 228 220 211 236 231 223 212 204 196 207 198 188 237 230 221
235 227 218 238 230 221 242 235 227 248 244 239 228 223 219 195 188 182 181 170 162 156 148 138 255 0 255 255 0 255 255 0 255 255 0 255
255 0 255 255 0 255 255 0 255 255 0 255 255 0 255 255 0 255 255 0 255 255 0 255 255 0 255 255 0 255 255 0 255 255 0 255
255 0 255 255 0 255 255 0 255 255 0 255 255 0 255 255 0 255 255 0 255 255 0 255 255 0 255 255 0 255 255 0 255 255 0 255
255 0 255 255 0 255 255 0 255 255 0 255 255 0 255 255 0 255 255 0 255 255 0 255 255 0 255 255 0 255 255 0 255 89 89 89
79 77 73 63 61 57 78 73 71 121 116 112 157 150 142 198 191 183 230 224 217 240 234 226 228 221 213 231 224 215 218 210 199 203 194 183
233 226 215 236 229 220 235 229 222 234 228 219 237 232 224 242 236 229 243 237 228 226 220 211 194 185 177 155 148 141 255 0 255 255 0 255
255 0 255 255 0 255 255 0 255 255 0 255 255 0 255 255 0 255 255 0 255 255 0 255 255 0 255 255 0 255 255 0 255 255 0 255
255 0 255 255 0 255 255 0 255 255 0 255 255 0 255 255 0 255 255 0 255 255 0 255 255 0 255 255 0 255 255 0 255 255 0 255
255 0 255 255 0 255 255 0 255 255 0 255 255 0 255 255 0 255 255 0 255 255 0 255 255 0 255 129 120 112 92 88 84 114 114 111
134 131 127 47 50 52 15 18 21 19 19 18 56 53 50 103 97 91 158 151 144 201 193 185 228 221 211 239 231 222 210 202 191 198 189 178
212 202 190 222 216 208 227 221 213 233 227 218 237 231 222 236 231 223 233 226 216 236 229 220 243 238 231 241 237 230 188 181 173 152 142 134
255 0 255 255 0 255 255 0 255 255 0 255 255 0 255 255 0 255 255 0 255 255 0 255 255 0 255 255 0 255 255 0 255 255 0 255
255 0 255 255 0 255 255 0 255 255 0 255 255 0 255 255 0 255 255 0 255 255 0 255 255 0 255 255 0 255 255 0 255 255 0 255
255 0 255 255 0 255 255 0 255 255 0 255 160 150 143 153 144 135 151 140 133 255 0 255 154 150 145 233 227 219 203 199 193 123 121 116
76 76 75 33 38 42 20 28 34 26 29 32 29 32 35 12 15 20 51 50 49 112 106 99 167 158 149 181 174 166 214 208 202 247 241 234
242 236 228 240 235 229 232 227 221 222 214 206 219 209 199 226 218 210 234 228 220 236 228 219 234 226 217 236 229 220 237 231 222 229 221 210
183 175 167 255 0 255 255 0 255 255 0 255 255 0 255 255 0 255 255 0 255 255 0 255 255 0 255 255 0 255 255 0 255 255 0 255
255 0 255 255 0 255 255 0 255 255 0 255 255 0 255 255 0 255 255 0 255 255 0 255 255 0 255 255 0 255 255 0 255 255 0 255
255 0 255 255 0 255 255 0 255 218 211 200 241 234 224 242 236 228 237 231 223 114 107 99 195 190 183 248 242 234 241 235 226 241 234 223
231 226 219 188 186 182 108 109 108 51 54 56 35 39 46 35 45 55 14 21 27 7 9 9 63 60 56 92 87 82 217 211 205 246 242 236
240 234 226 241 234 227 243 238 232 243 238 230 236 230 220 231 224 216 228 221 212 222 215 206 231 223 214 237 230 222 231 224 216 231 223 213
242 237 227 219 214 207 156 148 143 255 0 255 255 0 255 255 0 255 255 0 255 255 0 255 255 0 255 255 0 255 255 0 255 255 0 255
255 0 255 255 0 255 255 0 255 255 0 255 255 0 255 255 0 255 255 0 255 255 0 255 255 0 255 255 0 255 255 0 255 255 0 255
255 0 255 255 0 255 187 181 174 240 231 218 226 216 205 242 234 224 195 188 179 119 114 109 240 233 225 232 225 215 231 224 214 229 221 211
235 228 218 249 242 233 253 248 240 220 217 210 129 129 126 37 40 41 36 47 57 51 61 72 16 21 27 23 23 24 132 125 117 224 220 214
249 245 239 243 238 230 243 237 228 246 241 233 249 245 237 250 245 237 249 243 235 243 238 232 227 220 211 221 213 202 227 221 210 234 227 218
235 230 221 240 235 226 243 238 230 176 171 166 255 0 255 255 0 255 255 0 255 255 0 255 255 0 255 255 0 255 255 0 255 255 0 255
255 0 255 255 0 255 255 0 255 255 0 255 255 0 255 255 0 255 255 0 255 255 0 255 255 0 255 255 0 255 255 0 255 255 0 255
255 0 255 160 155 150 234 228 219 234 228 218 233 226 217 241 232 221 139 133 124 165 162 158 245 237 226 231 224 214 234 228 219 235 228 219
234 228 218 232 225 215 229 221 210 235 228 217 248 241 230 213 209 199 124 123 120 35 44 51 42 56 71 23 37 49 36 39 41 153 146 137
217 209 200 219 211 201 224 216 205 237 230 220 244 239 229 247 243 234 252 249 243 250 245 239 249 243 234 242 235 225 229 223 214 224 217 209
221 213 204 213 204 193 211 203 193 236 230 222 198 192 187 255 0 255 255 0 255 255 0 255 255 0 255 255 0 255 255 0 255 255 0 255
255 0 255 255 0 255 255 0 255 255 0 255 255 0 255 255 0 255 255 0 255 255 0 255 255 0 255 255 0 255 255 0 255 255 0 255
255 0 255 132 126 121 183 174 167 191 184 175 222 214 206 217 212 204 73 70 66 210 204 199 243 237 228 233 227 217 233 225 217 234 228 219
236 229 220 242 234 225 237 229 220 235 228 218 230 222 212 235 227 217 249 242 233 201 198 193 87 89 88 24 35 42 18 31 43 60 60 58
179 169 157 211 201 189 209 198 185 209 199 187 210 200 188 218 210 199 234 229 221 243 239 232 247 241 233 248 241 232 252 248 242 244 240 235
225 218 208 229 221 210 226 219 209 232 226 218 242 235 225 217 211 203 135 132 126 255 0 255 255 0 255 255 0 255 255 0 255 255 0 255
255 0 255 255 0 255 255 0 255 255 0 255 255 0 255 255 0 255 255 0 255 255 0 255 255 0 255 255 0 255 255 0 255 255 0 255
255 0 255 126 119 113 177 166 157 182 173 163 204 194 182 197 189 179 55 53 51 164 157 148 199 190 181 202 193 183 235 228 217 240 235 226
243 237 228 244 238 228 246 240 230 243 237 228 243 237 227 233 227 217 234 228 220 251 246 239 250 245 238 103 102 100 20 31 38 4 6 8
97 91 84 198 190 179 215 206 195 218 208 196 217 207 195 217 207 196 210 201 190 210 200 190 222 212 201 233 226 217 242 239 234 245 241 233
247 242 234 245 239 230 242 236 227 238 231 222 228 221 210 235 227 215 235 228 221 156 151 147 255 0 255 255 0 255 255 0 255 255 0 255
255 0 255 255 0 255 255 0 255 255 0 255 255 0 255 255 0 255 255 0 255 255 0 255 255 0 255 255 0 255 255 0 255 255 0 255
255 0 255 109 107 103 153 145 135 189 180 169 189 180 170 207 197 185 93 90 83 104 99 93 204 193 181 197 187 175 208 198 187 219 211 201
226 220 209 239 233 224 249 245 237 251 246 238 251 247 239 244 240 233 246 241 234 239 233 226 232 224 213 246 238 227 61 59 56 0 5 11
34 36 39 131 124 118 150 143 137 142 138 131 181 174 165 190 183 173 213 202 190 216 204 192 217 206 194 214 205 194 214 206 196 221 213 201
247 242 234 249 247 241 247 243 236 241 234 225 236 229 219 232 225 215 235 229 220 243 236 226 151 146 141 255 0 255 255 0 255 255 0 255
255 0 255 255 0 255 255 0 255 255 0 255 255 0 255 255 0 255 255 0 255 255 0 255 255 0 255 255 0 255 255 0 255 255 0 255
255 0 255 255 0 255 99 99 95 132 128 120 162 155 145 177 168 156 125 119 111 69 66 61 194 185 173 186 179 170 212 204 194 211 201 190
205 195 183 212 203 192 234 228 222 250 246 240 252 248 241 249 246 240 246 242 234 235 228 219 230 223 212 237 228 217 209 205 197 45 51 57
31 42 52 32 31 34 46 44 43 43 44 42 79 76 73 109 104 98 141 134 127 176 168 159 205 197 186 220 212 200 217 207 195 188 177 165
188 179 170 237 230 223 241 235 227 248 243 235 237 231 222 238 231 222 232 225 216 232 224 213 233 226 215 159 156 153 255 0 255 255 0 255
255 0 255 255 0 255 255 0 255 255 0 255 255 0 255 255 0 255 255 0 255 255 0 255 255 0 255 255 0 255 255 0 255 255 0 255
255 0 255 255 0 255 36 39 37 24 26 26 92 89 83 167 159 148 177 168 157 48 47 44 162 155 147 174 167 160 198 190 180 215 205 193
209 200 188 208 198 187 210 200 189 218 210 201 238 232 224 246 241 232 234 226 215 233 226 216 235 227 217 229 221 212 249 243 234 152 150 146
12 17 19 70 71 71 48 48 47 0 0 3 0 0 1 19 19 19 38 37 37 84 81 80 132 127 121 162 157 148 206 199 189 135 130 125
168 161 152 224 214 201 213 203 190 234 227 217 244 239 233 237 231 223 234 228 219 231 223 213 229 222 210 237 231 221 157 153 149 255 0 255
255 0 255 255 0 255 255 0 255 255 0 255 255 0 255 255 0 255 255 0 255 255 0 255 255 0 255 255 0 255 255 0 255 255 0 255
255 0 255 68 71 74 61 68 75 16 22 27 3 5 7 61 58 54 123 117 108 23 22 21 99 95 89 182 173 162 167 159 149 198 188 175
210 200 187 209 200 189 210 201 190 208 199 187 205 195 183 222 213 202 237 230 220 234 226 216 234 226 216 234 227 218 231 225 216 234 229 222
71 72 71 79 83 82 139 135 130 93 90 86 39 42 44 7 10 12 6 10 13 6 11 16 22 22 24 52 47 45 141 133 125 232 226 217
167 160 152 199 190 178 218 206 192 215 204 192 224 216 207 234 226 218 238 231 222 236 229 219 230 223 213 231 225 215 234 229 222 137 133 131
255 0 255 255 0 255 255 0 255 255 0 255 255 0 255 255 0 255 255 0 255 255 0 255 255 0 255 255 0 255 255 0 255 255 0 255
255 0 255 52 57 64 54 64 76 55 61 70 28 37 45 7 16 25 17 20 23 9 12 15 24 26 28 152 146 137 173 166 156 168 160 152
198 189 178 213 203 192 210 201 190 208 199 187 207 197 185 205 196 183 214 206 195 234 226 215 240 232 223 234 228 218 225 217 207 255 250 241
134 132 129 15 20 22 79 80 77 81 79 75 106 109 112 123 125 125 72 77 77 17 19 25 13 60 78 5 101 137 46 76 94 194 180 164
169 164 154 177 168 156 213 202 188 219 209 198 216 207 195 212 202 190 226 218 206 239 234 226 236 229 219 227 218 207 230 223 213 228 224 218
255 0 255 255 0 255 255 0 255 255 0 255 255 0 255 255 0 255 255 0 255 255 0 255 255 0 255 255 0 255 255 0 255 255 0 255
255 0 255 80 82 84 37 43 49 39 49 61 52 63 74 50 60 72 20 29 41 24 34 47 16 24 32 46 46 44 170 161 150 138 141 141
121 132 139 182 177 169 214 203 190 210 200 188 211 201 189 210 201 188 205 196 183 212 203 192 229 223 215 237 230 221 240 232 221 181 176 168
48 46 44 2 3 3 32 33 31 23 24 23 7 10 12 50 54 57 121 124 126 57 55 57 18 70 91 142 238 255 35 145 184 96 105 106
218 206 189 205 195 182 192 184 174 202 193 184 212 203 193 215 205 194 211 200 187 220 212 201 236 230 220 234 226 215 223 217 207 239 233 223
192 187 181 255 0 255 255 0 255 255 0 255 255 0 255 255 0 255 255 0 255 255 0 255 255 0 255 255 0 255 255 0 255 255 0 255
255 0 255 255 0 255 40 38 36 20 28 37 27 39 51 47 59 71 51 58 64 35 38 41 13 17 20 7 13 18 72 69 65 163 158 150
114 121 125 161 154 146 186 175 165 200 191 180 204 195 183 210 201 189 212 203 191 213 204 193 179 171 160 212 206 198 184 179 171 51 48 45
29 29 29 123 121 116 213 209 198 201 198 186 89 89 86 17 18 19 13 15 18 82 81 82 25 40 53 63 140 175 119 245 255 24 90 111
144 129 117 191 187 177 196 189 179 195 186 176 194 185 175 205 195 183 203 192 180 209 200 187 217 209 198 233 229 221 236 231 223 219 212 201
229 220 208 158 154 148 255 0 255 255 0 255 255 0 255 255 0 255 255 0 255 255 0 255 255 0 255 255 0 255 255 0 255 255 0 255
255 0 255 71 71 71 45 45 46 19 27 33 8 12 15 24 33 42 38 50 61 57 63 70 40 42 43 9 18 27 5 12 18 115 112 106
189 178 166 169 159 149 179 169 158 183 175 165 181 174 165 189 180 170 192 184 174 192 185 175 180 172 162 183 175 166 63 60 56 15 16 16
119 117 115 172 169 164 153 152 149 155 154 150 189 186 182 118 115 113 13 14 14 45 48 51 79 80 81 10 59 92 19 102 149 2 23 39
47 40 36 101 97 92 144 138 131 161 155 147 166 160 151 191 181 170 183 173 161 198 190 179 204 195 183 206 197 184 230 224 216 232 225 217
231 224 214 225 219 212 135 133 135 255 0 255 255 0 255 255 0 255 255 0 255 255 0 255 255 0 255 255 0 255 255 0 255 255 0 255
255 0 255 41 48 54 68 79 91 50 54 57 22 24 25 8 11 13 16 22 29 45 55 66 62 67 69 68 72 74 25 31 38 23 27 32
160 154 146 173 165 153 145 140 134 175 161 152 192 180 168 186 178 168 184 175 164 182 175 164 190 182 171 131 125 117 13 13 13 83 85 85
134 133 130 54 54 52 1 2 4 4 6 7 72 72 72 142 139 136 92 91 90 12 14 17 49 51 54 7 12 16 0 0 3 9 18 25
2 45 66 6 46 67 26 38 47 56 49 48 83 78 72 129 121 114 162 156 148 184 176 167 198 191 180 187 180 168 137 132 124 163 157 151
168 162 155 166 159 152 104 103 102 255 0 255 255 0 255 255 0 255 255 0 255 255 0 255 255 0 255 255 0 255 255 0 255 255 0 255
255 0 255 49 51 53 33 42 50 45 53 64 65 72 78 52 59 65 15 18 21 11 14 18 37 45 53 66 67 70 49 51 54 3 6 10
87 87 83 162 151 138 52 100 120 55 129 157 103 117 124 165 150 138 192 181 168 187 179 170 192 183 173 64 61 56 29 31 32 107 108 107
53 55 54 11 13 16 45 51 60 47 52 59 2 2 2 40 44 45 134 133 132 41 43 43 10 12 14 106 106 104 54 54 51 0 25 41
0 152 206 25 192 238 40 173 208 12 75 103 5 31 46 17 27 33 58 58 58 111 106 100 150 142 133 94 86 80 51 46 42 72 67 62
105 103 99 101 99 97 255 0 255 255 0 255 255 0 255 255 0 255 255 0 255 255 0 255 255 0 255 255 0 255 255 0 255 255 0 255
255 0 255 255 0 255 80 81 83 46 54 62 39 50 60 46 58 69 54 59 63 22 24 25 5 8 12 23 31 38 51 51 52 35 38 42
13 16 20 75 69 65 53 98 115 41 175 213 37 176 210 54 141 163 147 153 151 201 190 179 163 156 148 21 22 22 73 76 77 83 83 82
18 19 23 38 65 88 57 118 147 56 114 145 45 60 79 15 18 19 103 106 109 71 70 70 37 38 38 184 181 177 182 178 171 111 114 113
75 96 104 34 101 122 23 141 175 29 191 228 23 156 197 1 43 75 0 1 4 12 16 20 22 22 23 12 51 70 0 75 114 7 41 59
255 0 255 255 0 255 255 0 255 255 0 255 255 0 255 255 0 255 255 0 255 255 0 255 255 0 255 255 0 255 255 0 255 255 0 255
255 0 255 255 0 255 255 0 255 255 0 255 39 45 47 31 44 53 45 54 64 57 58 60 23 28 31 21 28 34 74 75 77 56 59 63
6 9 14 5 9 13 43 42 42 120 134 135 61 137 160 10 144 193 91 122 140 217 199 183 124 119 114 8 9 10 89 89 88 53 53 51
25 34 44 56 132 156 212 255 255 213 250 253 65 122 153 24 28 34 50 55 56 87 86 86 25 26 28 86 90 93 145 144 140 183 179 173
240 229 219 186 176 168 132 128 131 67 99 112 11 76 104 0 10 24 17 20 24 31 41 50 6 10 17 27 89 113 54 213 240 43 114 132
255 0 255 255 0 255 255 0 255 255 0 255 255 0 255 255 0 255 255 0 255 255 0 255 255 0 255 255 0 255 255 0 255 255 0 255
255 0 255 255 0 255 255 0 255 255 0 255 255 0 255 20 22 23 31 38 46 42 48 56 45 53 57 48 51 54 18 22 26 19 23 27
12 13 15 47 51 54 20 21 20 108 100 89 179 159 138 140 135 127 142 140 137 189 179 167 79 75 71 21 22 24 70 71 70 32 31 33
21 57 77 108 214 230 74 199 223 82 199 217 122 201 218 23 42 53 28 28 27 83 82 82 30 30 31 72 77 82 57 62 66 71 74 74
81 94 104 122 126 128 189 185 176 240 232 222 217 209 203 109 107 105 7 11 15 48 57 66 57 60 64 0 9 16 8 35 48 40 49 55
255 0 255 255 0 255 255 0 255 255 0 255 255 0 255 255 0 255 255 0 255 255 0 255 255 0 255 255 0 255 255 0 255 255 0 255
255 0 255 255 0 255 255 0 255 255 0 255 255 0 255 35 38 40 15 22 28 7 13 18 25 36 44 20 29 37 37 38 40 59 60 60
2 3 4 62 66 69 19 21 23 0 4 11 53 63 66 55 63 65 65 64 62 80 76 72 11 10 10 29 30 32 72 73 72 35 34 37
16 72 96 55 204 235 5 176 217 6 176 211 52 199 229 31 58 74 37 34 33 79 82 83 18 18 18 49 51 54 70 75 77 74 76 78
49 66 80 46 63 77 50 65 79 73 85 95 154 157 157 200 201 201 107 107 105 4 8 12 65 68 72 61 61 59 42 41 40 82 81 80
108 106 106 255 0 255 148 143 141 171 163 158 255 0 255 255 0 255 255 0 255 255 0 255 255 0 255 255 0 255 255 0 255 255 0 255
255 0 255 255 0 255 255 0 255 255 0 255 255 0 255 45 51 56 33 40 46 83 86 87 73 77 81 15 26 34 37 44 51 48 52 55
12 15 16 61 63 66 64 64 63 10 16 21 0 5 14 0 8 15 0 0 0 10 12 16 7 8 12 36 37 40 74 76 76 40 41 45
16 59 82 39 185 220 19 176 216 21 187 225 21 182 223 27 48 65 44 41 40 61 64 66 6 7 8 3 4 4 43 46 48 59 67 73
47 56 66 38 45 52 50 62 74 50 66 80 44 56 68 44 52 63 120 122 122 75 74 70 0 3 8 146 144 137 207 199 186 209 203 191
136 132 127 46 45 46 190 182 172 240 233 222 198 192 182 158 151 146 255 0 255 255 0 255 255 0 255 255 0 255 255 0 255 255 0 255
255 0 255 255 0 255 255 0 255 255 0 255 255 0 255 55 62 65 43 45 48 137 140 142 197 197 197 3 5 8 22 26 31 36 40 46
20 22 25 35 38 42 104 103 99 71 72 73 38 44 47 23 25 27 26 31 35 43 49 54 14 16 19 26 30 36 70 74 77 51 54 56
40 42 51 21 130 166 52 211 243 55 211 242 29 122 152 31 27 33 59 61 59 53 54 56 14 15 16 41 43 44 25 27 27 5 9 13
1 3 5 1 1 2 13 16 21 22 27 34 41 48 56 58 67 77 74 78 84 137 135 131 44 45 44 39 43 45 131 129 125 162 157 149
90 88 83 80 78 75 237 231 221 232 226 218 241 234 225 240 235 227 175 170 167 255 0 255 255 0 255 255 0 255 255 0 255 255 0 255
255 0 255 255 0 255 255 0 255 255 0 255 255 0 255 43 52 56 42 47 53 121 123 123 242 242 242 14 15 16 5 6 7 12 13 16
10 12 16 26 29 33 47 51 53 67 65 61 109 107 100 131 125 117 91 90 85 77 78 77 22 25 28 20 24 29 61 66 72 80 80 78
44 45 48 40 63 78 21 119 149 21 117 147 42 56 67 44 42 42 82 81 80 37 41 46 18 19 20 58 61 62 21 22 23 24 25 26
37 39 39 16 18 22 23 28 32 8 10 14 12 15 18 40 44 51 75 80 87 94 98 101 69 70 68 15 16 17 87 88 87 117 116 112
63 64 63 85 81 78 206 198 190 212 205 196 228 221 211 236 229 219 244 239 232 180 176 173 255 0 255 255 0 255 255 0 255 255 0 255
255 0 255 255 0 255 255 0 255 255 0 255 255 0 255 55 64 68 61 66 72 73 72 73 255 255 255 96 97 97 7 11 16 17 21 25
24 28 32 18 21 25 48 52 56 15 16 15 14 16 16 39 41 42 68 67 63 93 92 89 47 52 55 13 17 21 38 44 50 80 81 82
66 68 67 26 28 31 38 37 40 43 42 45 40 41 44 70 69 69 74 77 79 27 32 37 11 12 13 27 29 31 3 4 4 74 74 72
32 34 34 2 6 10 65 70 72 49 52 55 63 67 66 24 26 28 51 55 59 53 59 64 38 40 41 46 46 45 62 64 64 111 111 111
58 60 61 46 45 43 161 153 144 178 168 156 189 178 164 215 207 196 239 235 230 250 244 236 180 174 169 255 0 255 255 0 255 255 0 255
255 0 255 255 0 255 255 0 255 255 0 255 255 0 255 54 61 66 75 81 88 29 29 30 174 174 175 235 234 233 59 68 75 26 35 42
24 27 30 19 24 28 30 34 39 47 49 49 11 14 17 16 26 35 24 28 32 69 71 74 95 95 95 9 12 17 20 22 25 38 42 47
91 88 84 76 75 72 38 43 44 36 39 42 75 75 76 86 88 88 37 42 47 2 4 5 9 11 13 11 11 11 0 0 0 43 44 45
51 51 52 26 28 30 39 42 44 74 79 83 29 31 31 34 36 36 8 9 11 24 27 31 56 58 63 96 96 94 56 56 55 94 96 96
54 56 56 0 1 3 100 97 92 182 175 165 144 141 135 178 170 159 199 191 180 220 213 202 247 240 227 171 167 163 255 0 255 255 0 255
255 0 255 255 0 255 255 0 255 255 0 255 255 0 255 255 0 255 47 53 61 73 76 80 35 34 35 152 154 154 74 78 82 0 5 8
24 27 30 47 56 62 3 6 10 43 47 52 62 62 59 31 35 39 21 23 26 37 41 44 40 41 42 49 50 48 8 10 11 23 26 27
39 45 53 86 89 91 97 96 94 91 88 84 74 72 70 39 42 46 11 13 15 52 52 49 177 174 165 210 207 200 161 159 154 33 34 35
43 44 45 60 62 64 7 8 9 50 53 56 3 5 7 60 63 64 55 57 60 21 23 29 56 61 67 66 67 68 25 24 24 65 67 66
30 31 30 15 28 39 25 32 39 108 105 100 130 128 125 112 110 107 139 136 131 173 165 155 206 197 186 238 233 226 131 131 129 255 0 255
255 0 255 255 0 255 255 0 255 255 0 255 255 0 255 255 0 255 46 50 54 56 63 72 100 99 99 64 62 58 30 32 32 61 54 50
30 34 38 43 53 61 26 30 33 11 16 22 64 70 77 96 98 98 76 78 76 46 49 50 14 18 20 31 31 31 28 32 35 4 5 8
32 35 39 35 42 49 42 48 52 44 46 47 38 40 42 16 18 21 17 17 16 206 201 195 255 251 241 230 223 213 233 225 214 210 206 198
63 64 63 5 8 11 10 12 14 80 80 82 160 160 160 42 45 48 67 72 77 55 55 58 45 48 50 44 46 48 56 56 57 61 63 65
42 42 42 39 47 54 21 32 41 17 21 25 29 30 34 18 21 23 70 73 74 109 108 106 131 126 121 213 205 194 171 166 160 255 0 255
255 0 255 255 0 255 255 0 255 255 0 255 255 0 255 255 0 255 255 0 255 43 49 52 50 57 63 71 75 79 39 42 47 45 46 49
13 15 18 36 44 52 59 66 73 24 26 29 19 28 40 33 41 51 36 43 50 39 42 44 15 17 18 34 39 44 39 46 51 21 29 37
12 15 18 10 11 11 12 13 14 14 15 17 12 13 15 11 19 26 63 62 62 193 183 172 208 201 193 242 238 230 204 197 186 196 188 176
229 224 216 51 51 50 151 152 152 255 255 255 255 255 255 62 67 71 44 50 56 255 0 255 255 0 255 48 50 52 54 59 64 46 51 57
255 0 255 255 0 255 71 74 74 31 37 43 54 58 67 75 77 78 255 0 255 54 56 56 72 72 71 127 122 117 188 180 170 255 0 255
255 0 255 255 0 255 255 0 255 255 0 255 255 0 255 255 0 255 255 0 255 255 0 255 46 50 51 26 33 37 17 21 25 7 10 14
2 3 5 20 24 30 50 60 69 60 63 66 14 15 14 7 9 10 7 9 11 17 18 18 35 39 43 52 61 67 28 31 33 21 29 35
31 42 51 11 16 20 1 3 6 4 6 9 21 26 32 23 31 38 50 48 46 191 181 171 197 186 174 204 196 186 242 238 231 244 239 232
240 234 226 196 192 185 197 196 194 211 211 211 210 210 210 101 104 106 30 32 35 255 0 255 255 0 255 50 53 56 41 50 59 46 52 60
255 0 255 255 0 255 255 0 255 98 100 100 49 52 54 255 0 255 255 0 255 255 0 255 255 0 255 89 89 89 129 124 118 255 0 255
255 0 255 255 0 255 255 0 255 255 0 255 255 0 255 255 0 255 255 0 255 255 0 255 255 0 255 255 0 255 255 0 255 48 48 47
18 22 29 8 10 14 23 29 35 49 57 64 55 58 60 42 47 53 33 40 47 35 42 49 50 53 57 27 34 41 48 52 54 46 47 47
18 24 31 30 40 48 45 51 56 29 31 34 16 20 24 11 14 19 46 45 45 181 171 161 162 154 145 196 186 175 205 197 187 237 232 224
234 227 219 239 229 218 117 116 111 6 10 14 16 19 22 126 125 126 85 87 88 255 0 255 255 0 255 64 68 74 51 59 65 255 0 255
255 0 255 255 0 255 255 0 255 255 0 255 72 74 74 255 0 255 255 0 255 255 0 255 255 0 255 255 0 255 97 97 95 255 0 255
255 0 255 255 0 255 255 0 255 255 0 255 255 0 255 255 0 255 255 0 255 255 0 255 255 0 255 255 0 255 255 0 255 255 0 255
19 23 27 17 22 28 6 7 8 14 18 21 31 38 46 44 56 68 48 60 73 36 48 61 32 37 41 24 28 32 24 31 36 29 33 36
11 12 15 20 30 40 63 64 65 58 57 56 0 0 1 28 35 42 28 35 42 128 118 107 63 85 95 114 115 118 209 191 176 208 200 188
231 224 214 232 222 211 226 220 211 69 71 72 12 15 20 58 60 62 21 24 24 26 30 31 255 0 255 255 0 255 73 73 75 255 0 255
255 0 255 255 0 255 255 0 255 255 0 255 255 0 255 255 0 255 255 0 255 255 0 255 255 0 255 255 0 255 255 0 255 255 0 255
255 0 255 255 0 255 255 0 255 255 0 255 255 0 255 255 0 255 255 0 255 255 0 255 255 0 255 255 0 255 255 0 255 38 42 46
9 14 20 18 25 32 26 33 41 9 13 16 8 9 12 9 12 16 11 15 18 12 16 19 32 35 38 14 15 17 11 14 17 12 15 19
12 15 18 13 17 21 20 28 36 17 25 32 11 14 18 38 42 47 28 38 46 24 16 12 50 101 119 23 156 195 95 129 143 198 188 177
203 196 185 230 225 216 255 249 239 123 119 112 0 2 7 20 25 31 35 43 51 15 21 25 62 64 64 255 0 255 255 0 255 78 78 77
145 145 145 255 0 255 255 0 255 255 0 255 255 0 255 255 0 255 255 0 255 255 0 255 255 0 255 255 0 255 255 0 255 255 0 255
255 0 255 255 0 255 255 0 255 255 0 255 255 0 255 255 0 255 255 0 255 255 0 255 255 0 255 255 0 255 255 0 255 59 64 70
56 61 64 22 23 23 18 26 34 27 38 47 17 21 25 26 27 28 24 26 26 11 15 19 13 19 28 19 26 33 18 19 20 36 35 33
62 64 63 7 8 9 14 19 25 19 27 35 25 33 44 22 28 33 45 55 66 8 11 18 109 103 86 113 184 190 31 129 160 157 151 145
179 171 159 202 196 187 136 128 118 42 39 36 49 49 49 31 32 33 18 27 36 33 43 53 38 41 45 60 62 65 54 57 59 67 69 71
106 106 106 106 105 103 255 0 255 255 0 255 255 0 255 255 0 255 255 0 255 255 0 255 255 0 255 255 0 255 255 0 255 255 0 255
255 0 255 255 0 255 255 0 255 255 0 255 255 0 255 255 0 255 255 0 255 255 0 255 255 0 255 255 0 255 255 0 255 50 54 59
56 61 66 92 87 81 33 31 28 2 8 14 19 26 33 35 40 44 34 38 42 18 22 26 17 22 29 28 34 41 49 50 50 43 43 44
74 74 73 33 33 34 0 2 4 8 13 19 14 22 30 11 14 20 44 55 66 20 28 37 33 30 29 118 96 73 144 142 135 178 170 159
178 169 157 136 129 118 45 43 41 199 191 181 252 248 240 216 213 209 39 42 43 13 22 28 28 34 39 27 33 40 36 39 43 63 66 68
60 64 66 77 78 79 97 95 92 100 99 97 87 87 85 83 82 79 105 101 99 74 74 73 255 0 255 255 0 255 255 0 255 255 0 255
255 0 255 255 0 255 255 0 255 255 0 255 255 0 255 255 0 255 255 0 255 255 0 255 255 0 255 255 0 255 255 0 255 51 56 61
46 55 67 42 51 63 56 59 62 25 25 23 7 9 11 7 9 13 2 3 5 1 2 3 0 0 0 20 24 30 40 52 63 29 35 43
36 40 45 51 55 59 33 34 33 18 18 18 14 14 16 11 11 12 31 39 51 38 46 55 12 18 26 1 12 22 48 47 44 100 94 88
164 157 147 59 56 52 114 113 108 242 232 219 221 215 206 245 240 233 221 217 209 87 88 86 6 13 18 19 26 33 26 32 36 39 40 41
51 53 56 56 61 68 90 89 87 87 84 79 94 91 85 99 97 94 84 85 89 83 86 87 255 0 255 255 0 255 255 0 255 255 0 255
255 0 255 255 0 255 255 0 255 255 0 255 255 0 255 255 0 255 255 0 255 255 0 255 255 0 255 255 0 255 255 0 255 255 0 255
41 51 59 28 39 52 29 38 48 46 47 47 66 69 71 56 59 60 52 53 54 47 48 48 41 40 37 19 22 24 15 25 36 16 24 32
15 20 25 23 30 37 39 43 46 60 64 67 46 44 40 49 50 48 7 11 17 32 41 51 33 36 39 27 34 38 11 21 27 8 10 12
22 22 23 5 6 7 127 122 115 210 203 195 228 222 214 230 223 214 231 222 212 233 224 212 150 147 141 66 68 67 9 16 23 28 39 49
35 45 57 28 36 44 41 50 56 45 52 59 43 51 60 54 64 76 62 67 76 255 0 255 255 0 255 255 0 255 255 0 255 255 0 255
255 0 255 255 0 255 255 0 255 255 0 255 255 0 255 255 0 255 255 0 255 255 0 255 255 0 255 255 0 255 255 0 255 255 0 255
78 81 83 40 50 59 31 40 51 29 34 41 43 51 60 41 46 51 44 48 54 48 52 57 60 63 65 50 53 56 21 27 34 9 13 17
5 7 9 16 23 30 27 36 46 26 36 45 29 36 44 20 26 33 6 11 17 10 13 17 50 57 68 53 57 64 47 52 57 29 36 43
23 22 23 133 127 120 167 160 150 157 149 141 184 177 168 213 205 196 220 211 200 219 210 199 246 238 226 226 222 214 121 122 120 53 59 64
28 41 52 32 44 54 33 42 49 37 45 51 53 60 65 70 75 78 255 0 255 255 0 255 255 0 255 255 0 255 255 0 255 255 0 255
255 0 255 255 0 255 255 0 255 255 0 255 255 0 255 255 0 255 255 0 255 255 0 255 255 0 255 255 0 255 255 0 255 255 0 255
255 0 255 71 76 77 42 47 53 45 54 65 36 45 55 34 42 51 36 44 54 41 50 60 38 48 58 35 42 52 40 48 59 29 33 39
35 36 36 35 41 43 41 51 58 41 49 56 42 50 57 41 49 55 37 42 47 56 55 55 44 49 53 44 56 67 60 72 86 30 40 50
58 56 56 154 149 145 119 116 114 141 135 129 159 153 144 172 164 155 177 168 157 202 192 181 214 206 196 232 226 218 251 244 233 221 215 207
148 146 143 70 71 70 72 70 67 79 79 76 255 0 255 255 0 255 255 0 255 255 0 255 255 0 255 255 0 255 255 0 255 255 0 255
255 0 255 255 0 255 255 0 255 255 0 255 255 0 255 255 0 255 255 0 255 255 0 255 255 0 255 255 0 255 255 0 255 255 0 255
255 0 255 255 0 255 255 0 255 25 29 33 18 22 25 18 22 24 22 26 30 26 30 36 33 36 43 51 55 58 22 24 27 67 69 72
255 0 255 255 0 255 255 0 255 255 0 255 255 0 255 255 0 255 255 0 255 255 0 255 255 0 255 255 0 255 18 22 25 36 38 41
54 56 56 116 113 109 141 137 133 118 119 119 137 136 135 151 148 145 141 138 134 150 142 135 172 165 158 172 167 161 186 179 171 203 195 186
237 227 216 237 228 214 215 207 195 168 164 157 255 0 255 255 0 255 255 0 255 255 0 255 255 0 255 255 0 255 255 0 255 255 0 255
255 0 255 255 0 255 255 0 255 255 0 255 255 0 255 255 0 255 255 0 255 255 0 255 255 0 255 255 0 255 255 0 255 255 0 255
255 0 255 255 0 255 255 0 255 255 0 255 255 0 255 255 0 255 255 0 255 255 0 255 255 0 255 255 0 255 255 0 255 255 0 255
255 0 255 255 0 255 255 0 255 255 0 255 255 0 255 255 0 255 255 0 255 255 0 255 255 0 255 255 0 255 255 0 255 255 0 255
255 0 255 86 86 85 74 73 70 107 105 103 129 127 124 128 126 123 132 130 126 131 128 125 146 143 139 146 143 138 138 135 130 137 134 130
151 146 141 138 132 127 142 136 130 112 109 105 255 0 255 255 0 255 255 0 255 255 0 255 255 0 255 255 0 255 255 0 255 255 0 255
255 0 255 255 0 255 255 0 255 255 0 255 255 0 255 255 0 255 255 0 255 255 0 255 255 0 255 255 0 255 255 0 255 255 0 255
255 0 255 255 0 255 255 0 255 255 0 255 255 0 255 255 0 255 255 0 255 255 0 255 255 0 255 255 0 255 255 0 255 255 0 255
255 0 255 255 0 255 255 0 255 255 0 255 255 0 255 255 0 255 255 0 255 255 0 255 255 0 255 255 0 255 255 0 255 255 0 255
255 0 255 255 0 255 255 0 255 255 0 255 255 0 255 66 65 63 103 100 99 98 97 95 106 105 103 102 101 100 95 94 93 99 98 97
101 100 100 99 101 99 96 97 97 255 0 255 255 0 255 255 0 255 255 0 255 255 0 255 255 0 255 255 0 255 255 0 255 255 0 255
255 0 255 255 0 255 255 0 255 255 0 255 255 0 255 255 0 255 255 0 255 255 0 255 255 0 255 255 0 255 255 0 255 255 0 255
255 0 255 255 0 255 255 0 255 255 0 255 255 0 255 255 0 255 255 0 255 255 0 255 255 0 255 255 0 255 255 0 255 255 0 255
255 0 255 255 0 255 255 0 255 255 0 255 255 0 255 255 0 255 255 0 255 255 0 255 255 0 255 255 0 255 255 0 255 255 0 255
255 0 255 255 0 255 255 0 255 255 0 255 255 0 255 255 0 255 255 0 255 255 0 255 255 0 255 255 0 255 255 0 255 255 0 255
255 0 255 255 0 255 255 0 255 255 0 255 255 0 255 255 0 255 255 0 255 255 0 255 255 0 255 255 0 255 255 0 255 255 0 255
